;FLAVOR:Marlin
;TIME:32397
;Filament used: 6.25794m
;Layer height: 0.06
;MINX:41.8
;MINY:49.301
;MINZ:0.3
;MAXX:178.2
;MAXY:170.699
;MAXZ:3
;Generated with Cura_SteamEngine 4.5.0
M140 S60
M105
M190 S60
M104 S200
M105
M109 S200
M82 ;absolute extrusion mode
G28 ;Home
G1 Z15.0 F6000 ;Move the platform down 15mm
;Prime the extruder
G92 E0
G1 F200 E3
G92 E0
G92 E0
G92 E0
G1 F1500 E-1
;LAYER_COUNT:46
;LAYER:0
M107
G0 F3600 X42.789 Y50.205 Z0.3
;TYPE:SKIRT
G1 F1500 E0
G1 F1800 X43.18 Y49.884 E0.02524
G1 X43.617 Y49.629 E0.05048
G1 X44.088 Y49.445 E0.07571
G1 X44.582 Y49.339 E0.10092
G1 X45.24 Y49.302 E0.1338
G1 X174.339 Y49.301 E6.57457
G1 X175.037 Y49.311 E6.6094
G1 X175.54 Y49.358 E6.6346
G1 X176.03 Y49.484 E6.65984
G1 X176.494 Y49.686 E6.68509
G1 X176.92 Y49.958 E6.71031
G1 X177.298 Y50.293 E6.73551
G1 X177.618 Y50.684 E6.76071
G1 X177.873 Y51.121 E6.78595
G1 X178.056 Y51.592 E6.81116
G1 X178.163 Y52.086 E6.83638
G1 X178.199 Y52.741 E6.86911
G1 X178.2 Y166.803 E12.55969
G1 X178.191 Y167.53 E12.59596
G1 X178.145 Y168.033 E12.62116
G1 X178.02 Y168.523 E12.64639
G1 X177.819 Y168.987 E12.67161
G1 X177.548 Y169.414 E12.69685
G1 X177.213 Y169.793 E12.72208
G1 X176.823 Y170.114 E12.74728
G1 X176.387 Y170.37 E12.77251
G1 X175.916 Y170.553 E12.79772
G1 X175.422 Y170.661 E12.82294
G1 X174.76 Y170.698 E12.85602
G1 X45.666 Y170.699 E19.29655
G1 X44.968 Y170.69 E19.33138
G1 X44.464 Y170.643 E19.35663
G1 X43.974 Y170.518 E19.38186
G1 X43.51 Y170.317 E19.40709
G1 X43.084 Y170.046 E19.43228
G1 X42.705 Y169.711 E19.45751
G1 X42.384 Y169.32 E19.48275
G1 X42.129 Y168.884 E19.50795
G1 X41.945 Y168.413 E19.53318
G1 X41.838 Y167.919 E19.55839
G1 X41.801 Y167.243 E19.59217
G1 X41.8 Y53.132 E25.28519
G1 X41.809 Y52.467 E25.31837
G1 X41.856 Y51.963 E25.34363
G1 X41.982 Y51.474 E25.36882
G1 X42.183 Y51.01 E25.39405
G1 X42.454 Y50.583 E25.41928
G1 X42.789 Y50.205 E25.44448
G1 F1500 E24.44448
;MESH:Base Bottom.obj
G0 F3600 X45.614 Y51.836
G0 X45.614 Y53.115
G0 X53.327 Y160.173
G0 X53.397 Y160.103
;TYPE:WALL-INNER
G1 F1500 E25.44448
G1 F1800 X134.594 Y160.103 E29.49541
G1 X134.602 Y151.995 E29.89992
G1 X134.602 Y58.899 E34.5445
G1 X53.397 Y58.899 E38.59583
G1 X53.397 Y160.103 E43.64492
G0 F3600 X53.327 Y160.173
G0 X45.67 Y166.829
G0 X45.6 Y166.899
G1 F1800 X45.6 Y53.101 E49.32233
G1 X174.4 Y53.101 E55.74818
G1 X174.4 Y166.899 E61.42559
G1 X45.6 Y166.899 E67.85145
G0 F3600 X45.2 Y167.299
;TYPE:WALL-OUTER
G1 F1800 X45.2 Y52.701 E73.56877
G1 X174.8 Y52.701 E80.03454
G1 X174.8 Y167.299 E85.75185
G1 X45.2 Y167.299 E92.21762
G0 F3600 X45.2 Y167.099
G0 X45.67 Y166.829
G0 X53.297 Y159.703
G0 X53.797 Y159.703
G1 F1800 X134.194 Y159.703 E96.22865
G1 X134.202 Y151.995 E96.6132
G1 X134.202 Y59.299 E101.23782
G1 X53.797 Y59.299 E105.24924
G1 X53.797 Y159.703 E110.25842
G0 F3600 X53.997 Y159.703
G0 X53.997 Y160.203
G0 X53.007 Y160.493
;TYPE:SKIN
G1 F1800 X134.984 Y160.493 E114.34827
G1 X134.992 Y151.995 E114.77224
G1 X134.992 Y58.509 E119.43627
G1 X53.007 Y58.509 E123.52652
G1 X53.007 Y160.493 E128.61452
G0 F3600 X45.99 Y166.509
G1 F1800 X45.99 Y53.491 E134.25301
G1 X174.01 Y53.491 E140.63996
G1 X174.01 Y166.509 E146.27845
G1 X45.99 Y166.509 E152.66539
G0 F3600 X46.403 Y166.328
G1 F1800 X46.169 Y166.095 E152.68187
G0 F3600 X46.169 Y165.529
G1 F1800 X46.968 Y166.328 E152.73824
G0 F3600 X47.534 Y166.328
G1 F1800 X46.169 Y164.963 E152.83455
G0 F3600 X46.169 Y164.398
G1 F1800 X48.1 Y166.328 E152.97076
G0 F3600 X48.665 Y166.328
G1 F1800 X46.169 Y163.832 E153.14686
G0 F3600 X46.169 Y163.266
G1 F1800 X49.231 Y166.328 E153.3629
G0 F3600 X49.797 Y166.328
G1 F1800 X46.169 Y162.701 E153.61884
G0 F3600 X46.169 Y162.135
G1 F1800 X50.362 Y166.328 E153.91468
G0 F3600 X50.928 Y166.328
G1 F1800 X46.169 Y161.569 E154.25045
G0 F3600 X46.169 Y161.003
G1 F1800 X51.494 Y166.328 E154.62616
G0 F3600 X52.06 Y166.328
G1 F1800 X46.169 Y160.438 E155.04177
G0 F3600 X46.169 Y159.872
G1 F1800 X52.625 Y166.328 E155.49727
G0 F3600 X53.191 Y166.328
G1 F1800 X46.169 Y159.306 E155.99271
G0 F3600 X46.169 Y158.741
G1 F1800 X53.757 Y166.328 E156.52805
G0 F3600 X54.322 Y166.328
G1 F1800 X46.169 Y158.175 E157.10329
G0 F3600 X46.169 Y157.609
G1 F1800 X54.888 Y166.328 E157.71846
G0 F3600 X55.454 Y166.328
G1 F1800 X46.169 Y157.044 E158.37354
G0 F3600 X46.169 Y156.478
G1 F1800 X56.019 Y166.328 E159.06851
G0 F3600 X56.585 Y166.328
G1 F1800 X46.169 Y155.912 E159.80341
G0 F3600 X46.169 Y155.347
G1 F1800 X57.151 Y166.328 E160.57821
G0 F3600 X57.716 Y166.328
G1 F1800 X46.169 Y154.781 E161.39292
G0 F3600 X46.169 Y154.215
G1 F1800 X58.282 Y166.328 E162.24756
G0 F3600 X58.848 Y166.328
G1 F1800 X53.192 Y160.672 E162.64662
G0 F3600 X52.827 Y160.307
G1 F1800 X46.169 Y153.65 E163.11634
G0 F3600 X46.169 Y153.084
G1 F1800 X52.827 Y159.741 E163.58606
G0 F3600 X52.827 Y159.176
G1 F1800 X46.169 Y152.518 E164.05582
G0 F3600 X46.169 Y151.953
G1 F1800 X52.827 Y158.61 E164.52554
G0 F3600 X52.827 Y158.044
G1 F1800 X46.169 Y151.387 E164.99527
G0 F3600 X46.169 Y150.821
G1 F1800 X52.827 Y157.479 E165.46502
G0 F3600 X52.827 Y156.913
G1 F1800 X46.169 Y150.255 E165.93478
G0 F3600 X46.169 Y149.69
G1 F1800 X52.827 Y156.347 E166.4045
G0 F3600 X52.827 Y155.781
G1 F1800 X46.169 Y149.124 E166.87423
G0 F3600 X46.169 Y148.558
G1 F1800 X52.827 Y155.216 E167.34398
G0 F3600 X52.827 Y154.65
G1 F1800 X46.169 Y147.993 E167.81371
G0 F3600 X46.169 Y147.427
G1 F1800 X52.827 Y154.084 E168.28343
G0 F3600 X52.827 Y153.519
G1 F1800 X46.169 Y146.861 E168.75319
G0 F3600 X46.169 Y146.296
G1 F1800 X52.827 Y152.953 E169.22291
G0 F3600 X52.827 Y152.387
G1 F1800 X46.169 Y145.73 E169.69263
G0 F3600 X46.169 Y145.164
G1 F1800 X52.827 Y151.822 E170.16239
G0 F3600 X52.827 Y151.256
G1 F1800 X46.169 Y144.599 E170.63211
G0 F3600 X46.169 Y144.033
G1 F1800 X52.827 Y150.69 E171.10184
G0 F3600 X52.827 Y150.125
G1 F1800 X46.169 Y143.467 E171.57159
G0 F3600 X46.169 Y142.902
G1 F1800 X52.827 Y149.559 E172.04132
G0 F3600 X52.827 Y148.993
G1 F1800 X46.169 Y142.336 E172.51104
G0 F3600 X46.169 Y141.77
G1 F1800 X52.827 Y148.428 E172.9808
G0 F3600 X52.827 Y147.862
G1 F1800 X46.169 Y141.204 E173.45055
G0 F3600 X46.169 Y140.639
G1 F1800 X52.827 Y147.296 E173.92028
G0 F3600 X52.827 Y146.731
G1 F1800 X46.169 Y140.073 E174.39003
G0 F3600 X46.169 Y139.507
G1 F1800 X52.827 Y146.165 E174.85979
G0 F3600 X52.827 Y145.599
G1 F1800 X46.169 Y138.942 E175.32951
G0 F3600 X46.169 Y138.376
G1 F1800 X52.827 Y145.033 E175.79924
G0 F3600 X52.827 Y144.468
G1 F1800 X46.169 Y137.81 E176.269
G0 F3600 X46.169 Y137.245
G1 F1800 X52.827 Y143.902 E176.73872
G0 F3600 X52.827 Y143.336
G1 F1800 X46.169 Y136.679 E177.20844
G0 F3600 X46.169 Y136.113
G1 F1800 X52.827 Y142.771 E177.6782
G0 F3600 X52.827 Y142.205
G1 F1800 X46.169 Y135.548 E178.14792
G0 F3600 X46.169 Y134.982
G1 F1800 X52.827 Y141.639 E178.61764
G0 F3600 X52.827 Y141.074
G1 F1800 X46.169 Y134.416 E179.0874
G0 F3600 X46.169 Y133.851
G1 F1800 X52.827 Y140.508 E179.55712
G0 F3600 X52.827 Y139.942
G1 F1800 X46.169 Y133.285 E180.02685
G0 F3600 X46.169 Y132.719
G1 F1800 X52.827 Y139.377 E180.4966
G0 F3600 X52.827 Y138.811
G1 F1800 X46.169 Y132.154 E180.96633
G0 F3600 X46.169 Y131.588
G1 F1800 X52.827 Y138.245 E181.43605
G0 F3600 X52.827 Y137.68
G1 F1800 X46.169 Y131.022 E181.90581
G0 F3600 X46.169 Y130.456
G1 F1800 X52.827 Y137.114 E182.37557
G0 F3600 X52.827 Y136.548
G1 F1800 X46.169 Y129.891 E182.84529
G0 F3600 X46.169 Y129.325
G1 F1800 X52.827 Y135.982 E183.31501
G0 F3600 X52.827 Y135.417
G1 F1800 X46.169 Y128.759 E183.78477
G0 F3600 X46.169 Y128.194
G1 F1800 X52.827 Y134.851 E184.25449
G0 F3600 X52.827 Y134.285
G1 F1800 X46.169 Y127.628 E184.72421
G0 F3600 X46.169 Y127.062
G1 F1800 X52.827 Y133.72 E185.19397
G0 F3600 X52.827 Y133.154
G1 F1800 X46.169 Y126.497 E185.66369
G0 F3600 X46.169 Y125.931
G1 F1800 X52.827 Y132.588 E186.13342
G0 F3600 X52.827 Y132.023
G1 F1800 X46.169 Y125.365 E186.60317
G0 F3600 X46.169 Y124.8
G1 F1800 X52.827 Y131.457 E187.0729
G0 F3600 X52.827 Y130.891
G1 F1800 X46.169 Y124.234 E187.54262
G0 F3600 X46.169 Y123.668
G1 F1800 X52.827 Y130.326 E188.01238
G0 F3600 X52.827 Y129.76
G1 F1800 X46.169 Y123.103 E188.4821
G0 F3600 X46.169 Y122.537
G1 F1800 X52.827 Y129.194 E188.95182
G0 F3600 X52.827 Y128.629
G1 F1800 X46.169 Y121.971 E189.42158
G0 F3600 X46.169 Y121.405
G1 F1800 X52.827 Y128.063 E189.89134
G0 F3600 X52.827 Y127.497
G1 F1800 X46.169 Y120.84 E190.36106
G0 F3600 X46.169 Y120.274
G1 F1800 X52.827 Y126.932 E190.83082
G0 F3600 X52.827 Y126.366
G1 F1800 X46.169 Y119.708 E191.30058
G0 F3600 X46.169 Y119.143
G1 F1800 X52.827 Y125.8 E191.7703
G0 F3600 X52.827 Y125.234
G1 F1800 X46.169 Y118.577 E192.24002
G0 F3600 X46.169 Y118.011
G1 F1800 X52.827 Y124.669 E192.70978
G0 F3600 X52.827 Y124.103
G1 F1800 X46.169 Y117.446 E193.1795
G0 F3600 X46.169 Y116.88
G1 F1800 X52.827 Y123.537 E193.64922
G0 F3600 X52.827 Y122.972
G1 F1800 X46.169 Y116.314 E194.11898
G0 F3600 X46.169 Y115.749
G1 F1800 X52.827 Y122.406 E194.58871
G0 F3600 X52.827 Y121.84
G1 F1800 X46.169 Y115.183 E195.05843
G0 F3600 X46.169 Y114.617
G1 F1800 X52.827 Y121.275 E195.52819
G0 F3600 X52.827 Y120.709
G1 F1800 X46.169 Y114.052 E195.99791
G0 F3600 X46.169 Y113.486
G1 F1800 X52.827 Y120.143 E196.46763
G0 F3600 X52.827 Y119.578
G1 F1800 X46.169 Y112.92 E196.93739
G0 F3600 X46.169 Y112.355
G1 F1800 X52.827 Y119.012 E197.40711
G0 F3600 X52.827 Y118.446
G1 F1800 X46.169 Y111.789 E197.87683
G0 F3600 X46.169 Y111.223
G1 F1800 X52.827 Y117.881 E198.34659
G0 F3600 X52.827 Y117.315
G1 F1800 X46.169 Y110.657 E198.81635
G0 F3600 X46.169 Y110.092
G1 F1800 X52.827 Y116.749 E199.28607
G0 F3600 X52.827 Y116.184
G1 F1800 X46.169 Y109.526 E199.75583
G0 F3600 X46.169 Y108.96
G1 F1800 X52.827 Y115.618 E200.22559
G0 F3600 X52.827 Y115.052
G1 F1800 X46.169 Y108.395 E200.69531
G0 F3600 X46.169 Y107.829
G1 F1800 X52.827 Y114.486 E201.16503
G0 F3600 X52.827 Y113.921
G1 F1800 X46.169 Y107.263 E201.63479
G0 F3600 X46.169 Y106.698
G1 F1800 X52.827 Y113.355 E202.10451
G0 F3600 X52.827 Y112.789
G1 F1800 X46.169 Y106.132 E202.57424
G0 F3600 X46.169 Y105.566
G1 F1800 X52.827 Y112.224 E203.04399
G0 F3600 X52.827 Y111.658
G1 F1800 X46.169 Y105.001 E203.51372
G0 F3600 X46.169 Y104.435
G1 F1800 X52.827 Y111.092 E203.98344
G0 F3600 X52.827 Y110.527
G1 F1800 X46.169 Y103.869 E204.4532
G0 F3600 X46.169 Y103.304
G1 F1800 X52.827 Y109.961 E204.92292
G0 F3600 X52.827 Y109.395
G1 F1800 X46.169 Y102.738 E205.39264
G0 F3600 X46.169 Y102.172
G1 F1800 X52.827 Y108.83 E205.8624
G0 F3600 X52.827 Y108.264
G1 F1800 X46.169 Y101.607 E206.33212
G0 F3600 X46.169 Y101.041
G1 F1800 X52.827 Y107.698 E206.80185
G0 F3600 X52.827 Y107.133
G1 F1800 X46.169 Y100.475 E207.2716
G0 F3600 X46.169 Y99.909
G1 F1800 X52.827 Y106.567 E207.74136
G0 F3600 X52.827 Y106.001
G1 F1800 X46.169 Y99.344 E208.21108
G0 F3600 X46.169 Y98.778
G1 F1800 X52.827 Y105.435 E208.68081
G0 F3600 X52.827 Y104.87
G1 F1800 X46.169 Y98.212 E209.15056
G0 F3600 X46.169 Y97.647
G1 F1800 X52.827 Y104.304 E209.62029
G0 F3600 X52.827 Y103.738
G1 F1800 X46.169 Y97.081 E210.09001
G0 F3600 X46.169 Y96.515
G1 F1800 X52.827 Y103.173 E210.55977
G0 F3600 X52.827 Y102.607
G1 F1800 X46.169 Y95.95 E211.02949
G0 F3600 X46.169 Y95.384
G1 F1800 X52.827 Y102.041 E211.49921
G0 F3600 X52.827 Y101.476
G1 F1800 X46.169 Y94.818 E211.96897
G0 F3600 X46.169 Y94.253
G1 F1800 X52.827 Y100.91 E212.43869
G0 F3600 X52.827 Y100.344
G1 F1800 X46.169 Y93.687 E212.90842
G0 F3600 X46.169 Y93.121
G1 F1800 X52.827 Y99.779 E213.37817
G0 F3600 X52.827 Y99.213
G1 F1800 X46.169 Y92.556 E213.8479
G0 F3600 X46.169 Y91.99
G1 F1800 X52.827 Y98.647 E214.31762
G0 F3600 X52.827 Y98.082
G1 F1800 X46.169 Y91.424 E214.78738
G0 F3600 X46.169 Y90.858
G1 F1800 X52.827 Y97.516 E215.25713
G0 F3600 X52.827 Y96.95
G1 F1800 X46.169 Y90.293 E215.72686
G0 F3600 X46.169 Y89.727
G1 F1800 X52.827 Y96.385 E216.19661
G0 F3600 X52.827 Y95.819
G1 F1800 X46.169 Y89.161 E216.66637
G0 F3600 X46.169 Y88.596
G1 F1800 X52.827 Y95.253 E217.13609
G0 F3600 X52.827 Y94.687
G1 F1800 X46.169 Y88.03 E217.60582
G0 F3600 X46.169 Y87.464
G1 F1800 X52.827 Y94.122 E218.07558
G0 F3600 X52.827 Y93.556
G1 F1800 X46.169 Y86.899 E218.5453
G0 F3600 X46.169 Y86.333
G1 F1800 X52.827 Y92.99 E219.01502
G0 F3600 X52.827 Y92.425
G1 F1800 X46.169 Y85.767 E219.48478
G0 F3600 X46.169 Y85.202
G1 F1800 X52.827 Y91.859 E219.9545
G0 F3600 X52.827 Y91.293
G1 F1800 X46.169 Y84.636 E220.42422
G0 F3600 X46.169 Y84.07
G1 F1800 X52.827 Y90.728 E220.89398
G0 F3600 X52.827 Y90.162
G1 F1800 X46.169 Y83.505 E221.3637
G0 F3600 X46.169 Y82.939
G1 F1800 X52.827 Y89.596 E221.83343
G0 F3600 X52.827 Y89.031
G1 F1800 X46.169 Y82.373 E222.30318
G0 F3600 X46.169 Y81.808
G1 F1800 X52.827 Y88.465 E222.77291
G0 F3600 X52.827 Y87.899
G1 F1800 X46.169 Y81.242 E223.24263
G0 F3600 X46.169 Y80.676
G1 F1800 X52.827 Y87.334 E223.71239
G0 F3600 X52.827 Y86.768
G1 F1800 X46.169 Y80.11 E224.18215
G0 F3600 X46.169 Y79.545
G1 F1800 X52.827 Y86.202 E224.65187
G0 F3600 X52.827 Y85.636
G1 F1800 X46.169 Y78.979 E225.12159
G0 F3600 X46.169 Y78.413
G1 F1800 X52.827 Y85.071 E225.59135
G0 F3600 X52.827 Y84.505
G1 F1800 X46.169 Y77.848 E226.06107
G0 F3600 X46.169 Y77.282
G1 F1800 X52.827 Y83.939 E226.53079
G0 F3600 X52.827 Y83.374
G1 F1800 X46.169 Y76.716 E227.00055
G0 F3600 X46.169 Y76.151
G1 F1800 X52.827 Y82.808 E227.47027
G0 F3600 X52.827 Y82.242
G1 F1800 X46.169 Y75.585 E227.94
G0 F3600 X46.169 Y75.019
G1 F1800 X52.827 Y81.677 E228.40975
G0 F3600 X52.827 Y81.111
G1 F1800 X46.169 Y74.454 E228.87948
G0 F3600 X46.169 Y73.888
G1 F1800 X52.827 Y80.545 E229.3492
G0 F3600 X52.827 Y79.98
G1 F1800 X46.169 Y73.322 E229.81896
G0 F3600 X46.169 Y72.757
G1 F1800 X52.827 Y79.414 E230.28868
G0 F3600 X52.827 Y78.848
G1 F1800 X46.169 Y72.191 E230.7584
G0 F3600 X46.169 Y71.625
G1 F1800 X52.827 Y78.283 E231.22816
G0 F3600 X52.827 Y77.717
G1 F1800 X46.169 Y71.059 E231.69792
G0 F3600 X46.169 Y70.494
G1 F1800 X52.827 Y77.151 E232.16764
G0 F3600 X52.827 Y76.586
G1 F1800 X46.169 Y69.928 E232.6374
G0 F3600 X46.169 Y69.362
G1 F1800 X52.827 Y76.02 E233.10716
G0 F3600 X52.827 Y75.454
G1 F1800 X46.169 Y68.797 E233.57688
G0 F3600 X46.169 Y68.231
G1 F1800 X52.827 Y74.888 E234.0466
G0 F3600 X52.827 Y74.323
G1 F1800 X46.169 Y67.665 E234.51636
G0 F3600 X46.169 Y67.1
G1 F1800 X52.827 Y73.757 E234.98608
G0 F3600 X52.827 Y73.191
G1 F1800 X46.169 Y66.534 E235.4558
G0 F3600 X46.169 Y65.968
G1 F1800 X52.827 Y72.626 E235.92556
G0 F3600 X52.827 Y72.06
G1 F1800 X46.169 Y65.403 E236.39529
G0 F3600 X46.169 Y64.837
G1 F1800 X52.827 Y71.494 E236.86501
G0 F3600 X52.827 Y70.929
G1 F1800 X46.169 Y64.271 E237.33477
G0 F3600 X46.169 Y63.706
G1 F1800 X52.827 Y70.363 E237.80449
G0 F3600 X52.827 Y69.797
G1 F1800 X46.169 Y63.14 E238.27421
G0 F3600 X46.169 Y62.574
G1 F1800 X52.827 Y69.232 E238.74397
G0 F3600 X52.827 Y68.666
G1 F1800 X46.169 Y62.009 E239.21369
G0 F3600 X46.169 Y61.443
G1 F1800 X52.827 Y68.1 E239.68341
G0 F3600 X52.827 Y67.535
G1 F1800 X46.169 Y60.877 E240.15317
G0 F3600 X46.169 Y60.311
G1 F1800 X52.827 Y66.969 E240.62293
G0 F3600 X52.827 Y66.403
G1 F1800 X46.169 Y59.746 E241.09265
G0 F3600 X46.169 Y59.18
G1 F1800 X52.827 Y65.838 E241.56241
G0 F3600 X52.827 Y65.272
G1 F1800 X46.169 Y58.614 E242.03217
G0 F3600 X46.169 Y58.049
G1 F1800 X52.827 Y64.706 E242.50189
G0 F3600 X52.827 Y64.14
G1 F1800 X46.169 Y57.483 E242.97161
G0 F3600 X46.169 Y56.917
G1 F1800 X52.827 Y63.575 E243.44137
G0 F3600 X52.827 Y63.009
G1 F1800 X46.169 Y56.352 E243.91109
G0 F3600 X46.169 Y55.786
G1 F1800 X52.827 Y62.443 E244.38082
G0 F3600 X52.827 Y61.878
G1 F1800 X46.169 Y55.22 E244.85057
G0 F3600 X46.169 Y54.655
G1 F1800 X52.827 Y61.312 E245.3203
G0 F3600 X52.827 Y60.746
G1 F1800 X46.169 Y54.089 E245.79002
G0 F3600 X46.316 Y53.67
G1 F1800 X52.827 Y60.181 E246.24941
G0 F3600 X52.827 Y59.615
G1 F1800 X46.882 Y53.67 E246.66886
G0 F3600 X47.448 Y53.67
G1 F1800 X52.827 Y59.049 E247.04837
G0 F3600 X52.827 Y58.484
G1 F1800 X48.013 Y53.67 E247.38803
G0 F3600 X48.579 Y53.67
G1 F1800 X53.237 Y58.328 E247.71668
G0 F3600 X53.803 Y58.328
G1 F1800 X49.145 Y53.67 E248.04532
G0 F3600 X49.711 Y53.67
G1 F1800 X54.368 Y58.328 E248.37393
G0 F3600 X54.934 Y58.328
