;FLAVOR:Marlin
;TIME:29598
;Filament used: 5.68947m
;Layer height: 0.06
;MINX:64.051
;MINY:59.301
;MINZ:0.3
;MAXX:155.949
;MAXY:160.699
;MAXZ:3
;Generated with Cura_SteamEngine 4.6.1
M140 S60
M105
M190 S60
M104 S215
M105
M109 S215
M82 ;absolute extrusion mode
G28 ;Home
G1 Z15.0 F6000 ;Move the platform down 15mm
;Prime the extruder
G92 E0
G1 F200 E3
G92 E0
G92 E0
G92 E0
G1 F1500 E-1
;LAYER_COUNT:46
;LAYER:0
M107
G0 F3600 X153.289 Y59.358 Z0.3
;TYPE:SKIRT
G1 F1500 E0
G1 F1800 X153.779 Y59.484 E0.02524
G1 X154.243 Y59.686 E0.05049
G1 X154.669 Y59.958 E0.07571
G1 X155.047 Y60.293 E0.1009
G1 X155.367 Y60.684 E0.12611
G1 X155.622 Y61.121 E0.15135
G1 X155.805 Y61.592 E0.17656
G1 X155.912 Y62.086 E0.20178
G1 X155.948 Y62.741 E0.23451
G1 X155.949 Y156.803 E4.92728
G1 X155.94 Y157.53 E4.96355
G1 X155.894 Y158.033 E4.98875
G1 X155.769 Y158.523 E5.01398
G1 X155.568 Y158.987 E5.03921
G1 X155.297 Y159.414 E5.06444
G1 X154.962 Y159.793 E5.08968
G1 X154.572 Y160.114 E5.11488
G1 X154.136 Y160.37 E5.1401
G1 X153.665 Y160.553 E5.16531
G1 X153.171 Y160.661 E5.19054
G1 X152.509 Y160.698 E5.22362
G1 X81.912 Y160.699 E8.74572
G1 X81.214 Y160.689 E8.78054
G1 X80.711 Y160.642 E8.80575
G1 X80.221 Y160.516 E8.83099
G1 X79.757 Y160.314 E8.85624
G1 X79.331 Y160.042 E8.88145
G1 X78.953 Y159.707 E8.90665
G1 X78.633 Y159.316 E8.93186
G1 X78.378 Y158.879 E8.9571
G1 X78.167 Y158.309 E8.98742
G1 X77.524 Y155.715 E9.12076
G1 X76.789 Y153.061 E9.25815
G1 X75.995 Y150.474 E9.39316
G1 X75.102 Y147.84 E9.53191
G1 X74.156 Y145.285 E9.66784
G1 X73.138 Y142.759 E9.80371
G1 X72.029 Y140.217 E9.94208
G1 X70.888 Y137.79 E10.07587
G1 X69.645 Y135.331 E10.21334
G1 X68.315 Y132.873 E10.35277
G1 X66.972 Y130.553 E10.48651
G1 X65.533 Y128.22 E10.62326
G1 X65.138 Y127.618 E10.65918
G1 X64.561 Y126.71 E10.71286
G1 X64.324 Y126.263 E10.7381
G1 X64.161 Y125.784 E10.76334
G1 X64.064 Y125.102 E10.79771
G1 X64.051 Y124.667 E10.81942
G1 X64.051 Y100.162 E12.04198
G1 X64.061 Y99.465 E12.07676
G1 X64.098 Y99.024 E12.09884
G1 X64.182 Y98.479 E12.12635
G1 X64.488 Y96.691 E12.21685
G1 X64.87 Y93.998 E12.35255
G1 X65.177 Y91.269 E12.48956
G1 X65.409 Y88.524 E12.62699
G1 X65.562 Y85.804 E12.76291
G1 X65.638 Y83.057 E12.90001
G1 X65.636 Y80.338 E13.03566
G1 X65.556 Y77.582 E13.17322
G1 X65.4 Y74.841 E13.31019
G1 X65.167 Y72.125 E13.44619
G1 X64.858 Y69.427 E13.58167
G1 X64.462 Y66.653 E13.72147
G1 X64.241 Y65.311 E13.78932
G1 X64.107 Y64.538 E13.82846
G1 X64.062 Y64.091 E13.85088
G1 X64.051 Y63.132 E13.89872
G1 X64.06 Y62.467 E13.9319
G1 X64.107 Y61.963 E13.95716
G1 X64.233 Y61.474 E13.98235
G1 X64.434 Y61.01 E14.00758
G1 X64.705 Y60.583 E14.03281
G1 X65.04 Y60.205 E14.05801
G1 X65.431 Y59.884 E14.08325
G1 X65.868 Y59.629 E14.10849
G1 X66.339 Y59.445 E14.13372
G1 X66.833 Y59.339 E14.15892
G1 X67.491 Y59.302 E14.1918
G1 X152.088 Y59.301 E18.41237
G1 X152.786 Y59.311 E18.44719
G1 X153.289 Y59.358 E18.4724
G1 F1500 E17.4724
;MESH:Base Top.obj
G0 F3600 X152.135 Y61.836
G0 X152.135 Y63.115
G0 X115.879 Y139.63
G0 X103.576 Y139.672
G0 X103.646 Y139.602
;TYPE:WALL-INNER
G1 F1500 E18.4724
G1 F1800 X115.851 Y139.602 E19.08131
G1 X115.851 Y64.397 E22.8333
G1 X103.646 Y64.397 E23.44221
G1 X103.646 Y139.602 E27.1942
G0 F3600 X103.576 Y139.672
G0 X81.921 Y124.327
G0 X81.851 Y124.397
G1 F1800 X67.851 Y124.397 E27.89266
G1 X67.851 Y100.101 E29.1048
G1 X81.851 Y100.101 E29.80326
G1 X81.851 Y63.397 E31.63443
G1 X67.851 Y63.397 E32.33289
G1 X67.851 Y63.101 E32.34766
G1 X81.851 Y63.101 E32.86452
G1 X152.149 Y63.101 E36.3717
G1 X152.149 Y156.899 E41.05131
G1 X81.851 Y156.899 E44.55849
G1 X81.851 Y124.397 E46.18002
G0 F3600 X81.451 Y124.797
;TYPE:WALL-OUTER
G1 F1800 X67.451 Y124.797 E46.87848
G1 X67.451 Y99.701 E48.13053
G1 X81.451 Y99.701 E48.82899
G1 X81.451 Y63.797 E50.62025
G1 X67.451 Y63.797 E51.31871
G1 X67.451 Y62.701 E51.37339
G1 X152.549 Y62.701 E55.61895
G1 X152.549 Y157.299 E60.33846
G1 X81.451 Y157.299 E63.88555
G1 X81.451 Y124.797 E65.50708
G0 F3600 X81.251 Y124.797
G0 X81.251 Y124.297
G0 X103.546 Y139.202
G0 X104.046 Y139.202
G1 F1800 X115.451 Y139.202 E66.07608
G1 X115.451 Y64.797 E69.78816
G1 X104.046 Y64.797 E70.35716
G1 X104.046 Y139.202 E74.06924
G0 F3600 X104.246 Y139.202
G0 X104.246 Y139.702
G0 X103.256 Y139.992
;TYPE:SKIN
G1 F1800 X116.241 Y139.992 E74.71706
G1 X116.241 Y64.007 E78.50797
G1 X103.256 Y64.007 E79.1558
G1 X103.256 Y139.992 E82.9467
G0 F3600 X82.241 Y124.007
G1 F1800 X68.241 Y124.007 E83.64517
G1 X68.241 Y100.491 E84.81838
G1 X82.241 Y100.491 E85.51685
G1 X82.241 Y63.491 E87.36278
G1 X151.759 Y63.491 E90.83105
G1 X151.759 Y156.509 E95.47174
G1 X82.241 Y156.509 E98.94001
G1 X82.241 Y124.007 E100.56154
G0 F3600 X82.788 Y156.327
G1 F1800 X82.421 Y155.96 E100.58743
G0 F3600 X82.421 Y155.394
G1 F1800 X83.354 Y156.327 E100.65326
G0 F3600 X83.92 Y156.327
G1 F1800 X82.421 Y154.828 E100.75902
G0 F3600 X82.421 Y154.263
G1 F1800 X84.485 Y156.327 E100.90465
G0 F3600 X85.051 Y156.327
G1 F1800 X82.421 Y153.697 E101.09021
G0 F3600 X82.421 Y153.131
G1 F1800 X85.617 Y156.327 E101.3157
G0 F3600 X86.182 Y156.327
G1 F1800 X82.421 Y152.566 E101.58106
G0 F3600 X82.421 Y152
G1 F1800 X86.748 Y156.327 E101.88636
G0 F3600 X87.314 Y156.327
G1 F1800 X82.421 Y151.434 E102.23158
G0 F3600 X82.421 Y150.869
G1 F1800 X87.879 Y156.327 E102.61667
G0 F3600 X88.445 Y156.327
G1 F1800 X82.421 Y150.303 E103.0417
G0 F3600 X82.421 Y149.737
G1 F1800 X89.011 Y156.327 E103.50666
G0 F3600 X89.576 Y156.327
G1 F1800 X82.421 Y149.171 E104.01152
G0 F3600 X82.421 Y148.606
G1 F1800 X90.142 Y156.327 E104.55628
G0 F3600 X90.708 Y156.327
G1 F1800 X82.421 Y148.04 E105.14097
G0 F3600 X82.421 Y147.474
G1 F1800 X91.274 Y156.327 E105.7656
G0 F3600 X91.839 Y156.327
G1 F1800 X82.421 Y146.909 E106.43009
G0 F3600 X82.421 Y146.343
G1 F1800 X92.405 Y156.327 E107.13451
G0 F3600 X92.971 Y156.327
G1 F1800 X82.421 Y145.777 E107.87887
G0 F3600 X82.421 Y145.212
G1 F1800 X93.536 Y156.327 E108.6631
G0 F3600 X94.102 Y156.327
G1 F1800 X82.421 Y144.646 E109.48725
G0 F3600 X82.421 Y144.08
G1 F1800 X94.668 Y156.327 E110.35135
G0 F3600 X95.233 Y156.327
G1 F1800 X82.421 Y143.515 E111.2553
G0 F3600 X82.421 Y142.949
G1 F1800 X95.799 Y156.327 E112.19919
G0 F3600 X96.365 Y156.327
G1 F1800 X82.421 Y142.383 E113.18302
G0 F3600 X82.421 Y141.818
G1 F1800 X96.93 Y156.327 E114.2067
G0 F3600 X97.496 Y156.327
G1 F1800 X82.421 Y141.252 E115.27033
G0 F3600 X82.421 Y140.686
G1 F1800 X98.062 Y156.327 E116.37388
G0 F3600 X98.627 Y156.327
G1 F1800 X82.421 Y140.12 E117.51734
G0 F3600 X82.421 Y139.555
G1 F1800 X99.193 Y156.327 E118.7007
G0 F3600 X99.759 Y156.327
G1 F1800 X82.421 Y138.989 E119.92398
G0 F3600 X82.421 Y138.423
G1 F1800 X100.325 Y156.327 E121.18721
G0 F3600 X100.89 Y156.327
G1 F1800 X82.421 Y137.858 E122.4903
G0 F3600 X82.421 Y137.292
G1 F1800 X101.456 Y156.327 E123.83332
G0 F3600 X102.022 Y156.327
G1 F1800 X82.421 Y136.726 E125.21627
G0 F3600 X82.421 Y136.161
G1 F1800 X102.587 Y156.327 E126.6391
G0 F3600 X103.153 Y156.327
G1 F1800 X82.421 Y135.595 E128.10185
G0 F3600 X82.421 Y135.029
G1 F1800 X103.719 Y156.327 E129.60454
G0 F3600 X104.284 Y156.327
G1 F1800 X82.421 Y134.464 E131.14709
G0 F3600 X82.421 Y133.898
G1 F1800 X104.85 Y156.327 E132.72958
G0 F3600 X105.416 Y156.327
G1 F1800 X82.421 Y133.332 E134.352
G0 F3600 X82.421 Y132.767
G1 F1800 X105.981 Y156.327 E136.01429
G0 F3600 X106.547 Y156.327
G1 F1800 X82.421 Y132.201 E137.7165
G0 F3600 X82.421 Y131.635
G1 F1800 X107.113 Y156.327 E139.45866
G0 F3600 X107.678 Y156.327
G1 F1800 X82.421 Y131.07 E141.24068
G0 F3600 X82.421 Y130.504
G1 F1800 X108.244 Y156.327 E143.06263
G0 F3600 X108.81 Y156.327
G1 F1800 X82.421 Y129.938 E144.92452
G0 F3600 X82.421 Y129.372
G1 F1800 X109.375 Y156.327 E146.8263
G0 F3600 X109.941 Y156.327
G1 F1800 X82.421 Y128.807 E148.76799
G0 F3600 X82.421 Y128.241
G1 F1800 X110.507 Y156.327 E150.7496
G0 F3600 X111.073 Y156.327
G1 F1800 X82.421 Y127.675 E152.77116
G0 F3600 X82.421 Y127.11
G1 F1800 X111.638 Y156.327 E154.83257
G0 F3600 X112.204 Y156.327
G1 F1800 X82.421 Y126.544 E156.93393
G0 F3600 X82.421 Y125.978
G1 F1800 X112.77 Y156.327 E159.07521
G0 F3600 X113.335 Y156.327
G1 F1800 X82.421 Y125.413 E161.25636
G0 F3600 X82.421 Y124.847
G1 F1800 X113.901 Y156.327 E163.47745
G0 F3600 X114.467 Y156.327
G1 F1800 X82.421 Y124.281 E165.73846
G0 F3600 X81.964 Y123.825
G1 F1800 X68.421 Y110.281 E166.69403
G0 F3600 X68.421 Y109.716
G1 F1800 X115.032 Y156.327 E169.98269
G0 F3600 X115.598 Y156.327
G1 F1800 X68.421 Y109.15 E173.31128
G0 F3600 X68.421 Y108.584
G1 F1800 X116.164 Y156.327 E176.67981
G0 F3600 X116.729 Y156.327
G1 F1800 X68.421 Y108.019 E180.0882
G0 F3600 X68.421 Y107.453
G1 F1800 X117.295 Y156.327 E183.53652
G0 F3600 X117.861 Y156.327
G1 F1800 X68.421 Y106.887 E187.02478
G0 F3600 X68.421 Y106.321
G1 F1800 X118.426 Y156.327 E190.55294
G0 F3600 X118.992 Y156.327
G1 F1800 X68.421 Y105.756 E194.121
G0 F3600 X68.421 Y105.19
G1 F1800 X103.076 Y139.845 E196.56609
G0 F3600 X103.401 Y140.171
G1 F1800 X119.558 Y156.327 E197.70602
G0 F3600 X120.124 Y156.327
G1 F1800 X103.967 Y140.171 E198.84595
G0 F3600 X104.533 Y140.171
G1 F1800 X120.689 Y156.327 E199.98584
G0 F3600 X121.255 Y156.327
G1 F1800 X105.098 Y140.171 E201.12577
G0 F3600 X105.664 Y140.171
G1 F1800 X121.821 Y156.327 E202.2657
G0 F3600 X122.386 Y156.327
G1 F1800 X106.23 Y140.171 E203.40559
G0 F3600 X106.795 Y140.171
G1 F1800 X122.952 Y156.327 E204.54552
G0 F3600 X123.518 Y156.327
G1 F1800 X107.361 Y140.171 E205.68545
G0 F3600 X107.927 Y140.171
G1 F1800 X124.083 Y156.327 E206.82534
G0 F3600 X124.649 Y156.327
G1 F1800 X108.492 Y140.171 E207.96527
G0 F3600 X109.058 Y140.171
G1 F1800 X125.215 Y156.327 E209.1052
G0 F3600 X125.78 Y156.327
G1 F1800 X109.624 Y140.171 E210.24509
G0 F3600 X110.189 Y140.171
G1 F1800 X126.346 Y156.327 E211.38502
G0 F3600 X126.912 Y156.327
G1 F1800 X110.755 Y140.171 E212.52495
G0 F3600 X111.321 Y140.171
G1 F1800 X127.477 Y156.327 E213.66484
G0 F3600 X128.043 Y156.327
G1 F1800 X111.886 Y140.171 E214.80477
G0 F3600 X112.452 Y140.171
G1 F1800 X128.609 Y156.327 E215.9447
G0 F3600 X129.174 Y156.327
G1 F1800 X113.018 Y140.171 E217.08459
G0 F3600 X113.583 Y140.171
G1 F1800 X129.74 Y156.327 E218.22452
G0 F3600 X130.306 Y156.327
G1 F1800 X114.149 Y140.171 E219.36445
G0 F3600 X114.715 Y140.171
G1 F1800 X130.872 Y156.327 E220.50438
G0 F3600 X131.437 Y156.327
G1 F1800 X115.281 Y140.171 E221.64427
G0 F3600 X115.846 Y140.171
G1 F1800 X132.003 Y156.327 E222.7842
G0 F3600 X132.569 Y156.327
G1 F1800 X116.412 Y140.171 E223.92413
G0 F3600 X116.42 Y139.613
G1 F1800 X133.134 Y156.327 E225.10339
G0 F3600 X133.7 Y156.327
G1 F1800 X116.42 Y139.047 E226.32259
G0 F3600 X116.42 Y138.481
G1 F1800 X134.266 Y156.327 E227.58172
G0 F3600 X134.831 Y156.327
G1 F1800 X116.42 Y137.916 E228.88072
G0 F3600 X116.42 Y137.35
G1 F1800 X135.397 Y156.327 E230.21965
G0 F3600 X135.963 Y156.327
G1 F1800 X116.42 Y136.784 E231.59851
G0 F3600 X116.42 Y136.219
G1 F1800 X136.528 Y156.327 E233.01724
G0 F3600 X137.094 Y156.327
G1 F1800 X116.42 Y135.653 E234.4759
G0 F3600 X116.42 Y135.087
G1 F1800 X137.66 Y156.327 E235.9745
G0 F3600 X138.225 Y156.327
G1 F1800 X116.42 Y134.522 E237.51296
G0 F3600 X116.42 Y133.956
G1 F1800 X138.791 Y156.327 E239.09135
G0 F3600 X139.357 Y156.327
G1 F1800 X116.42 Y133.39 E240.70968
G0 F3600 X116.42 Y132.825
G1 F1800 X139.922 Y156.327 E242.36787
G0 F3600 X140.488 Y156.327
G1 F1800 X116.42 Y132.259 E244.066
G0 F3600 X116.42 Y131.693
G1 F1800 X141.054 Y156.327 E245.80406
G0 F3600 X141.62 Y156.327
G1 F1800 X116.42 Y131.128 E247.58202
G0 F3600 X116.42 Y130.562
G1 F1800 X142.185 Y156.327 E249.39988
G0 F3600 X142.751 Y156.327
G1 F1800 X116.42 Y129.996 E251.25768
G0 F3600 X116.42 Y129.43
G1 F1800 X143.317 Y156.327 E253.15541
G0 F3600 X143.882 Y156.327
G1 F1800 X116.42 Y128.865 E255.093
G0 F3600 X116.42 Y128.299
G1 F1800 X144.448 Y156.327 E257.07053
G0 F3600 X145.014 Y156.327
G1 F1800 X116.42 Y127.733 E259.08799
G0 F3600 X116.42 Y127.168
G1 F1800 X145.579 Y156.327 E261.14531
G0 F3600 X146.145 Y156.327
G1 F1800 X116.42 Y126.602 E263.24257
G0 F3600 X116.42 Y126.036
G1 F1800 X146.711 Y156.327 E265.37977
G0 F3600 X147.276 Y156.327
G1 F1800 X116.42 Y125.471 E267.55682
G0 F3600 X116.42 Y124.905
G1 F1800 X147.842 Y156.327 E269.77381
G0 F3600 X148.408 Y156.327
G1 F1800 X116.42 Y124.339 E272.03074
G0 F3600 X116.42 Y123.774
G1 F1800 X148.973 Y156.327 E274.32753
G0 F3600 X149.539 Y156.327
G1 F1800 X116.42 Y123.208 E276.66425
G0 F3600 X116.42 Y122.642
G1 F1800 X150.105 Y156.327 E279.04091
G0 F3600 X150.671 Y156.327
G1 F1800 X116.42 Y122.077 E281.45747
G0 F3600 X116.42 Y121.511
G1 F1800 X151.236 Y156.327 E283.91393
G0 F3600 X151.578 Y156.104
G1 F1800 X116.42 Y120.945 E286.39455
G0 F3600 X116.42 Y120.379
G1 F1800 X151.578 Y155.538 E288.87517
G0 F3600 X151.578 Y154.973
G1 F1800 X116.42 Y119.814 E291.35579
G0 F3600 X116.42 Y119.248
G1 F1800 X151.578 Y154.407 E293.83642
G0 F3600 X151.578 Y153.841
G1 F1800 X116.42 Y118.682 E296.31704
G0 F3600 X116.42 Y118.117
G1 F1800 X151.578 Y153.276 E298.79766
G0 F3600 X151.578 Y152.71
G1 F1800 X116.42 Y117.551 E301.27828
G0 F3600 X116.42 Y116.985
G1 F1800 X151.578 Y152.144 E303.7589
G0 F3600 X151.578 Y151.578
G1 F1800 X116.42 Y116.42 E306.23949
G0 F3600 X116.42 Y115.854
G1 F1800 X151.578 Y151.013 E308.72011
G0 F3600 X151.578 Y150.447
G1 F1800 X116.42 Y115.288 E311.20074
G0 F3600 X116.42 Y114.723
G1 F1800 X151.578 Y149.881 E313.68132
G0 F3600 X151.578 Y149.316
G1 F1800 X116.42 Y114.157 E316.16194
G0 F3600 X116.42 Y113.591
G1 F1800 X151.578 Y148.75 E318.64257
G0 F3600 X151.578 Y148.184
G1 F1800 X116.42 Y113.026 E321.12315
G0 F3600 X116.42 Y112.46
G1 F1800 X151.578 Y147.619 E323.60378
G0 F3600 X151.578 Y147.053
G1 F1800 X116.42 Y111.894 E326.0844
G0 F3600 X116.42 Y111.329
G1 F1800 X151.578 Y146.487 E328.56498
G0 F3600 X151.578 Y145.922
G1 F1800 X116.42 Y110.763 E331.04561
G0 F3600 X116.42 Y110.197
G1 F1800 X151.578 Y145.356 E333.52623
G0 F3600 X151.578 Y144.79
G1 F1800 X116.42 Y109.631 E336.00685
G0 F3600 X116.42 Y109.066
G1 F1800 X151.578 Y144.225 E338.48747
G0 F3600 X151.578 Y143.659
G1 F1800 X116.42 Y108.5 E340.96809
G0 F3600 X116.42 Y107.934
G1 F1800 X151.578 Y143.093 E343.44872
G0 F3600 X151.578 Y142.527
G1 F1800 X116.42 Y107.369 E345.9293
G0 F3600 X116.42 Y106.803
G1 F1800 X151.578 Y141.962 E348.40993
G0 F3600 X151.578 Y141.396
G1 F1800 X116.42 Y106.237 E350.89055
G0 F3600 X116.42 Y105.672
G1 F1800 X151.578 Y140.83 E353.37113
G0 F3600 X151.578 Y140.265
G1 F1800 X116.42 Y105.106 E355.85176
G0 F3600 X116.42 Y104.54
G1 F1800 X151.578 Y139.699 E358.33238
G0 F3600 X151.578 Y139.133
G1 F1800 X116.42 Y103.975 E360.81297
G0 F3600 X116.42 Y103.409
G1 F1800 X151.578 Y138.568 E363.29359
G0 F3600 X151.578 Y138.002
G1 F1800 X116.42 Y102.843 E365.77421
G0 F3600 X116.42 Y102.278
G1 F1800 X151.578 Y137.436 E368.2548
G0 F3600 X151.578 Y136.871
G1 F1800 X116.42 Y101.712 E370.73542
G0 F3600 X116.42 Y101.146
G1 F1800 X151.578 Y136.305 E373.21604
G0 F3600 X151.578 Y135.739
G1 F1800 X116.42 Y100.58 E375.69666
G0 F3600 X116.42 Y100.015
G1 F1800 X151.578 Y135.174 E378.17728
G0 F3600 X151.578 Y134.608
G1 F1800 X116.42 Y99.449 E380.65791
G0 F3600 X116.42 Y98.883
G1 F1800 X151.578 Y134.042 E383.13853
G0 F3600 X151.578 Y133.477
G1 F1800 X116.42 Y98.318 E385.61915
G0 F3600 X116.42 Y97.752
G1 F1800 X151.578 Y132.911 E388.09977
G0 F3600 X151.578 Y132.345
G1 F1800 X116.42 Y97.186 E390.58039
G0 F3600 X116.42 Y96.621
G1 F1800 X151.578 Y131.779 E393.06098
G0 F3600 X151.578 Y131.214
G1 F1800 X116.42 Y96.055 E395.5416
G0 F3600 X116.42 Y95.489
G1 F1800 X151.578 Y130.648 E398.02223
G0 F3600 X151.578 Y130.082
G1 F1800 X116.42 Y94.924 E400.50281
G0 F3600 X116.42 Y94.358
G1 F1800 X151.578 Y129.517 E402.98343
G0 F3600 X151.578 Y128.951
G1 F1800 X116.42 Y93.792 E405.46406
G0 F3600 X116.42 Y93.227
G1 F1800 X151.578 Y128.385 E407.94464
G0 F3600 X151.578 Y127.82
G1 F1800 X116.42 Y92.661 E410.42527
G0 F3600 X116.42 Y92.095
G1 F1800 X151.578 Y127.254 E412.90589
G0 F3600 X151.578 Y126.688
G1 F1800 X116.42 Y91.53 E415.38647
G0 F3600 X116.42 Y90.964
G1 F1800 X151.578 Y126.123 E417.8671
G0 F3600 X151.578 Y125.557
G1 F1800 X116.42 Y90.398 E420.34772
