;FLAVOR:Marlin
;TIME:29596
;Filament used: 5.68947m
;Layer height: 0.06
;MINX:64.051
;MINY:59.301
;MINZ:0.3
;MAXX:155.949
;MAXY:160.699
;MAXZ:3
;Generated with Cura_SteamEngine 4.5.0
M140 S60
M105
M190 S60
M104 S200
M105
M109 S200
M82 ;absolute extrusion mode
G28 ;Home
G1 Z15.0 F6000 ;Move the platform down 15mm
;Prime the extruder
G92 E0
G1 F200 E3
G92 E0
G92 E0
G92 E0
G1 F1500 E-1
;LAYER_COUNT:46
;LAYER:0
M107
G0 F3600 X65.04 Y60.205 Z0.3
;TYPE:SKIRT
G1 F1500 E0
G1 F1800 X65.431 Y59.884 E0.02524
G1 X65.868 Y59.629 E0.05048
G1 X66.339 Y59.445 E0.07571
G1 X66.833 Y59.339 E0.10092
G1 X67.491 Y59.302 E0.1338
G1 X152.088 Y59.301 E4.35436
G1 X152.786 Y59.311 E4.38918
G1 X153.289 Y59.358 E4.41439
G1 X153.779 Y59.484 E4.43963
G1 X154.243 Y59.686 E4.46488
G1 X154.669 Y59.958 E4.49009
G1 X155.047 Y60.293 E4.51529
G1 X155.367 Y60.684 E4.5405
G1 X155.622 Y61.121 E4.56574
G1 X155.805 Y61.592 E4.59095
G1 X155.912 Y62.086 E4.61617
G1 X155.948 Y62.741 E4.6489
G1 X155.949 Y156.803 E9.34167
G1 X155.94 Y157.53 E9.37794
G1 X155.894 Y158.033 E9.40314
G1 X155.769 Y158.523 E9.42837
G1 X155.568 Y158.987 E9.4536
G1 X155.297 Y159.414 E9.47883
G1 X154.962 Y159.793 E9.50406
G1 X154.572 Y160.114 E9.52926
G1 X154.136 Y160.37 E9.55449
G1 X153.665 Y160.553 E9.5797
G1 X153.171 Y160.661 E9.60493
G1 X152.509 Y160.698 E9.63801
G1 X81.912 Y160.699 E13.1601
G1 X81.214 Y160.689 E13.19493
G1 X80.711 Y160.642 E13.22014
G1 X80.221 Y160.516 E13.24538
G1 X79.757 Y160.314 E13.27062
G1 X79.331 Y160.042 E13.29584
G1 X78.953 Y159.707 E13.32104
G1 X78.633 Y159.316 E13.34625
G1 X78.378 Y158.879 E13.37149
G1 X78.167 Y158.309 E13.40181
G1 X77.524 Y155.715 E13.53514
G1 X76.789 Y153.061 E13.67254
G1 X75.995 Y150.474 E13.80754
G1 X75.102 Y147.84 E13.9463
G1 X74.156 Y145.285 E14.08223
G1 X73.138 Y142.759 E14.2181
G1 X72.029 Y140.217 E14.35646
G1 X70.888 Y137.79 E14.49026
G1 X69.645 Y135.331 E14.62772
G1 X68.315 Y132.873 E14.76716
G1 X66.972 Y130.553 E14.9009
G1 X65.533 Y128.22 E15.03765
G1 X65.138 Y127.618 E15.07357
G1 X64.561 Y126.71 E15.12724
G1 X64.324 Y126.263 E15.15249
G1 X64.161 Y125.784 E15.17773
G1 X64.064 Y125.102 E15.2121
G1 X64.051 Y100.162 E16.45636
G1 X64.061 Y99.465 E16.49113
G1 X64.182 Y98.479 E16.5407
G1 X64.488 Y96.691 E16.6312
G1 X64.87 Y93.998 E16.7669
G1 X65.177 Y91.269 E16.9039
G1 X65.409 Y88.524 E17.04134
G1 X65.562 Y85.804 E17.17726
G1 X65.638 Y83.057 E17.31436
G1 X65.636 Y80.338 E17.45001
G1 X65.556 Y77.582 E17.58757
G1 X65.4 Y74.841 E17.72454
G1 X65.167 Y72.125 E17.86053
G1 X64.858 Y69.427 E17.99602
G1 X64.462 Y66.653 E18.13582
G1 X64.241 Y65.311 E18.20367
G1 X64.107 Y64.538 E18.24281
G1 X64.052 Y63.757 E18.28187
G1 X64.051 Y63.132 E18.31305
G1 X64.06 Y62.467 E18.34623
G1 X64.107 Y61.963 E18.37149
G1 X64.233 Y61.474 E18.39668
G1 X64.434 Y61.01 E18.42191
G1 X64.705 Y60.583 E18.44714
G1 X65.04 Y60.205 E18.47234
G1 F1500 E17.47234
;MESH:Base Top.obj
G0 F3600 X67.865 Y98.836
G0 X67.865 Y100.115
G0 X81.921 Y124.327
G0 X81.851 Y124.397
;TYPE:WALL-INNER
G1 F1500 E18.47234
G1 F1800 X67.851 Y124.397 E19.1708
G1 X67.851 Y100.101 E20.38293
G1 X81.851 Y100.101 E21.0814
G1 X81.851 Y63.397 E22.91257
G1 X67.851 Y63.397 E23.61103
G1 X67.851 Y63.101 E23.6258
G1 X81.851 Y63.101 E24.14266
G1 X152.149 Y63.101 E27.64984
G1 X152.149 Y156.899 E32.32944
G1 X81.851 Y156.899 E35.83662
G1 X81.851 Y124.397 E37.45816
G0 F3600 X81.921 Y124.327
G0 X103.576 Y139.672
G0 X103.646 Y139.602
G1 F1800 X115.851 Y139.602 E38.06707
G1 X115.851 Y64.397 E41.81906
G1 X103.646 Y64.397 E42.42797
G1 X103.646 Y139.602 E46.17996
G0 F3600 X104.046 Y139.202
;TYPE:WALL-OUTER
G1 F1800 X115.451 Y139.202 E46.74896
G1 X115.451 Y64.797 E50.46104
G1 X104.046 Y64.797 E51.03004
G1 X104.046 Y139.202 E54.74212
G0 F3600 X104.246 Y139.202
G0 X104.246 Y139.702
G0 X81.879 Y124.369
G0 X81.451 Y124.797
G1 F1800 X67.451 Y124.797 E55.44058
G1 X67.451 Y99.701 E56.69262
G1 X81.451 Y99.701 E57.39109
G1 X81.451 Y63.797 E59.18234
G1 X67.451 Y63.797 E59.88081
G1 X67.451 Y62.701 E59.93549
G1 X152.549 Y62.701 E64.18104
G1 X152.549 Y157.299 E68.90056
G1 X81.451 Y157.299 E72.44765
G1 X81.451 Y124.797 E74.06918
G0 F3600 X81.251 Y124.797
G0 X81.251 Y124.297
G0 X82.241 Y124.007
;TYPE:SKIN
G1 F1800 X68.241 Y124.007 E74.76765
G1 X68.241 Y100.491 E75.94086
G1 X82.241 Y100.491 E76.63933
G1 X82.241 Y63.491 E78.48526
G1 X151.759 Y63.491 E81.95353
G1 X151.759 Y156.509 E86.59422
G1 X82.241 Y156.509 E90.06248
G1 X82.241 Y124.007 E91.68402
G0 F3600 X103.256 Y139.992
G1 F1800 X116.241 Y139.992 E92.33184
G1 X116.241 Y64.007 E96.12275
G1 X103.256 Y64.007 E96.77057
G1 X103.256 Y139.992 E100.56148
G0 F3600 X82.788 Y156.327
G1 F1800 X82.421 Y155.96 E100.58737
G0 F3600 X82.421 Y155.394
G1 F1800 X83.354 Y156.327 E100.6532
G0 F3600 X83.92 Y156.327
G1 F1800 X82.421 Y154.828 E100.75896
G0 F3600 X82.421 Y154.263
G1 F1800 X84.485 Y156.327 E100.90459
G0 F3600 X85.051 Y156.327
G1 F1800 X82.421 Y153.697 E101.09015
G0 F3600 X82.421 Y153.131
G1 F1800 X85.617 Y156.327 E101.31565
G0 F3600 X86.182 Y156.327
G1 F1800 X82.421 Y152.566 E101.581
G0 F3600 X82.421 Y152
G1 F1800 X86.748 Y156.327 E101.8863
G0 F3600 X87.314 Y156.327
G1 F1800 X82.421 Y151.434 E102.23152
G0 F3600 X82.421 Y150.869
G1 F1800 X87.879 Y156.327 E102.61662
G0 F3600 X88.445 Y156.327
G1 F1800 X82.421 Y150.303 E103.04164
G0 F3600 X82.421 Y149.737
G1 F1800 X89.011 Y156.327 E103.5066
G0 F3600 X89.576 Y156.327
G1 F1800 X82.421 Y149.171 E104.01146
G0 F3600 X82.421 Y148.606
G1 F1800 X90.142 Y156.327 E104.55622
G0 F3600 X90.708 Y156.327
G1 F1800 X82.421 Y148.04 E105.14091
G0 F3600 X82.421 Y147.474
G1 F1800 X91.274 Y156.327 E105.76554
G0 F3600 X91.839 Y156.327
G1 F1800 X82.421 Y146.909 E106.43003
G0 F3600 X82.421 Y146.343
G1 F1800 X92.405 Y156.327 E107.13445
G0 F3600 X92.971 Y156.327
G1 F1800 X82.421 Y145.777 E107.87881
G0 F3600 X82.421 Y145.212
G1 F1800 X93.536 Y156.327 E108.66304
G0 F3600 X94.102 Y156.327
G1 F1800 X82.421 Y144.646 E109.4872
G0 F3600 X82.421 Y144.08
G1 F1800 X94.668 Y156.327 E110.35129
G0 F3600 X95.233 Y156.327
G1 F1800 X82.421 Y143.515 E111.25524
G0 F3600 X82.421 Y142.949
G1 F1800 X95.799 Y156.327 E112.19913
G0 F3600 X96.365 Y156.327
G1 F1800 X82.421 Y142.383 E113.18296
G0 F3600 X82.421 Y141.818
G1 F1800 X96.93 Y156.327 E114.20665
G0 F3600 X97.496 Y156.327
G1 F1800 X82.421 Y141.252 E115.27027
G0 F3600 X82.421 Y140.686
G1 F1800 X98.062 Y156.327 E116.37383
G0 F3600 X98.627 Y156.327
G1 F1800 X82.421 Y140.12 E117.51728
G0 F3600 X82.421 Y139.555
G1 F1800 X99.193 Y156.327 E118.70064
G0 F3600 X99.759 Y156.327
G1 F1800 X82.421 Y138.989 E119.92393
G0 F3600 X82.421 Y138.423
G1 F1800 X100.325 Y156.327 E121.18715
G0 F3600 X100.89 Y156.327
G1 F1800 X82.421 Y137.858 E122.49024
G0 F3600 X82.421 Y137.292
G1 F1800 X101.456 Y156.327 E123.83326
G0 F3600 X102.022 Y156.327
G1 F1800 X82.421 Y136.726 E125.21622
G0 F3600 X82.421 Y136.161
G1 F1800 X102.587 Y156.327 E126.63904
G0 F3600 X103.153 Y156.327
G1 F1800 X82.421 Y135.595 E128.10179
G0 F3600 X82.421 Y135.029
G1 F1800 X103.719 Y156.327 E129.60448
G0 F3600 X104.284 Y156.327
G1 F1800 X82.421 Y134.464 E131.14703
G0 F3600 X82.421 Y133.898
G1 F1800 X104.85 Y156.327 E132.72952
G0 F3600 X105.416 Y156.327
G1 F1800 X82.421 Y133.332 E134.35194
G0 F3600 X82.421 Y132.767
G1 F1800 X105.981 Y156.327 E136.01423
G0 F3600 X106.547 Y156.327
G1 F1800 X82.421 Y132.201 E137.71645
G0 F3600 X82.421 Y131.635
G1 F1800 X107.113 Y156.327 E139.4586
G0 F3600 X107.678 Y156.327
G1 F1800 X82.421 Y131.07 E141.24062
G0 F3600 X82.421 Y130.504
G1 F1800 X108.244 Y156.327 E143.06257
G0 F3600 X108.81 Y156.327
G1 F1800 X82.421 Y129.938 E144.92446
G0 F3600 X82.421 Y129.372
G1 F1800 X109.375 Y156.327 E146.82624
G0 F3600 X109.941 Y156.327
G1 F1800 X82.421 Y128.807 E148.76793
G0 F3600 X82.421 Y128.241
G1 F1800 X110.507 Y156.327 E150.74955
G0 F3600 X111.073 Y156.327
G1 F1800 X82.421 Y127.675 E152.7711
G0 F3600 X82.421 Y127.11
G1 F1800 X111.638 Y156.327 E154.83252
G0 F3600 X112.204 Y156.327
G1 F1800 X82.421 Y126.544 E156.93387
G0 F3600 X82.421 Y125.978
G1 F1800 X112.77 Y156.327 E159.07515
G0 F3600 X113.335 Y156.327
G1 F1800 X82.421 Y125.413 E161.2563
G0 F3600 X82.421 Y124.847
G1 F1800 X113.901 Y156.327 E163.47739
G0 F3600 X114.467 Y156.327
G1 F1800 X82.421 Y124.281 E165.73841
G0 F3600 X81.964 Y123.825
G1 F1800 X68.421 Y110.281 E166.69397
G0 F3600 X68.421 Y109.716
G1 F1800 X115.032 Y156.327 E169.98263
G0 F3600 X115.598 Y156.327
G1 F1800 X68.421 Y109.15 E173.31122
G0 F3600 X68.421 Y108.584
G1 F1800 X116.164 Y156.327 E176.67975
G0 F3600 X116.729 Y156.327
G1 F1800 X68.421 Y108.019 E180.08814
G0 F3600 X68.421 Y107.453
G1 F1800 X117.295 Y156.327 E183.53646
G0 F3600 X117.861 Y156.327
G1 F1800 X68.421 Y106.887 E187.02472
G0 F3600 X68.421 Y106.321
G1 F1800 X118.426 Y156.327 E190.55288
G0 F3600 X118.992 Y156.327
G1 F1800 X68.421 Y105.756 E194.12094
G0 F3600 X68.421 Y105.19
G1 F1800 X103.076 Y139.845 E196.56604
G0 F3600 X103.401 Y140.171
G1 F1800 X119.558 Y156.327 E197.70596
G0 F3600 X120.124 Y156.327
G1 F1800 X103.967 Y140.171 E198.84589
G0 F3600 X104.533 Y140.171
G1 F1800 X120.689 Y156.327 E199.98579
G0 F3600 X121.255 Y156.327
G1 F1800 X105.098 Y140.171 E201.12571
G0 F3600 X105.664 Y140.171
G1 F1800 X121.821 Y156.327 E202.26564
G0 F3600 X122.386 Y156.327
G1 F1800 X106.23 Y140.171 E203.40554
G0 F3600 X106.795 Y140.171
G1 F1800 X122.952 Y156.327 E204.54546
G0 F3600 X123.518 Y156.327
G1 F1800 X107.361 Y140.171 E205.68539
G0 F3600 X107.927 Y140.171
G1 F1800 X124.083 Y156.327 E206.82529
G0 F3600 X124.649 Y156.327
G1 F1800 X108.492 Y140.171 E207.96521
G0 F3600 X109.058 Y140.171
G1 F1800 X125.215 Y156.327 E209.10514
G0 F3600 X125.78 Y156.327
G1 F1800 X109.624 Y140.171 E210.24504
G0 F3600 X110.189 Y140.171
G1 F1800 X126.346 Y156.327 E211.38496
G0 F3600 X126.912 Y156.327
G1 F1800 X110.755 Y140.171 E212.52489
G0 F3600 X111.321 Y140.171
G1 F1800 X127.477 Y156.327 E213.66479
G0 F3600 X128.043 Y156.327
G1 F1800 X111.886 Y140.171 E214.80471
G0 F3600 X112.452 Y140.171
G1 F1800 X128.609 Y156.327 E215.94464
G0 F3600 X129.174 Y156.327
G1 F1800 X113.018 Y140.171 E217.08453
G0 F3600 X113.583 Y140.171
G1 F1800 X129.74 Y156.327 E218.22446
G0 F3600 X130.306 Y156.327
G1 F1800 X114.149 Y140.171 E219.36439
G0 F3600 X114.715 Y140.171
G1 F1800 X130.872 Y156.327 E220.50432
G0 F3600 X131.437 Y156.327
G1 F1800 X115.281 Y140.171 E221.64421
G0 F3600 X115.846 Y140.171
G1 F1800 X132.003 Y156.327 E222.78414
G0 F3600 X132.569 Y156.327
G1 F1800 X116.412 Y140.171 E223.92407
G0 F3600 X116.42 Y139.613
G1 F1800 X133.134 Y156.327 E225.10333
G0 F3600 X133.7 Y156.327
G1 F1800 X116.42 Y139.047 E226.32253
G0 F3600 X116.42 Y138.481
G1 F1800 X134.266 Y156.327 E227.58166
G0 F3600 X134.831 Y156.327
G1 F1800 X116.42 Y137.916 E228.88066
G0 F3600 X116.42 Y137.35
G1 F1800 X135.397 Y156.327 E230.21959
G0 F3600 X135.963 Y156.327
G1 F1800 X116.42 Y136.784 E231.59845
G0 F3600 X116.42 Y136.219
G1 F1800 X136.528 Y156.327 E233.01718
G0 F3600 X137.094 Y156.327
G1 F1800 X116.42 Y135.653 E234.47584
G0 F3600 X116.42 Y135.087
G1 F1800 X137.66 Y156.327 E235.97444
G0 F3600 X138.225 Y156.327
G1 F1800 X116.42 Y134.522 E237.5129
G0 F3600 X116.42 Y133.956
G1 F1800 X138.791 Y156.327 E239.09129
G0 F3600 X139.357 Y156.327
G1 F1800 X116.42 Y133.39 E240.70962
G0 F3600 X116.42 Y132.825
G1 F1800 X139.922 Y156.327 E242.36782
G0 F3600 X140.488 Y156.327
G1 F1800 X116.42 Y132.259 E244.06594
G0 F3600 X116.42 Y131.693
G1 F1800 X141.054 Y156.327 E245.804
G0 F3600 X141.62 Y156.327
G1 F1800 X116.42 Y131.128 E247.58197
G0 F3600 X116.42 Y130.562
G1 F1800 X142.185 Y156.327 E249.39983
G0 F3600 X142.751 Y156.327
G1 F1800 X116.42 Y129.996 E251.25762
G0 F3600 X116.42 Y129.43
G1 F1800 X143.317 Y156.327 E253.15535
G0 F3600 X143.882 Y156.327
G1 F1800 X116.42 Y128.865 E255.09294
G0 F3600 X116.42 Y128.299
G1 F1800 X144.448 Y156.327 E257.07047
G0 F3600 X145.014 Y156.327
G1 F1800 X116.42 Y127.733 E259.08793
G0 F3600 X116.42 Y127.168
G1 F1800 X145.579 Y156.327 E261.14525
G0 F3600 X146.145 Y156.327
G1 F1800 X116.42 Y126.602 E263.24251
G0 F3600 X116.42 Y126.036
G1 F1800 X146.711 Y156.327 E265.37971
G0 F3600 X147.276 Y156.327
G1 F1800 X116.42 Y125.471 E267.55676
G0 F3600 X116.42 Y124.905
G1 F1800 X147.842 Y156.327 E269.77376
G0 F3600 X148.408 Y156.327
G1 F1800 X116.42 Y124.339 E272.03068
G0 F3600 X116.42 Y123.774
G1 F1800 X148.973 Y156.327 E274.32747
G0 F3600 X149.539 Y156.327
G1 F1800 X116.42 Y123.208 E276.6642
G0 F3600 X116.42 Y122.642
G1 F1800 X150.105 Y156.327 E279.04086
G0 F3600 X150.671 Y156.327
G1 F1800 X116.42 Y122.077 E281.45741
G0 F3600 X116.42 Y121.511
G1 F1800 X151.236 Y156.327 E283.91387
G0 F3600 X151.578 Y156.104
G1 F1800 X116.42 Y120.945 E286.39449
G0 F3600 X116.42 Y120.379
G1 F1800 X151.578 Y155.538 E288.87511
G0 F3600 X151.578 Y154.973
G1 F1800 X116.42 Y119.814 E291.35574
G0 F3600 X116.42 Y119.248
G1 F1800 X151.578 Y154.407 E293.83636
G0 F3600 X151.578 Y153.841
G1 F1800 X116.42 Y118.682 E296.31698
G0 F3600 X116.42 Y118.117
G1 F1800 X151.578 Y153.276 E298.7976
G0 F3600 X151.578 Y152.71
G1 F1800 X116.42 Y117.551 E301.27822
G0 F3600 X116.42 Y116.985
G1 F1800 X151.578 Y152.144 E303.75885
G0 F3600 X151.578 Y151.578
G1 F1800 X116.42 Y116.42 E306.23943
G0 F3600 X116.42 Y115.854
G1 F1800 X151.578 Y151.013 E308.72006
G0 F3600 X151.578 Y150.447
G1 F1800 X116.42 Y115.288 E311.20068
G0 F3600 X116.42 Y114.723
G1 F1800 X151.578 Y149.881 E313.68126
G0 F3600 X151.578 Y149.316
G1 F1800 X116.42 Y114.157 E316.16189
G0 F3600 X116.42 Y113.591
G1 F1800 X151.578 Y148.75 E318.64251
G0 F3600 X151.578 Y148.184
G1 F1800 X116.42 Y113.026 E321.1231
G0 F3600 X116.42 Y112.46
G1 F1800 X151.578 Y147.619 E323.60372
G0 F3600 X151.578 Y147.053
G1 F1800 X116.42 Y111.894 E326.08434
G0 F3600 X116.42 Y111.329
G1 F1800 X151.578 Y146.487 E328.56493
G0 F3600 X151.578 Y145.922
G1 F1800 X116.42 Y110.763 E331.04555
G0 F3600 X116.42 Y110.197
G1 F1800 X151.578 Y145.356 E333.52617
G0 F3600 X151.578 Y144.79
G1 F1800 X116.42 Y109.631 E336.00679
G0 F3600 X116.42 Y109.066
G1 F1800 X151.578 Y144.225 E338.48741
G0 F3600 X151.578 Y143.659
G1 F1800 X116.42 Y108.5 E340.96804
G0 F3600 X116.42 Y107.934
G1 F1800 X151.578 Y143.093 E343.44866
G0 F3600 X151.578 Y142.527
G1 F1800 X116.42 Y107.369 E345.92925
G0 F3600 X116.42 Y106.803
G1 F1800 X151.578 Y141.962 E348.40987
G0 F3600 X151.578 Y141.396
G1 F1800 X116.42 Y106.237 E350.89049
G0 F3600 X116.42 Y105.672
G1 F1800 X151.578 Y140.83 E353.37108
G0 F3600 X151.578 Y140.265
G1 F1800 X116.42 Y105.106 E355.8517
G0 F3600 X116.42 Y104.54
G1 F1800 X151.578 Y139.699 E358.33232
G0 F3600 X151.578 Y139.133
G1 F1800 X116.42 Y103.975 E360.81291
G0 F3600 X116.42 Y103.409
G1 F1800 X151.578 Y138.568 E363.29353
G0 F3600 X151.578 Y138.002
G1 F1800 X116.42 Y102.843 E365.77415
G0 F3600 X116.42 Y102.278
G1 F1800 X151.578 Y137.436 E368.25474
G0 F3600 X151.578 Y136.871
G1 F1800 X116.42 Y101.712 E370.73536
G0 F3600 X116.42 Y101.146
G1 F1800 X151.578 Y136.305 E373.21598
G0 F3600 X151.578 Y135.739
G1 F1800 X116.42 Y100.58 E375.6966
G0 F3600 X116.42 Y100.015
G1 F1800 X151.578 Y135.174 E378.17723
G0 F3600 X151.578 Y134.608
G1 F1800 X116.42 Y99.449 E380.65785
G0 F3600 X116.42 Y98.883
G1 F1800 X151.578 Y134.042 E383.13847
G0 F3600 X151.578 Y133.477
G1 F1800 X116.42 Y98.318 E385.61909
G0 F3600 X116.42 Y97.752
G1 F1800 X151.578 Y132.911 E388.09971
G0 F3600 X151.578 Y132.345
G1 F1800 X116.42 Y97.186 E390.58034
G0 F3600 X116.42 Y96.621
G1 F1800 X151.578 Y131.779 E393.06092
G0 F3600 X151.578 Y131.214
G1 F1800 X116.42 Y96.055 E395.54155
G0 F3600 X116.42 Y95.489
G1 F1800 X151.578 Y130.648 E398.02217
G0 F3600 X151.578 Y130.082
G1 F1800 X116.42 Y94.924 E400.50275
G0 F3600 X116.42 Y94.358
G1 F1800 X151.578 Y129.517 E402.98338
G0 F3600 X151.578 Y128.951
G1 F1800 X116.42 Y93.792 E405.464
G0 F3600 X116.42 Y93.227
G1 F1800 X151.578 Y128.385 E407.94459
G0 F3600 X151.578 Y127.82
G1 F1800 X116.42 Y92.661 E410.42521
G0 F3600 X116.42 Y92.095
G1 F1800 X151.578 Y127.254 E412.90583
G0 F3600 X151.578 Y126.688
G1 F1800 X116.42 Y91.53 E415.38642
G0 F3600 X116.42 Y90.964
G1 F1800 X151.578 Y126.123 E417.86704
G0 F3600 X151.578 Y125.557
G1 F1800 X116.42 Y90.398 E420.34766
G0 F3600 X116.42 Y89.832
G1 F1800 X151.578 Y124.991 E422.82828
