;FLAVOR:Marlin
;TIME:6295
;Filament used: 1.66859m
;Layer height: 0.06
;MINX:84.4
;MINY:83.4
;MINZ:0.3
;MAXX:125.6
;MAXY:124.6
;MAXZ:17.46
;Generated with Cura_SteamEngine 4.4.1
M140 S60
M105
M190 S60
M104 S200
M105
M109 S200
M82 ;absolute extrusion mode
G28 ;Home
G1 Z15.0 F6000 ;Move the platform down 15mm
;Prime the extruder
G92 E0
G1 F200 E3
G92 E0 
G92 E0
G92 E0
G1 F1500 E-1
;LAYER_COUNT:287
;LAYER:0
M107
G0 F3600 X85.397 Y84.531 Z0.3
;TYPE:SKIRT
G1 F1500 E0
G1 F1800 X85.794 Y84.171 E0.02674
G1 X86.241 Y83.873 E0.05354
G1 X86.726 Y83.645 E0.08028
G1 X87.24 Y83.492 E0.10703
G1 X87.908 Y83.41 E0.14061
G1 X88.229 Y83.401 E0.15663
G1 X88.33 Y83.4 E0.16167
G1 X121.345 Y83.4 E1.80879
G1 X122.043 Y83.41 E1.84362
G1 X122.577 Y83.458 E1.87037
G1 X123.098 Y83.584 E1.89711
G1 X123.595 Y83.787 E1.9239
G1 X124.056 Y84.061 E1.95065
G1 X124.471 Y84.4 E1.97739
G1 X124.831 Y84.798 E2.00416
G1 X125.128 Y85.244 E2.03089
G1 X125.356 Y85.73 E2.05767
G1 X125.508 Y86.244 E2.08442
G1 X125.59 Y86.909 E2.11784
G1 X125.599 Y87.229 E2.13382
G1 X125.6 Y87.33 E2.13885
G1 X125.6 Y120.309 E3.78418
G1 X125.591 Y121.036 E3.82046
G1 X125.544 Y121.57 E3.8472
G1 X125.419 Y122.091 E3.87393
G1 X125.217 Y122.588 E3.9007
G1 X124.944 Y123.05 E3.92747
G1 X124.606 Y123.466 E3.95421
G1 X124.209 Y123.827 E3.98098
G1 X123.763 Y124.125 E4.00774
G1 X123.278 Y124.353 E4.03448
G1 X122.764 Y124.507 E4.06125
G1 X122.092 Y124.59 E4.09503
G1 X121.771 Y124.599 E4.11105
G1 X121.67 Y124.6 E4.11609
G1 X108.655 Y124.6 E4.76541
G1 X107.957 Y124.59 E4.80024
G1 X107.423 Y124.542 E4.82699
G1 X106.902 Y124.416 E4.85373
G1 X106.405 Y124.213 E4.88051
G1 X105.944 Y123.939 E4.90727
G1 X105.529 Y123.6 E4.934
G1 X105.156 Y123.185 E4.96184
G1 X104.678 Y122.564 E5.00094
G1 X102.96 Y120.377 E5.13969
G1 X101.215 Y118.28 E5.27579
G1 X99.417 Y116.24 E5.41146
G1 X97.555 Y114.243 E5.54768
G1 X95.642 Y112.306 E5.6835
G1 X93.657 Y110.406 E5.82058
G1 X91.666 Y108.606 E5.95449
G1 X89.561 Y106.806 E6.09267
G1 X87.45 Y105.105 E6.22793
G1 X86.397 Y104.303 E6.29396
G1 X86.354 Y104.27 E6.29667
G1 X85.785 Y103.823 E6.33277
G1 X85.389 Y103.461 E6.35953
G1 X85.051 Y103.045 E6.38627
G1 X84.779 Y102.582 E6.41306
G1 X84.579 Y102.085 E6.43979
G1 X84.455 Y101.563 E6.46656
G1 X84.41 Y101.093 E6.49012
G1 X84.401 Y100.771 E6.50619
G1 X84.4 Y100.67 E6.51123
G1 X84.4 Y87.625 E7.16204
G1 X84.409 Y86.96 E7.19522
G1 X84.457 Y86.426 E7.22197
G1 X84.583 Y85.905 E7.24871
G1 X84.785 Y85.408 E7.27548
G1 X85.058 Y84.947 E7.30221
G1 X85.397 Y84.531 E7.32898
G0 F3600 X85.789 Y84.704
G1 F1800 X86.18 Y84.383 E7.35422
G1 X86.617 Y84.128 E7.37946
G1 X87.088 Y83.944 E7.40469
G1 X87.582 Y83.838 E7.4299
G1 X87.919 Y83.81 E7.44677
G1 X88.24 Y83.801 E7.46279
G1 X88.33 Y83.8 E7.46728
G1 X121.339 Y83.8 E9.11411
G1 X122.037 Y83.81 E9.14893
G1 X122.54 Y83.857 E9.17414
G1 X123.03 Y83.983 E9.19938
G1 X123.494 Y84.185 E9.22463
G1 X123.92 Y84.457 E9.24984
G1 X124.298 Y84.792 E9.27504
G1 X124.618 Y85.183 E9.30025
G1 X124.873 Y85.62 E9.32549
G1 X125.056 Y86.091 E9.3507
G1 X125.163 Y86.585 E9.37592
G1 X125.19 Y86.92 E9.39268
G1 X125.199 Y87.24 E9.40866
G1 X125.2 Y87.33 E9.41315
G1 X125.2 Y120.304 E11.05823
G1 X125.191 Y121.031 E11.0945
G1 X125.145 Y121.534 E11.1197
G1 X125.02 Y122.024 E11.14493
G1 X124.819 Y122.488 E11.17015
G1 X124.548 Y122.915 E11.19539
G1 X124.213 Y123.294 E11.22062
G1 X123.823 Y123.615 E11.24582
G1 X123.387 Y123.871 E11.27105
G1 X122.916 Y124.054 E11.29626
G1 X122.422 Y124.162 E11.32148
G1 X122.081 Y124.19 E11.33855
G1 X121.76 Y124.199 E11.35458
G1 X121.67 Y124.2 E11.35907
G1 X108.661 Y124.2 E12.00809
G1 X107.963 Y124.19 E12.04291
G1 X107.46 Y124.143 E12.06812
G1 X106.97 Y124.017 E12.09336
G1 X106.506 Y123.815 E12.11861
G1 X106.08 Y123.543 E12.14382
G1 X105.702 Y123.208 E12.16902
G1 X105.473 Y122.941 E12.18657
G1 X104.973 Y122.291 E12.22748
G1 X103.284 Y120.141 E12.36389
G1 X101.506 Y118.005 E12.50254
G1 X99.726 Y115.986 E12.63683
G1 X97.849 Y113.972 E12.77418
G1 X95.902 Y112.001 E12.9124
G1 X93.955 Y110.138 E13.04684
G1 X91.911 Y108.289 E13.18435
G1 X89.826 Y106.506 E13.32122
G1 X87.698 Y104.791 E13.45757
G1 X86.639 Y103.985 E13.52396
G1 X86.601 Y103.955 E13.52638
G1 X86.032 Y103.508 E13.56248
G1 X85.661 Y103.166 E13.58765
G1 X85.347 Y102.769 E13.61291
G1 X85.101 Y102.327 E13.63814
G1 X84.927 Y101.853 E13.66333
G1 X84.83 Y101.356 E13.6886
G1 X84.81 Y101.081 E13.70235
G1 X84.801 Y100.759 E13.71842
G1 X84.8 Y100.67 E13.72286
G1 X84.8 Y87.631 E14.37338
G1 X84.809 Y86.966 E14.40656
G1 X84.856 Y86.462 E14.43182
G1 X84.982 Y85.973 E14.45701
G1 X85.183 Y85.509 E14.48224
G1 X85.454 Y85.082 E14.50747
G1 X85.789 Y84.704 E14.53267
G1 F1500 E13.53267
;MESH:Bottom_conduit.obj
G0 F3600 X88.614 Y86.335
G0 X88.614 Y87.614
G0 X108.67 Y100.33
G0 X108.6 Y100.4
;TYPE:WALL-INNER
G1 F1500 E14.53267
G1 F1800 X88.6 Y100.4 E15.53047
G1 X88.6 Y87.6 E16.16907
G1 X121.4 Y87.6 E17.80546
G1 X121.4 Y120.4 E19.44186
G1 X108.6 Y120.4 E20.08046
G1 X108.6 Y100.4 E21.07826
G0 F3600 X108.2 Y100.8
;TYPE:WALL-OUTER
G1 F1800 X88.2 Y100.8 E22.07607
G1 X88.2 Y87.2 E22.75457
G1 X121.8 Y87.2 E24.43088
G1 X121.8 Y120.8 E26.10719
G1 X108.2 Y120.8 E26.7857
G1 X108.2 Y100.8 E27.78351
G0 F3600 X108 Y100.8
G0 X108 Y100.3
G0 X108.99 Y100.01
;TYPE:SKIN
G1 F1800 X88.99 Y100.01 E28.78131
G1 X88.99 Y87.99 E29.38099
G1 X121.01 Y87.99 E30.97847
G1 X121.01 Y120.01 E32.57596
G1 X108.99 Y120.01 E33.17564
G1 X108.99 Y100.01 E34.17344
G0 F3600 X120.829 Y88.585
G1 F1800 X120.413 Y88.169 E34.20279
G0 F3600 X119.848 Y88.169
G1 F1800 X120.829 Y89.151 E34.27204
G0 F3600 X120.829 Y89.717
G1 F1800 X119.282 Y88.169 E34.38123
G0 F3600 X118.716 Y88.169
G1 F1800 X120.829 Y90.282 E34.53031
G0 F3600 X120.829 Y90.848
G1 F1800 X118.151 Y88.169 E34.71929
G0 F3600 X117.585 Y88.169
G1 F1800 X120.829 Y91.414 E34.94821
G0 F3600 X120.829 Y91.979
G1 F1800 X117.019 Y88.169 E35.21703
G0 F3600 X116.454 Y88.169
G1 F1800 X120.829 Y92.545 E35.52574
G0 F3600 X120.829 Y93.111
G1 F1800 X115.888 Y88.169 E35.87439
G0 F3600 X115.322 Y88.169
G1 F1800 X120.829 Y93.676 E36.26294
G0 F3600 X120.829 Y94.242
G1 F1800 X114.757 Y88.169 E36.69139
G0 F3600 X114.191 Y88.169
G1 F1800 X120.829 Y94.808 E37.15977
G0 F3600 X120.829 Y95.373
G1 F1800 X113.625 Y88.169 E37.66805
G0 F3600 X113.06 Y88.169
G1 F1800 X120.829 Y95.939 E38.21623
G0 F3600 X120.829 Y96.505
G1 F1800 X112.494 Y88.169 E38.80435
G0 F3600 X111.928 Y88.169
G1 F1800 X120.829 Y97.07 E39.43236
G0 F3600 X120.829 Y97.636
G1 F1800 X111.362 Y88.169 E40.10031
G0 F3600 X110.797 Y88.169
G1 F1800 X120.829 Y98.202 E40.80816
G0 F3600 X120.829 Y98.767
G1 F1800 X110.231 Y88.169 E41.5559
G0 F3600 X109.665 Y88.169
G1 F1800 X120.829 Y99.333 E42.34358
G0 F3600 X120.829 Y99.899
G1 F1800 X109.1 Y88.169 E43.17116
G0 F3600 X108.534 Y88.169
G1 F1800 X120.829 Y100.465 E44.03868
G0 F3600 X120.829 Y101.03
G1 F1800 X107.968 Y88.169 E44.94609
G0 F3600 X107.403 Y88.169
G1 F1800 X120.829 Y101.596 E45.8934
G0 F3600 X120.829 Y102.162
G1 F1800 X106.837 Y88.169 E46.88065
G0 F3600 X106.271 Y88.169
G1 F1800 X120.829 Y102.727 E47.90779
G0 F3600 X120.829 Y103.293
G1 F1800 X105.706 Y88.169 E48.97484
G0 F3600 X105.14 Y88.169
G1 F1800 X120.829 Y103.859 E50.08182
G0 F3600 X120.829 Y104.424
G1 F1800 X104.574 Y88.169 E51.22869
G0 F3600 X104.009 Y88.169
G1 F1800 X120.829 Y104.99 E52.41547
G0 F3600 X120.829 Y105.556
G1 F1800 X103.443 Y88.169 E53.64218
G0 F3600 X102.877 Y88.169
G1 F1800 X120.829 Y106.121 E54.90879
G0 F3600 X120.829 Y106.687
G1 F1800 X102.311 Y88.169 E56.21534
G0 F3600 X101.746 Y88.169
G1 F1800 X120.829 Y107.253 E57.56178
G0 F3600 X120.829 Y107.818
G1 F1800 X101.18 Y88.169 E58.94813
G0 F3600 X100.614 Y88.169
G1 F1800 X120.829 Y108.384 E60.3744
G0 F3600 X120.829 Y108.95
G1 F1800 X100.049 Y88.169 E61.84058
G0 F3600 X99.483 Y88.169
G1 F1800 X120.829 Y109.515 E63.34665
G0 F3600 X120.829 Y110.081
G1 F1800 X98.917 Y88.169 E64.89266
G0 F3600 X98.352 Y88.169
G1 F1800 X120.829 Y110.647 E66.47857
G0 F3600 X120.829 Y111.213
G1 F1800 X97.786 Y88.169 E68.10442
G0 F3600 X97.22 Y88.169
G1 F1800 X108.88 Y99.829 E68.92709
G0 F3600 X109.169 Y100.118
G1 F1800 X120.829 Y111.778 E69.74977
G0 F3600 X120.829 Y112.344
G1 F1800 X109.169 Y100.684 E70.57244
G0 F3600 X109.169 Y101.249
G1 F1800 X120.829 Y112.91 E71.39516
G0 F3600 X120.829 Y113.475
G1 F1800 X109.169 Y101.815 E72.21783
G0 F3600 X109.169 Y102.381
G1 F1800 X120.829 Y114.041 E73.04051
G0 F3600 X120.829 Y114.607
G1 F1800 X109.169 Y102.946 E73.86322
G0 F3600 X109.169 Y103.512
G1 F1800 X120.829 Y115.172 E74.6859
G0 F3600 X120.829 Y115.738
G1 F1800 X109.169 Y104.078 E75.50857
G0 F3600 X109.169 Y104.644
G1 F1800 X120.829 Y116.304 E76.33125
G0 F3600 X120.829 Y116.869
G1 F1800 X109.169 Y105.209 E77.15392
G0 F3600 X109.169 Y105.775
G1 F1800 X120.829 Y117.435 E77.9766
G0 F3600 X120.829 Y118.001
G1 F1800 X109.169 Y106.341 E78.79928
G0 F3600 X109.169 Y106.906
G1 F1800 X120.829 Y118.566 E79.62195
G0 F3600 X120.829 Y119.132
G1 F1800 X109.169 Y107.472 E80.44463
G0 F3600 X109.169 Y108.038
G1 F1800 X120.829 Y119.698 E81.2673
G0 F3600 X120.394 Y119.829
G1 F1800 X109.169 Y108.603 E82.05932
G0 F3600 X109.169 Y109.169
G1 F1800 X119.829 Y119.829 E82.81144
G0 F3600 X119.263 Y119.829
G1 F1800 X109.169 Y109.735 E83.52363
G0 F3600 X109.169 Y110.3
G1 F1800 X118.697 Y119.829 E84.19592
G0 F3600 X118.132 Y119.829
G1 F1800 X109.169 Y110.866 E84.8283
G0 F3600 X109.169 Y111.432
G1 F1800 X117.566 Y119.829 E85.42076
G0 F3600 X117 Y119.829
G1 F1800 X109.169 Y111.997 E85.97331
G0 F3600 X109.169 Y112.563
G1 F1800 X116.435 Y119.829 E86.48597
G0 F3600 X115.869 Y119.829
G1 F1800 X109.169 Y113.129 E86.95869
G0 F3600 X109.169 Y113.694
G1 F1800 X115.303 Y119.829 E87.39151
G0 F3600 X114.737 Y119.829
G1 F1800 X109.169 Y114.26 E87.7844
G0 F3600 X109.169 Y114.826
G1 F1800 X114.172 Y119.829 E88.13739
G0 F3600 X113.606 Y119.829
G1 F1800 X109.169 Y115.392 E88.45044
G0 F3600 X109.169 Y115.957
G1 F1800 X113.04 Y119.829 E88.7236
G0 F3600 X112.475 Y119.829
G1 F1800 X109.169 Y116.523 E88.95685
G0 F3600 X109.169 Y117.089
G1 F1800 X111.909 Y119.829 E89.15018
G0 F3600 X111.343 Y119.829
G1 F1800 X109.169 Y117.654 E89.3036
G0 F3600 X109.169 Y118.22
G1 F1800 X110.778 Y119.829 E89.41712
G0 F3600 X110.212 Y119.829
G1 F1800 X109.169 Y118.786 E89.49071
G0 F3600 X109.169 Y119.351
G1 F1800 X109.646 Y119.829 E89.5244
G0 F3600 X108.628 Y100.372
G0 X108.314 Y99.829
G1 F1800 X96.655 Y88.169 E90.34704
G0 F3600 X96.089 Y88.169
G1 F1800 X107.748 Y99.829 E91.16968
G0 F3600 X107.183 Y99.829
G1 F1800 X95.523 Y88.169 E91.99236
G0 F3600 X94.958 Y88.169
G1 F1800 X106.617 Y99.829 E92.815
G0 F3600 X106.051 Y99.829
G1 F1800 X94.392 Y88.169 E93.63764
G0 F3600 X93.826 Y88.169
G1 F1800 X105.486 Y99.829 E94.46032
G0 F3600 X104.92 Y99.829
G1 F1800 X93.261 Y88.169 E95.28296
G0 F3600 X92.695 Y88.169
G1 F1800 X104.354 Y99.829 E96.1056
G0 F3600 X103.789 Y99.829
G1 F1800 X92.129 Y88.169 E96.92827
G0 F3600 X91.563 Y88.169
G1 F1800 X103.223 Y99.829 E97.75095
G0 F3600 X102.657 Y99.829
G1 F1800 X90.998 Y88.169 E98.57359
G0 F3600 X90.432 Y88.169
G1 F1800 X102.092 Y99.829 E99.39627
G0 F3600 X101.526 Y99.829
G1 F1800 X89.866 Y88.169 E100.21894
G0 F3600 X89.301 Y88.169
G1 F1800 X100.96 Y99.829 E101.04158
G0 F3600 X100.395 Y99.829
G1 F1800 X89.169 Y88.604 E101.8336
G0 F3600 X89.169 Y89.169
G1 F1800 X99.829 Y99.829 E102.58572
G0 F3600 X99.263 Y99.829
G1 F1800 X89.169 Y89.735 E103.29791
G0 F3600 X89.169 Y90.301
G1 F1800 X98.697 Y99.829 E103.97016
G0 F3600 X98.132 Y99.829
G1 F1800 X89.169 Y90.866 E104.60255
G0 F3600 X89.169 Y91.432
G1 F1800 X97.566 Y99.829 E105.195
G0 F3600 X97 Y99.829
G1 F1800 X89.169 Y91.998 E105.74752
G0 F3600 X89.169 Y92.563
G1 F1800 X96.435 Y99.829 E106.26018
G0 F3600 X95.869 Y99.829
G1 F1800 X89.169 Y93.129 E106.7329
G0 F3600 X89.169 Y93.695
G1 F1800 X95.303 Y99.829 E107.16569
G0 F3600 X94.738 Y99.829
G1 F1800 X89.169 Y94.26 E107.55861
G0 F3600 X89.169 Y94.826
G1 F1800 X94.172 Y99.829 E107.9116
G0 F3600 X93.606 Y99.829
G1 F1800 X89.169 Y95.392 E108.22465
G0 F3600 X89.169 Y95.957
G1 F1800 X93.041 Y99.829 E108.49784
G0 F3600 X92.475 Y99.829
G1 F1800 X89.169 Y96.523 E108.7311
G0 F3600 X89.169 Y97.089
G1 F1800 X91.909 Y99.829 E108.92442
G0 F3600 X91.344 Y99.829
G1 F1800 X89.169 Y97.654 E109.07788
G0 F3600 X89.169 Y98.22
G1 F1800 X90.778 Y99.829 E109.1914
G0 F3600 X90.212 Y99.829
G1 F1800 X89.169 Y98.786 E109.26499
G0 F3600 X89.169 Y99.352
G1 F1800 X89.646 Y99.829 E109.29865
;MESH:NONMESH
G0 F600 X89.646 Y99.829 Z0.36
G0 F3600 X108.67 Y100.33
G0 X108.6 Y100.4
;TIME_ELAPSED:80.426499
;LAYER:1
M140 S60
M106 S255
;TYPE:WALL-INNER
;MESH:Bottom_conduit.obj
G1 F2700 X88.6 Y100.4 E109.49821
G1 X88.6 Y87.6 E109.62593
G1 X121.4 Y87.6 E109.95321
G1 X121.4 Y120.4 E110.28049
G1 X108.6 Y120.4 E110.4082
G1 X108.6 Y100.4 E110.60777
G0 F5400 X108.2 Y100.8
;TYPE:WALL-OUTER
G1 F1800 X88.2 Y100.8 E110.80733
G1 X88.2 Y87.2 E110.94303
G1 X121.8 Y87.2 E111.27829
G1 X121.8 Y120.8 E111.61355
G1 X108.2 Y120.8 E111.74925
G1 X108.2 Y100.8 E111.94881
G0 F5400 X108 Y100.8
G0 X108 Y100.3
G0 X108.99 Y100.01
;TYPE:SKIN
G1 F1350 X88.99 Y100.01 E112.14837
G1 X88.99 Y87.99 E112.26831
G1 X121.01 Y87.99 E112.58781
G1 X121.01 Y120.01 E112.9073
G1 X108.99 Y120.01 E113.02724
G1 X108.99 Y100.01 E113.2268
G0 F5400 X89.17 Y88.454
G1 F1350 X89.455 Y88.169 E113.23082
G0 F5400 X90.021 Y88.169
G1 F1350 X89.17 Y89.02 E113.24283
G0 F5400 X89.17 Y89.586
G1 F1350 X90.586 Y88.169 E113.26282
G0 F5400 X91.152 Y88.169
G1 F1350 X89.17 Y90.151 E113.29079
G0 F5400 X89.17 Y90.717
G1 F1350 X91.718 Y88.169 E113.32674
G0 F5400 X92.283 Y88.169
G1 F1350 X89.17 Y91.283 E113.37068
G0 F5400 X89.17 Y91.848
G1 F1350 X92.849 Y88.169 E113.42259
G0 F5400 X93.415 Y88.169
G1 F1350 X89.17 Y92.414 E113.48249
G0 F5400 X89.17 Y92.98
G1 F1350 X93.98 Y88.169 E113.55038
G0 F5400 X94.546 Y88.169
G1 F1350 X89.17 Y93.545 E113.62624
G0 F5400 X89.17 Y94.111
G1 F1350 X95.112 Y88.169 E113.71008
G0 F5400 X95.677 Y88.169
G1 F1350 X89.17 Y94.677 E113.80191
G0 F5400 X89.17 Y95.243
G1 F1350 X96.243 Y88.169 E113.90173
G0 F5400 X96.809 Y88.169
G1 F1350 X89.17 Y95.808 E114.00952
G0 F5400 X89.17 Y96.374
G1 F1350 X97.374 Y88.169 E114.1253
G0 F5400 X97.94 Y88.169
G1 F1350 X89.17 Y96.94 E114.24906
G0 F5400 X89.17 Y97.505
G1 F1350 X98.506 Y88.169 E114.3808
G0 F5400 X99.072 Y88.169
G1 F1350 X89.17 Y98.071 E114.52053
G0 F5400 X89.17 Y98.637
G1 F1350 X99.637 Y88.169 E114.66823
G0 F5400 X100.203 Y88.169
G1 F1350 X89.17 Y99.202 E114.82392
G0 F5400 X89.17 Y99.768
G1 F1350 X100.769 Y88.169 E114.9876
G0 F5400 X101.334 Y88.169
G1 F1350 X89.674 Y99.83 E115.15214
G0 F5400 X90.24 Y99.83
G1 F1350 X101.9 Y88.169 E115.31668
G0 F5400 X102.466 Y88.169
G1 F1350 X90.805 Y99.83 E115.48123
G0 F5400 X91.371 Y99.83
G1 F1350 X103.031 Y88.169 E115.64577
G0 F5400 X103.597 Y88.169
G1 F1350 X91.937 Y99.83 E115.81031
G0 F5400 X92.503 Y99.83
G1 F1350 X104.163 Y88.169 E115.97486
G0 F5400 X104.728 Y88.169
G1 F1350 X93.068 Y99.83 E116.1394
G0 F5400 X93.634 Y99.83
G1 F1350 X105.294 Y88.169 E116.30394
G0 F5400 X105.86 Y88.169
G1 F1350 X94.2 Y99.83 E116.46848
G0 F5400 X94.765 Y99.83
G1 F1350 X106.425 Y88.169 E116.63303
G0 F5400 X106.991 Y88.169
G1 F1350 X95.331 Y99.83 E116.79757
G0 F5400 X95.897 Y99.83
G1 F1350 X107.557 Y88.169 E116.96211
G0 F5400 X108.122 Y88.169
G1 F1350 X96.462 Y99.83 E117.12665
G0 F5400 X97.028 Y99.83
G1 F1350 X108.688 Y88.169 E117.29119
G0 F5400 X109.254 Y88.169
G1 F1350 X97.594 Y99.83 E117.45574
G0 F5400 X98.159 Y99.83
G1 F1350 X109.82 Y88.169 E117.62029
G0 F5400 X110.385 Y88.169
G1 F1350 X98.725 Y99.83 E117.78483
G0 F5400 X99.291 Y99.83
G1 F1350 X110.951 Y88.169 E117.94937
G0 F5400 X111.517 Y88.169
G1 F1350 X99.856 Y99.83 E118.11392
G0 F5400 X100.422 Y99.83
G1 F1350 X112.082 Y88.169 E118.27846
G0 F5400 X112.648 Y88.169
G1 F1350 X100.988 Y99.83 E118.443
G0 F5400 X101.553 Y99.83
G1 F1350 X113.214 Y88.169 E118.60755
G0 F5400 X113.779 Y88.169
G1 F1350 X102.119 Y99.83 E118.7721
G0 F5400 X102.685 Y99.83
G1 F1350 X114.345 Y88.169 E118.93664
G0 F5400 X114.911 Y88.169
G1 F1350 X103.251 Y99.83 E119.10118
G0 F5400 X103.816 Y99.83
G1 F1350 X115.476 Y88.169 E119.26572
G0 F5400 X116.042 Y88.169
G1 F1350 X104.382 Y99.83 E119.43027
