;FLAVOR:Marlin
;TIME:4965
;Filament used: 1.32653m
;Layer height: 0.06
;MINX:99.4
;MINY:84.95
;MINZ:0.3
;MAXX:120.6
;MAXY:135.05
;MAXZ:17.46
;Generated with Cura_SteamEngine 4.6.1
M140 S60
M105
M190 S60
M104 S215
M105
M109 S215
M82 ;absolute extrusion mode
G28 ;Home
G1 Z15.0 F6000 ;Move the platform down 15mm
;Prime the extruder
G92 E0
G1 F200 E3
G92 E0
G92 E0
G92 E0
G1 F1500 E-1
;LAYER_COUNT:287
;LAYER:0
M107
G0 F3600 X117.54 Y85.407 Z0.3
;TYPE:SKIRT
G1 F1500 E0
G1 F1800 X118.03 Y85.533 E0.02524
G1 X118.494 Y85.735 E0.05049
G1 X118.92 Y86.007 E0.07571
G1 X119.298 Y86.342 E0.1009
G1 X119.618 Y86.733 E0.12611
G1 X119.873 Y87.17 E0.15135
G1 X120.056 Y87.641 E0.17656
G1 X120.163 Y88.135 E0.20178
G1 X120.199 Y88.79 E0.23451
G1 X120.2 Y130.754 E2.3281
G1 X120.191 Y131.481 E2.36437
G1 X120.145 Y131.984 E2.38957
G1 X120.02 Y132.474 E2.4148
G1 X119.819 Y132.938 E2.44003
G1 X119.548 Y133.365 E2.46526
G1 X119.213 Y133.744 E2.4905
G1 X118.823 Y134.065 E2.5157
G1 X118.387 Y134.321 E2.54092
G1 X117.916 Y134.504 E2.56613
G1 X117.422 Y134.612 E2.59136
G1 X116.76 Y134.649 E2.62444
G1 X103.666 Y134.65 E3.2777
G1 X102.968 Y134.641 E3.31253
G1 X102.464 Y134.594 E3.33778
G1 X101.974 Y134.469 E3.36301
G1 X101.51 Y134.268 E3.38824
G1 X101.084 Y133.997 E3.41343
G1 X100.705 Y133.662 E3.43866
G1 X100.384 Y133.271 E3.4639
G1 X100.129 Y132.835 E3.4891
G1 X99.945 Y132.364 E3.51433
G1 X99.838 Y131.87 E3.53955
G1 X99.801 Y131.194 E3.57332
G1 X99.8 Y89.181 E5.66936
G1 X99.809 Y88.516 E5.70254
G1 X99.856 Y88.012 E5.72779
G1 X99.982 Y87.523 E5.75299
G1 X100.183 Y87.059 E5.77821
G1 X100.454 Y86.632 E5.80344
G1 X100.789 Y86.254 E5.82864
G1 X101.18 Y85.933 E5.85388
G1 X101.617 Y85.678 E5.87912
G1 X102.088 Y85.494 E5.90435
G1 X102.582 Y85.388 E5.92956
G1 X103.24 Y85.351 E5.96244
G1 X116.339 Y85.35 E6.61595
G1 X117.037 Y85.36 E6.65078
G1 X117.54 Y85.407 E6.67598
G0 F3600 X117.577 Y85.008
G1 F1800 X118.098 Y85.134 E6.70272
G1 X118.595 Y85.337 E6.72951
G1 X119.056 Y85.611 E6.75626
G1 X119.471 Y85.95 E6.783
G1 X119.831 Y86.348 E6.80977
G1 X120.128 Y86.794 E6.8365
G1 X120.356 Y87.28 E6.86329
G1 X120.508 Y87.794 E6.89003
G1 X120.59 Y88.459 E6.92346
G1 X120.6 Y130.759 E9.03381
G1 X120.591 Y131.486 E9.07008
G1 X120.544 Y132.02 E9.09683
G1 X120.419 Y132.541 E9.12356
G1 X120.217 Y133.038 E9.15032
G1 X119.944 Y133.5 E9.1771
G1 X119.606 Y133.916 E9.20384
G1 X119.209 Y134.277 E9.23061
G1 X118.763 Y134.575 E9.25737
G1 X118.278 Y134.803 E9.28411
G1 X117.764 Y134.957 E9.31088
G1 X117.092 Y135.04 E9.34466
G1 X103.661 Y135.05 E10.01473
G1 X102.963 Y135.041 E10.04956
G1 X102.428 Y134.994 E10.07635
G1 X101.907 Y134.868 E10.1031
G1 X101.41 Y134.666 E10.12986
G1 X100.949 Y134.393 E10.15659
G1 X100.533 Y134.054 E10.18336
G1 X100.172 Y133.658 E10.2101
G1 X99.874 Y133.212 E10.23686
G1 X99.646 Y132.726 E10.26364
G1 X99.493 Y132.212 E10.2904
G1 X99.41 Y131.538 E10.32428
G1 X99.4 Y89.175 E12.43777
G1 X99.409 Y88.51 E12.47095
G1 X99.457 Y87.976 E12.4977
G1 X99.583 Y87.455 E12.52445
G1 X99.785 Y86.958 E12.55121
G1 X100.058 Y86.497 E12.57794
G1 X100.397 Y86.081 E12.60471
G1 X100.794 Y85.721 E12.63145
G1 X101.241 Y85.423 E12.65825
G1 X101.726 Y85.195 E12.68499
G1 X102.24 Y85.042 E12.71175
G1 X102.908 Y84.96 E12.74532
G1 X116.345 Y84.95 E13.4157
G1 X117.043 Y84.96 E13.45052
G1 X117.577 Y85.008 E13.47727
G1 F1500 E12.47727
;MESH:Mid-Conduit.obj
G0 F3600 X116.386 Y87.885
G0 X116.386 Y89.164
G0 X103.67 Y130.78
G0 X103.6 Y130.85
;TYPE:WALL-INNER
G1 F1500 E13.47727
G1 F1800 X103.6 Y89.15 E15.55769
G1 X116.4 Y89.15 E16.19629
G1 X116.4 Y130.85 E18.27671
G1 X103.6 Y130.85 E18.91531
G0 F3600 X103.2 Y131.25
;TYPE:WALL-OUTER
G1 F1800 X103.2 Y88.75 E21.03564
G1 X116.8 Y88.75 E21.71415
G1 X116.8 Y131.25 E23.83448
G1 X103.2 Y131.25 E24.51299
G0 F3600 X103.2 Y131.05
G0 X103.99 Y130.46
;TYPE:SKIN
G1 F1800 X103.99 Y89.54 E26.55449
G1 X116.01 Y89.54 E27.15417
G1 X116.01 Y130.46 E29.19568
G1 X103.99 Y130.46 E29.79536
G0 F3600 X104.257 Y130.279
G1 F1800 X104.169 Y130.191 E29.80157
G0 F3600 X104.169 Y129.625
G1 F1800 X104.823 Y130.279 E29.84771
G0 F3600 X105.389 Y130.279
G1 F1800 X104.169 Y129.059 E29.93379
G0 F3600 X104.169 Y128.494
G1 F1800 X105.955 Y130.279 E30.05977
G0 F3600 X106.52 Y130.279
G1 F1800 X104.169 Y127.928 E30.22564
G0 F3600 X104.169 Y127.362
G1 F1800 X107.086 Y130.279 E30.43145
G0 F3600 X107.652 Y130.279
G1 F1800 X104.169 Y126.796 E30.6772
G0 F3600 X104.169 Y126.231
G1 F1800 X108.217 Y130.279 E30.96281
G0 F3600 X108.783 Y130.279
G1 F1800 X104.169 Y125.665 E31.28835
G0 F3600 X104.169 Y125.099
G1 F1800 X109.349 Y130.279 E31.65382
G0 F3600 X109.914 Y130.279
G1 F1800 X104.169 Y124.534 E32.05917
G0 F3600 X104.169 Y123.968
G1 F1800 X110.48 Y130.279 E32.50444
G0 F3600 X111.046 Y130.279
G1 F1800 X104.169 Y123.402 E32.98965
G0 F3600 X104.169 Y122.837
G1 F1800 X111.611 Y130.279 E33.51472
G0 F3600 X112.177 Y130.279
G1 F1800 X104.169 Y122.271 E34.07973
G0 F3600 X104.169 Y121.705
G1 F1800 X112.743 Y130.279 E34.68467
G0 F3600 X113.308 Y130.279
G1 F1800 X104.169 Y121.14 E35.32948
G0 F3600 X104.169 Y120.574
G1 F1800 X113.874 Y130.279 E36.01422
G0 F3600 X114.44 Y130.279
G1 F1800 X104.169 Y120.008 E36.73889
G0 F3600 X104.169 Y119.443
G1 F1800 X115.005 Y130.279 E37.50343
G0 F3600 X115.571 Y130.279
G1 F1800 X104.169 Y118.877 E38.3079
G0 F3600 X104.169 Y118.311
G1 F1800 X115.83 Y129.972 E39.13065
G0 F3600 X115.83 Y129.406
G1 F1800 X104.169 Y117.746 E39.95336
G0 F3600 X104.169 Y117.18
G1 F1800 X115.83 Y128.841 E40.77611
G0 F3600 X115.83 Y128.275
G1 F1800 X104.169 Y116.614 E41.59886
G0 F3600 X104.169 Y116.048
G1 F1800 X115.83 Y127.709 E42.4216
G0 F3600 X115.83 Y127.144
G1 F1800 X104.169 Y115.483 E43.24435
G0 F3600 X104.169 Y114.917
G1 F1800 X115.83 Y126.578 E44.0671
G0 F3600 X115.83 Y126.012
G1 F1800 X104.169 Y114.351 E44.88984
G0 F3600 X104.169 Y113.786
G1 F1800 X115.83 Y125.447 E45.71259
G0 F3600 X115.83 Y124.881
G1 F1800 X104.169 Y113.22 E46.53533
G0 F3600 X104.169 Y112.654
G1 F1800 X115.83 Y124.315 E47.35808
G0 F3600 X115.83 Y123.75
G1 F1800 X104.169 Y112.089 E48.18083
G0 F3600 X104.169 Y111.523
G1 F1800 X115.83 Y123.184 E49.00357
G0 F3600 X115.83 Y122.618
G1 F1800 X104.169 Y110.957 E49.82632
G0 F3600 X104.169 Y110.392
G1 F1800 X115.83 Y122.052 E50.64903
G0 F3600 X115.83 Y121.487
G1 F1800 X104.168 Y109.825 E51.47185
G0 F3600 X104.168 Y109.26
G1 F1800 X115.83 Y120.921 E52.29463
G0 F3600 X115.83 Y120.355
G1 F1800 X104.168 Y108.694 E53.11741
G0 F3600 X104.168 Y108.128
G1 F1800 X115.83 Y119.79 E53.94023
G0 F3600 X115.83 Y119.224
G1 F1800 X104.168 Y107.562 E54.76305
G0 F3600 X104.168 Y106.997
G1 F1800 X115.83 Y118.658 E55.58583
G0 F3600 X115.83 Y118.093
G1 F1800 X104.168 Y106.431 E56.40865
G0 F3600 X104.168 Y105.865
G1 F1800 X115.83 Y117.527 E57.23146
G0 F3600 X115.83 Y116.961
G1 F1800 X104.168 Y105.3 E58.05424
G0 F3600 X104.168 Y104.734
G1 F1800 X115.83 Y116.396 E58.87706
G0 F3600 X115.83 Y115.83
G1 F1800 X104.168 Y104.168 E59.69988
G0 F3600 X104.168 Y103.603
G1 F1800 X115.83 Y115.264 E60.52266
G0 F3600 X115.83 Y114.699
G1 F1800 X104.168 Y103.037 E61.34548
G0 F3600 X104.168 Y102.471
G1 F1800 X115.83 Y114.133 E62.1683
G0 F3600 X115.83 Y113.567
G1 F1800 X104.168 Y101.906 E62.99108
G0 F3600 X104.168 Y101.34
G1 F1800 X115.83 Y113.002 E63.81389
G0 F3600 X115.83 Y112.436
G1 F1800 X104.168 Y100.774 E64.63671
G0 F3600 X104.168 Y100.209
G1 F1800 X115.83 Y111.87 E65.45949
G0 F3600 X115.83 Y111.304
G1 F1800 X104.168 Y99.643 E66.28227
G0 F3600 X104.168 Y99.077
G1 F1800 X115.83 Y110.739 E67.10509
G0 F3600 X115.83 Y110.173
G1 F1800 X104.168 Y98.511 E67.92791
G0 F3600 X104.168 Y97.946
G1 F1800 X115.829 Y109.607 E68.75066
G0 F3600 X115.829 Y109.041
G1 F1800 X104.168 Y97.38 E69.5734
G0 F3600 X104.168 Y96.814
G1 F1800 X115.829 Y108.475 E70.39615
G0 F3600 X115.829 Y107.91
G1 F1800 X104.168 Y96.249 E71.2189
G0 F3600 X104.168 Y95.683
G1 F1800 X115.829 Y107.344 E72.04164
G0 F3600 X115.829 Y106.778
G1 F1800 X104.168 Y95.117 E72.86439
G0 F3600 X104.168 Y94.552
G1 F1800 X115.829 Y106.213 E73.68713
G0 F3600 X115.829 Y105.647
G1 F1800 X104.168 Y93.986 E74.50988
G0 F3600 X104.168 Y93.42
G1 F1800 X115.829 Y105.081 E75.33263
G0 F3600 X115.829 Y104.516
G1 F1800 X104.168 Y92.855 E76.15537
G0 F3600 X104.168 Y92.289
G1 F1800 X115.829 Y103.95 E76.97812
G0 F3600 X115.829 Y103.384
G1 F1800 X104.168 Y91.723 E77.80087
G0 F3600 X104.168 Y91.158
G1 F1800 X115.829 Y102.818 E78.62358
G0 F3600 X115.829 Y102.253
G1 F1800 X104.168 Y90.592 E79.44633
G0 F3600 X104.168 Y90.026
G1 F1800 X115.829 Y101.687 E80.26907
G0 F3600 X115.829 Y101.121
G1 F1800 X104.427 Y89.719 E81.07354
G0 F3600 X104.993 Y89.719
G1 F1800 X115.829 Y100.556 E81.83812
G0 F3600 X115.829 Y99.99
G1 F1800 X105.559 Y89.719 E82.56276
G0 F3600 X106.124 Y89.719
G1 F1800 X115.829 Y99.424 E83.2475
G0 F3600 X115.829 Y98.859
G1 F1800 X106.69 Y89.719 E83.89234
G0 F3600 X107.256 Y89.719
G1 F1800 X115.829 Y98.293 E84.49725
G0 F3600 X115.829 Y97.727
G1 F1800 X107.821 Y89.719 E85.06225
G0 F3600 X108.387 Y89.719
G1 F1800 X115.829 Y97.162 E85.58736
G0 F3600 X115.829 Y96.596
G1 F1800 X108.953 Y89.719 E86.07254
G0 F3600 X109.518 Y89.719
G1 F1800 X115.829 Y96.03 E86.51781
G0 F3600 X115.829 Y95.465
G1 F1800 X110.084 Y89.719 E86.92319
G0 F3600 X110.65 Y89.719
G1 F1800 X115.829 Y94.899 E87.28863
G0 F3600 X115.829 Y94.333
G1 F1800 X111.215 Y89.719 E87.61417
G0 F3600 X111.781 Y89.719
G1 F1800 X115.829 Y93.768 E87.89981
G0 F3600 X115.829 Y93.202
G1 F1800 X112.347 Y89.719 E88.14552
G0 F3600 X112.912 Y89.719
G1 F1800 X115.829 Y92.636 E88.35133
G0 F3600 X115.829 Y92.07
G1 F1800 X113.478 Y89.719 E88.51721
G0 F3600 X114.044 Y89.719
G1 F1800 X115.829 Y91.505 E88.64319
G0 F3600 X115.829 Y90.939
G1 F1800 X114.609 Y89.719 E88.72926
G0 F3600 X115.175 Y89.719
G1 F1800 X115.829 Y90.373 E88.77541
G0 F3600 X115.829 Y89.808
G1 F1800 X115.741 Y89.719 E88.78165
;MESH:NONMESH
G0 F600 X115.741 Y89.719 Z0.36
G0 F3600 X103.67 Y130.78
G0 X103.6 Y130.85
;TIME_ELAPSED:66.862757
;LAYER:1
M140 S60
M106 S255
;TYPE:WALL-INNER
;MESH:Mid-Conduit.obj
G1 F2700 X103.6 Y89.15 E89.19774
G1 X116.4 Y89.15 E89.32545
G1 X116.4 Y130.85 E89.74154
G1 X103.6 Y130.85 E89.86926
G0 F5400 X103.2 Y131.25
;TYPE:WALL-OUTER
G1 F1800 X103.2 Y88.75 E90.29332
G1 X116.8 Y88.75 E90.42903
G1 X116.8 Y131.25 E90.85309
G1 X103.2 Y131.25 E90.98879
G0 F5400 X103.2 Y131.05
G0 X103.99 Y130.46
;TYPE:SKIN
G1 F1350 X103.99 Y89.54 E91.3971
G1 X116.01 Y89.54 E91.51703
G1 X116.01 Y130.46 E91.92533
G1 X103.99 Y130.46 E92.04527
G0 F5400 X115.227 Y130.279
G1 F1350 X115.829 Y129.677 E92.05376
G0 F5400 X115.829 Y129.112
G1 F1350 X114.662 Y130.279 E92.07023
G0 F5400 X114.096 Y130.279
G1 F1350 X115.829 Y128.546 E92.09469
G0 F5400 X115.829 Y127.98
G1 F1350 X113.53 Y130.279 E92.12713
G0 F5400 X112.965 Y130.279
G1 F1350 X115.829 Y127.414 E92.16755
G0 F5400 X115.829 Y126.849
G1 F1350 X112.399 Y130.279 E92.21595
G0 F5400 X111.833 Y130.279
G1 F1350 X115.829 Y126.283 E92.27234
G0 F5400 X115.829 Y125.717
G1 F1350 X111.268 Y130.279 E92.33671
G0 F5400 X110.702 Y130.279
G1 F1350 X115.829 Y125.152 E92.40905
G0 F5400 X115.829 Y124.586
G1 F1350 X110.136 Y130.279 E92.48939
G0 F5400 X109.571 Y130.279
G1 F1350 X115.829 Y124.02 E92.5777
G0 F5400 X115.829 Y123.455
G1 F1350 X109.005 Y130.279 E92.674
G0 F5400 X108.439 Y130.279
G1 F1350 X115.829 Y122.889 E92.77828
G0 F5400 X115.829 Y122.323
G1 F1350 X107.874 Y130.279 E92.89054
G0 F5400 X107.308 Y130.279
G1 F1350 X115.829 Y121.758 E93.01078
G0 F5400 X115.829 Y121.192
G1 F1350 X106.742 Y130.279 E93.139
G0 F5400 X106.177 Y130.279
G1 F1350 X115.829 Y120.626 E93.27521
G0 F5400 X115.829 Y120.061
G1 F1350 X105.611 Y130.279 E93.4194
G0 F5400 X105.045 Y130.279
G1 F1350 X115.829 Y119.495 E93.57157
G0 F5400 X115.829 Y118.929
G1 F1350 X104.479 Y130.279 E93.73173
G0 F5400 X104.17 Y130.023
G1 F1350 X115.829 Y118.364 E93.89625
G0 F5400 X115.829 Y117.798
G1 F1350 X104.17 Y129.457 E94.06078
G0 F5400 X104.17 Y128.892
G1 F1350 X115.829 Y117.232 E94.2253
G0 F5400 X115.829 Y116.666
G1 F1350 X104.17 Y128.326 E94.38983
G0 F5400 X104.17 Y127.76
G1 F1350 X115.829 Y116.101 E94.55435
G0 F5400 X115.829 Y115.535
G1 F1350 X104.17 Y127.195 E94.71888
G0 F5400 X104.17 Y126.629
G1 F1350 X115.829 Y114.969 E94.88341
G0 F5400 X115.829 Y114.404
G1 F1350 X104.17 Y126.063 E95.04793
G0 F5400 X104.17 Y125.498
G1 F1350 X115.829 Y113.838 E95.21246
G0 F5400 X115.829 Y113.272
G1 F1350 X104.17 Y124.932 E95.37699
G0 F5400 X104.17 Y124.366
G1 F1350 X115.829 Y112.707 E95.54151
G0 F5400 X115.829 Y112.141
G1 F1350 X104.17 Y123.8 E95.70603
G0 F5400 X104.17 Y123.235
G1 F1350 X115.829 Y111.575 E95.87056
G0 F5400 X115.829 Y111.01
G1 F1350 X104.17 Y122.669 E96.03508
G0 F5400 X104.17 Y122.103
G1 F1350 X115.829 Y110.444 E96.1996
G0 F5400 X115.829 Y109.879
G1 F1350 X104.17 Y121.538 E96.36412
G0 F5400 X104.17 Y120.972
G1 F1350 X115.829 Y109.313 E96.52864
G0 F5400 X115.829 Y108.748
G1 F1350 X104.17 Y120.406 E96.69316
G0 F5400 X104.17 Y119.841
G1 F1350 X115.829 Y108.182 E96.85768
G0 F5400 X115.829 Y107.616
G1 F1350 X104.17 Y119.275 E97.0222
G0 F5400 X104.17 Y118.709
G1 F1350 X115.829 Y107.051 E97.18671
G0 F5400 X115.829 Y106.485
G1 F1350 X104.17 Y118.144 E97.35123
G0 F5400 X104.17 Y117.578
G1 F1350 X115.829 Y105.919 E97.51575
G0 F5400 X115.829 Y105.353
G1 F1350 X104.17 Y117.012 E97.68027
G0 F5400 X104.17 Y116.447
G1 F1350 X115.829 Y104.788 E97.8448
G0 F5400 X115.829 Y104.222
G1 F1350 X104.17 Y115.881 E98.00932
G0 F5400 X104.17 Y115.315
G1 F1350 X115.829 Y103.656 E98.17384
G0 F5400 X115.829 Y103.091
G1 F1350 X104.17 Y114.749 E98.33835
G0 F5400 X104.17 Y114.184
G1 F1350 X115.829 Y102.525 E98.50287
G0 F5400 X115.829 Y101.959
G1 F1350 X104.17 Y113.618 E98.66739
G0 F5400 X104.17 Y113.052
G1 F1350 X115.829 Y101.394 E98.83191
G0 F5400 X115.829 Y100.828
G1 F1350 X104.17 Y112.487 E98.99643
G0 F5400 X104.17 Y111.921
G1 F1350 X115.829 Y100.262 E99.16095
G0 F5400 X115.829 Y99.697
G1 F1350 X104.17 Y111.355 E99.32546
G0 F5400 X104.17 Y110.79
G1 F1350 X115.829 Y99.131 E99.48999
G0 F5400 X115.829 Y98.565
G1 F1350 X104.17 Y110.224 E99.65451
G0 F5400 X104.169 Y109.659
G1 F1350 X115.829 Y98 E99.81903
G0 F5400 X115.829 Y97.434
G1 F1350 X104.169 Y109.093 E99.98356
G0 F5400 X104.169 Y108.528
G1 F1350 X115.829 Y96.868 E100.1481
G0 F5400 X115.829 Y96.302
G1 F1350 X104.169 Y107.962 E100.31263
G0 F5400 X104.169 Y107.396
G1 F1350 X115.829 Y95.737 E100.47716
G0 F5400 X115.829 Y95.171
G1 F1350 X104.169 Y106.831 E100.6417
G0 F5400 X104.169 Y106.265
G1 F1350 X115.829 Y94.605 E100.80623
G0 F5400 X115.829 Y94.04
G1 F1350 X104.169 Y105.699 E100.97076
G0 F5400 X104.169 Y105.134
G1 F1350 X115.829 Y93.474 E101.1353
G0 F5400 X115.829 Y92.908
G1 F1350 X104.169 Y104.568 E101.29983
G0 F5400 X104.169 Y104.002
G1 F1350 X115.829 Y92.343 E101.46436
G0 F5400 X115.829 Y91.777
G1 F1350 X104.169 Y103.436 E101.62889
G0 F5400 X104.169 Y102.871
G1 F1350 X115.829 Y91.211 E101.79342
G0 F5400 X115.829 Y90.646
G1 F1350 X104.169 Y102.305 E101.95795
G0 F5400 X104.169 Y101.739
G1 F1350 X115.829 Y90.08 E102.12248
G0 F5400 X115.623 Y89.719
G1 F1350 X104.169 Y101.174 E102.28411
G0 F5400 X104.169 Y100.608
G1 F1350 X115.058 Y89.719 E102.43777
G0 F5400 X114.492 Y89.719
G1 F1350 X104.169 Y100.042 E102.58344
G0 F5400 X104.169 Y99.477
G1 F1350 X113.926 Y89.719 E102.72113
G0 F5400 X113.361 Y89.719
G1 F1350 X104.169 Y98.911 E102.85084
G0 F5400 X104.169 Y98.345
G1 F1350 X112.795 Y89.719 E102.97256
G0 F5400 X112.229 Y89.719
G1 F1350 X104.169 Y97.78 E103.0863
G0 F5400 X104.169 Y97.214
G1 F1350 X111.664 Y89.719 E103.19206
G0 F5400 X111.098 Y89.719
G1 F1350 X104.169 Y96.648 E103.28984
G0 F5400 X104.169 Y96.083
G1 F1350 X110.532 Y89.719 E103.37963
G0 F5400 X109.967 Y89.719
G1 F1350 X104.169 Y95.517 E103.46145
G0 F5400 X104.169 Y94.951
G1 F1350 X109.401 Y89.719 E103.53528
G0 F5400 X108.835 Y89.719
G1 F1350 X104.169 Y94.386 E103.60113
G0 F5400 X104.169 Y93.82
G1 F1350 X108.27 Y89.719 E103.659
G0 F5400 X107.704 Y89.719
G1 F1350 X104.169 Y93.254 E103.70888
G0 F5400 X104.169 Y92.688
G1 F1350 X107.138 Y89.719 E103.75078
G0 F5400 X106.573 Y89.719
G1 F1350 X104.169 Y92.123 E103.7847
G0 F5400 X104.169 Y91.557
G1 F1350 X106.007 Y89.719 E103.81064
G0 F5400 X105.441 Y89.719
