;FLAVOR:Marlin
;TIME:6169
;Filament used: 1.57074m
;Layer height: 0.12
;MINX:90.2
;MINY:29.2
;MINZ:0.12
;MAXX:119.8
;MAXY:180.8
;MAXZ:17.4
;Generated with Cura_SteamEngine 4.4.0
M140 S60
M105
M190 S60
M104 S200
M105
M109 S200
M82 ;absolute extrusion mode
G28 ;Home
G1 Z15.0 F6000 ;Move the platform down 15mm
;Prime the extruder
G92 E0
G1 F200 E3
G92 E0
G92 E0
G92 E0
G1 F1500 E-6.5
;LAYER_COUNT:145
;LAYER:0
M107
G0 F3600 X90.831 Y33.926 Z0.12
;TYPE:SKIRT
G1 F1500 E0
G1 F1800 X91.179 Y33.217 E0.00594
G1 X91.597 Y32.546 E0.01189
G1 X92.08 Y31.922 E0.01783
G1 X92.623 Y31.349 E0.02377
G1 X93.222 Y30.834 E0.02971
G1 X93.87 Y30.383 E0.03565
G1 X94.561 Y29.999 E0.0416
G1 X95.286 Y29.687 E0.04754
G1 X96.039 Y29.45 E0.05348
G1 X96.813 Y29.291 E0.05942
G1 X97.598 Y29.21 E0.06536
G1 X98 Y29.2 E0.06839
G1 X112 Y29.2 E0.17373
G1 X112.789 Y29.24 E0.17967
G1 X113.569 Y29.359 E0.18561
G1 X114.334 Y29.557 E0.19155
G1 X115.074 Y29.831 E0.19749
G1 X115.783 Y30.179 E0.20343
G1 X116.454 Y30.597 E0.20938
G1 X117.078 Y31.08 E0.21532
G1 X117.651 Y31.623 E0.22126
G1 X118.166 Y32.222 E0.2272
G1 X118.617 Y32.87 E0.23314
G1 X119.001 Y33.561 E0.23909
G1 X119.313 Y34.286 E0.24503
G1 X119.55 Y35.039 E0.25097
G1 X119.709 Y35.813 E0.25691
G1 X119.79 Y36.598 E0.26285
G1 X119.8 Y37 E0.26588
G1 X119.8 Y173 E1.28917
G1 X119.76 Y173.789 E1.29512
G1 X119.641 Y174.569 E1.30105
G1 X119.443 Y175.334 E1.307
G1 X119.169 Y176.074 E1.31294
G1 X118.821 Y176.783 E1.31888
G1 X118.403 Y177.454 E1.32483
G1 X117.92 Y178.078 E1.33076
G1 X117.377 Y178.651 E1.3367
G1 X116.778 Y179.166 E1.34265
G1 X116.13 Y179.617 E1.34859
G1 X115.439 Y180.001 E1.35454
G1 X114.714 Y180.313 E1.36048
G1 X113.961 Y180.55 E1.36642
G1 X113.187 Y180.709 E1.37236
G1 X112.402 Y180.79 E1.3783
G1 X112 Y180.8 E1.38132
G1 X98 Y180.8 E1.48666
G1 X97.211 Y180.76 E1.49261
G1 X96.431 Y180.641 E1.49854
G1 X95.666 Y180.443 E1.50449
G1 X94.926 Y180.169 E1.51043
G1 X94.217 Y179.821 E1.51637
G1 X93.546 Y179.403 E1.52232
G1 X92.922 Y178.92 E1.52826
G1 X92.349 Y178.377 E1.5342
G1 X91.834 Y177.778 E1.54014
G1 X91.383 Y177.13 E1.54608
G1 X90.999 Y176.439 E1.55203
G1 X90.687 Y175.714 E1.55797
G1 X90.45 Y174.961 E1.56391
G1 X90.291 Y174.187 E1.56985
G1 X90.21 Y173.402 E1.57579
G1 X90.2 Y173 E1.57882
G1 X90.2 Y37 E2.60211
G1 X90.24 Y36.211 E2.60805
G1 X90.359 Y35.431 E2.61399
G1 X90.557 Y34.666 E2.61994
G1 X90.831 Y33.926 E2.62587
G0 F3600 X91.231 Y34.01
G1 F1800 X91.578 Y33.324 E2.63166
G1 X91.994 Y32.677 E2.63745
G1 X92.475 Y32.077 E2.64323
G1 X93.016 Y31.53 E2.64902
G1 X93.611 Y31.042 E2.65481
G1 X94.253 Y30.619 E2.6606
G1 X94.936 Y30.264 E2.66639
G1 X95.651 Y29.983 E2.67217
G1 X96.393 Y29.777 E2.67796
G1 X97.151 Y29.649 E2.68375
G1 X98 Y29.6 E2.69014
G1 X112 Y29.6 E2.79548
G1 X112.768 Y29.64 E2.80127
G1 X113.528 Y29.759 E2.80706
G1 X114.271 Y29.957 E2.81284
G1 X114.99 Y30.231 E2.81863
G1 X115.676 Y30.578 E2.82442
G1 X116.323 Y30.994 E2.8302
G1 X116.923 Y31.475 E2.83599
G1 X117.47 Y32.016 E2.84178
G1 X117.958 Y32.611 E2.84757
G1 X118.381 Y33.253 E2.85335
G1 X118.736 Y33.936 E2.85915
G1 X119.017 Y34.651 E2.86493
G1 X119.223 Y35.393 E2.87072
G1 X119.351 Y36.151 E2.87651
G1 X119.4 Y37 E2.8829
G1 X119.4 Y173 E3.9062
G1 X119.36 Y173.768 E3.91198
G1 X119.241 Y174.528 E3.91777
G1 X119.043 Y175.271 E3.92356
G1 X118.769 Y175.99 E3.92935
G1 X118.422 Y176.676 E3.93513
G1 X118.006 Y177.323 E3.94092
G1 X117.525 Y177.923 E3.94671
G1 X116.984 Y178.47 E3.95249
G1 X116.389 Y178.958 E3.95828
G1 X115.747 Y179.381 E3.96407
G1 X115.064 Y179.736 E3.96986
G1 X114.349 Y180.017 E3.97564
G1 X113.607 Y180.223 E3.98144
G1 X112.849 Y180.351 E3.98722
G1 X112 Y180.4 E3.99362
G1 X98 Y180.4 E4.09896
G1 X97.232 Y180.36 E4.10474
G1 X96.472 Y180.241 E4.11053
G1 X95.729 Y180.043 E4.11632
G1 X95.01 Y179.769 E4.12211
G1 X94.324 Y179.422 E4.12789
G1 X93.677 Y179.006 E4.13368
G1 X93.077 Y178.525 E4.13947
G1 X92.53 Y177.984 E4.14525
G1 X92.042 Y177.389 E4.15104
G1 X91.619 Y176.747 E4.15683
G1 X91.264 Y176.064 E4.16262
G1 X90.983 Y175.349 E4.1684
G1 X90.777 Y174.607 E4.1742
G1 X90.649 Y173.849 E4.17998
G1 X90.6 Y173 E4.18638
G1 X90.6 Y37 E5.20967
G1 X90.64 Y36.232 E5.21546
G1 X90.759 Y35.472 E5.22125
G1 X90.957 Y34.729 E5.22703
G1 X91.231 Y34.01 E5.23282
G0 F3600 X91.63 Y34.097
G1 F1800 X91.977 Y33.434 E5.23845
G1 X92.392 Y32.811 E5.24408
G1 X92.871 Y32.237 E5.24971
G1 X93.408 Y31.716 E5.25534
G1 X93.998 Y31.257 E5.26096
G1 X94.634 Y30.862 E5.2666
G1 X95.308 Y30.538 E5.27222
G1 X96.013 Y30.288 E5.27785
G1 X96.741 Y30.114 E5.28348
G1 X97.483 Y30.019 E5.28911
G1 X98 Y30 E5.29301
G1 X112 Y30 E5.39834
G1 X112.747 Y30.04 E5.40397
G1 X113.485 Y30.159 E5.4096
G1 X114.207 Y30.357 E5.41523
G1 X114.903 Y30.63 E5.42086
G1 X115.566 Y30.977 E5.42649
G1 X116.189 Y31.392 E5.43212
G1 X116.763 Y31.871 E5.43774
G1 X117.284 Y32.408 E5.44337
G1 X117.743 Y32.998 E5.449
G1 X118.138 Y33.634 E5.45463
G1 X118.462 Y34.308 E5.46026
G1 X118.712 Y35.013 E5.46589
G1 X118.886 Y35.741 E5.47152
G1 X118.981 Y36.483 E5.47715
G1 X119 Y37 E5.48104
G1 X119 Y173 E6.50433
G1 X118.96 Y173.747 E6.50996
G1 X118.841 Y174.485 E6.51559
G1 X118.643 Y175.207 E6.52122
G1 X118.37 Y175.903 E6.52685
G1 X118.023 Y176.566 E6.53248
G1 X117.608 Y177.189 E6.53811
G1 X117.129 Y177.763 E6.54373
G1 X116.592 Y178.284 E6.54936
G1 X116.002 Y178.743 E6.55499
G1 X115.366 Y179.138 E6.56062
G1 X114.692 Y179.462 E6.56625
G1 X113.987 Y179.712 E6.57188
G1 X113.259 Y179.886 E6.57751
G1 X112.517 Y179.981 E6.58314
G1 X112 Y180 E6.58703
G1 X98 Y180 E6.69237
G1 X97.253 Y179.96 E6.698
G1 X96.515 Y179.841 E6.70362
G1 X95.793 Y179.643 E6.70925
G1 X95.097 Y179.37 E6.71488
G1 X94.434 Y179.023 E6.72051
G1 X93.811 Y178.608 E6.72614
G1 X93.237 Y178.129 E6.73177
G1 X92.716 Y177.592 E6.7374
G1 X92.257 Y177.002 E6.74302
G1 X91.862 Y176.366 E6.74866
G1 X91.538 Y175.692 E6.75428
G1 X91.288 Y174.987 E6.75991
G1 X91.114 Y174.259 E6.76554
G1 X91.019 Y173.517 E6.77117
G1 X91 Y173 E6.77506
G1 X91 Y37 E7.79836
G1 X91.04 Y36.253 E7.80399
G1 X91.159 Y35.515 E7.80961
G1 X91.357 Y34.793 E7.81524
G1 X91.63 Y34.097 E7.82087
G0 F3600 X92.03 Y34.186
G1 F1800 X92.375 Y33.547 E7.82633
G1 X92.789 Y32.95 E7.8318
G1 X93.265 Y32.402 E7.83726
G1 X93.799 Y31.909 E7.84273
G1 X94.384 Y31.479 E7.84819
G1 X95.013 Y31.115 E7.85366
G1 X95.678 Y30.822 E7.85913
G1 X96.371 Y30.604 E7.86459
G1 X97.083 Y30.464 E7.87005
G1 X98 Y30.4 E7.87697
G1 X112 Y30.4 E7.98231
G1 X112.725 Y30.44 E7.98777
G1 X113.442 Y30.559 E7.99324
G1 X114.141 Y30.757 E7.99871
G1 X114.814 Y31.03 E8.00417
G1 X115.453 Y31.375 E8.00964
G1 X116.05 Y31.789 E8.0151
G1 X116.598 Y32.265 E8.02057
G1 X117.091 Y32.799 E8.02603
G1 X117.521 Y33.384 E8.0315
G1 X117.885 Y34.013 E8.03696
G1 X118.178 Y34.678 E8.04243
G1 X118.396 Y35.371 E8.0479
G1 X118.536 Y36.083 E8.05336
G1 X118.6 Y37 E8.06027
G1 X118.6 Y173 E9.08357
G1 X118.56 Y173.725 E9.08903
G1 X118.441 Y174.442 E9.0945
G1 X118.243 Y175.141 E9.09997
G1 X117.97 Y175.814 E9.10543
G1 X117.625 Y176.453 E9.1109
G1 X117.211 Y177.05 E9.11636
G1 X116.735 Y177.598 E9.12182
G1 X116.201 Y178.091 E9.12729
G1 X115.616 Y178.521 E9.13276
G1 X114.987 Y178.885 E9.13822
G1 X114.322 Y179.178 E9.14369
G1 X113.629 Y179.396 E9.14916
G1 X112.917 Y179.536 E9.15462
G1 X112 Y179.6 E9.16153
G1 X98 Y179.6 E9.26687
G1 X97.275 Y179.56 E9.27234
G1 X96.558 Y179.441 E9.2778
G1 X95.859 Y179.243 E9.28327
G1 X95.186 Y178.97 E9.28874
G1 X94.547 Y178.625 E9.2942
G1 X93.95 Y178.211 E9.29967
G1 X93.402 Y177.735 E9.30513
G1 X92.909 Y177.201 E9.3106
G1 X92.479 Y176.616 E9.31606
G1 X92.115 Y175.987 E9.32153
G1 X91.822 Y175.322 E9.32699
G1 X91.604 Y174.629 E9.33246
G1 X91.464 Y173.917 E9.33792
G1 X91.4 Y173 E9.34484
G1 X91.4 Y37 E10.36813
G1 X91.44 Y36.275 E10.37359
G1 X91.559 Y35.558 E10.37906
G1 X91.757 Y34.859 E10.38453
G1 X92.03 Y34.186 E10.38999
G0 F3600 X92.429 Y34.279
G1 F1800 X92.774 Y33.665 E10.39529
G1 X93.185 Y33.094 E10.40059
G1 X93.659 Y32.573 E10.40589
G1 X94.189 Y32.109 E10.41119
G1 X94.768 Y31.709 E10.41648
G1 X95.389 Y31.377 E10.42178
G1 X96.043 Y31.117 E10.42708
G1 X96.723 Y30.933 E10.43238
G1 X97.419 Y30.827 E10.43767
G1 X98 Y30.8 E10.44205
G1 X112 Y30.8 E10.54739
G1 X112.703 Y30.84 E10.55269
G1 X113.397 Y30.959 E10.55799
G1 X114.072 Y31.157 E10.56328
G1 X114.721 Y31.429 E10.56857
G1 X115.335 Y31.774 E10.57387
G1 X115.906 Y32.185 E10.57917
G1 X116.427 Y32.659 E10.58447
G1 X116.891 Y33.189 E10.58977
G1 X117.291 Y33.768 E10.59506
G1 X117.623 Y34.389 E10.60036
G1 X117.883 Y35.043 E10.60565
G1 X118.067 Y35.723 E10.61095
G1 X118.173 Y36.419 E10.61625
G1 X118.2 Y37 E10.62063
G1 X118.2 Y173 E11.64392
G1 X118.16 Y173.703 E11.64922
G1 X118.041 Y174.397 E11.65452
G1 X117.843 Y175.072 E11.65981
G1 X117.571 Y175.721 E11.66511
G1 X117.226 Y176.335 E11.67041
G1 X116.815 Y176.906 E11.6757
G1 X116.341 Y177.427 E11.681
G1 X115.811 Y177.891 E11.6863
G1 X115.232 Y178.291 E11.69159
G1 X114.611 Y178.623 E11.69689
G1 X113.957 Y178.883 E11.70219
G1 X113.277 Y179.067 E11.70749
G1 X112.581 Y179.173 E11.71279
G1 X112 Y179.2 E11.71716
G1 X98 Y179.2 E11.8225
G1 X97.297 Y179.16 E11.8278
G1 X96.603 Y179.041 E11.8331
G1 X95.928 Y178.843 E11.83839
G1 X95.279 Y178.571 E11.84368
G1 X94.665 Y178.226 E11.84898
G1 X94.094 Y177.815 E11.85428
G1 X93.573 Y177.341 E11.85958
G1 X93.109 Y176.811 E11.86488
G1 X92.709 Y176.232 E11.87017
G1 X92.377 Y175.611 E11.87547
G1 X92.117 Y174.957 E11.88077
G1 X91.933 Y174.277 E11.88607
G1 X91.827 Y173.581 E11.89136
G1 X91.8 Y173 E11.89574
G1 X91.8 Y37 E12.91903
G1 X91.84 Y36.297 E12.92433
G1 X91.959 Y35.603 E12.92963
G1 X92.157 Y34.928 E12.93492
G1 X92.429 Y34.279 E12.94022
G0 F3600 X92.556 Y34.998
G1 F1800 X92.828 Y34.374 E12.94534
G1 X93.172 Y33.786 E12.95047
G1 X93.582 Y33.242 E12.95559
G1 X94.053 Y32.751 E12.96071
G1 X94.578 Y32.317 E12.96584
G1 X95.15 Y31.948 E12.97096
G1 X95.762 Y31.649 E12.97608
G1 X96.404 Y31.424 E12.9812
G1 X97.069 Y31.275 E12.98633
G1 X98 Y31.2 E12.99336
G1 X112 Y31.2 E13.0987
G1 X112.68 Y31.24 E13.10382
G1 X113.35 Y31.359 E13.10894
G1 X114.002 Y31.556 E13.11407
G1 X114.626 Y31.828 E13.11919
G1 X115.214 Y32.172 E13.12431
G1 X115.758 Y32.582 E13.12944
G1 X116.249 Y33.053 E13.13456
G1 X116.683 Y33.578 E13.13968
G1 X117.052 Y34.15 E13.14481
G1 X117.351 Y34.762 E13.14993
G1 X117.576 Y35.404 E13.15505
G1 X117.725 Y36.069 E13.16018
G1 X117.8 Y37 E13.1672
G1 X117.8 Y173 E14.1905
G1 X117.76 Y173.68 E14.19562
G1 X117.641 Y174.35 E14.20074
G1 X117.444 Y175.002 E14.20587
G1 X117.172 Y175.626 E14.21099
G1 X116.828 Y176.214 E14.21612
G1 X116.418 Y176.758 E14.22124
G1 X115.947 Y177.249 E14.22636
G1 X115.422 Y177.683 E14.23149
G1 X114.85 Y178.052 E14.23661
G1 X114.238 Y178.351 E14.24173
G1 X113.596 Y178.576 E14.24685
G1 X112.931 Y178.725 E14.25198
G1 X112 Y178.8 E14.25901
G1 X98 Y178.8 E14.36435
G1 X97.32 Y178.76 E14.36947
G1 X96.65 Y178.641 E14.37459
G1 X95.998 Y178.444 E14.37972
G1 X95.374 Y178.172 E14.38484
G1 X94.786 Y177.828 E14.38996
G1 X94.242 Y177.418 E14.39509
G1 X93.751 Y176.947 E14.40021
G1 X93.317 Y176.422 E14.40533
G1 X92.948 Y175.85 E14.41046
G1 X92.649 Y175.238 E14.41558
G1 X92.424 Y174.596 E14.4207
G1 X92.275 Y173.931 E14.42583
G1 X92.2 Y173 E14.43285
G1 X92.2 Y37 E15.45615
G1 X92.24 Y36.32 E15.46127
G1 X92.359 Y35.65 E15.46639
G1 X92.556 Y34.998 E15.47152
G0 F3600 X92.956 Y35.071
G1 F1800 X93.228 Y34.473 E15.47646
G1 X93.57 Y33.912 E15.48141
G1 X93.978 Y33.397 E15.48635
G1 X94.445 Y32.935 E15.49129
G1 X94.965 Y32.534 E15.49623
G1 X95.529 Y32.198 E15.50117
G1 X96.131 Y31.934 E15.50612
G1 X96.76 Y31.744 E15.51106
G1 X97.407 Y31.633 E15.516
G1 X98 Y31.6 E15.52047
G1 X112 Y31.6 E15.62581
G1 X112.656 Y31.64 E15.63076
G1 X113.302 Y31.759 E15.6357
G1 X113.929 Y31.956 E15.64064
G1 X114.527 Y32.228 E15.64559
G1 X115.088 Y32.57 E15.65053
G1 X115.603 Y32.978 E15.65547
G1 X116.065 Y33.445 E15.66042
G1 X116.466 Y33.965 E15.66536
G1 X116.802 Y34.529 E15.6703
G1 X117.066 Y35.131 E15.67524
G1 X117.256 Y35.76 E15.68019
G1 X117.367 Y36.407 E15.68513
G1 X117.4 Y37 E15.68959
G1 X117.4 Y173 E16.71289
G1 X117.36 Y173.656 E16.71783
G1 X117.241 Y174.302 E16.72278
G1 X117.044 Y174.929 E16.72772
G1 X116.772 Y175.527 E16.73266
G1 X116.43 Y176.088 E16.73761
G1 X116.022 Y176.603 E16.74255
G1 X115.555 Y177.065 E16.74749
G1 X115.035 Y177.466 E16.75243
G1 X114.471 Y177.802 E16.75737
G1 X113.869 Y178.066 E16.76232
G1 X113.24 Y178.256 E16.76726
G1 X112.593 Y178.367 E16.7722
G1 X112 Y178.4 E16.77667
G1 X98 Y178.4 E16.88201
G1 X97.344 Y178.36 E16.88696
G1 X96.698 Y178.241 E16.8919
G1 X96.071 Y178.044 E16.89684
G1 X95.473 Y177.772 E16.90179
G1 X94.912 Y177.43 E16.90673
G1 X94.397 Y177.022 E16.91167
G1 X93.935 Y176.555 E16.91662
G1 X93.534 Y176.035 E16.92156
G1 X93.198 Y175.471 E16.9265
G1 X92.934 Y174.869 E16.93144
G1 X92.744 Y174.24 E16.93639
G1 X92.633 Y173.593 E16.94133
G1 X92.6 Y173 E16.9458
G1 X92.6 Y37 E17.96909
G1 X92.64 Y36.344 E17.97404
G1 X92.759 Y35.698 E17.97898
G1 X92.956 Y35.071 E17.98392
G0 F3600 X93.356 Y35.148
G1 F1800 X93.627 Y34.576 E17.98869
G1 X93.967 Y34.044 E17.99344
G1 X94.373 Y33.559 E17.99819
G1 X94.836 Y33.129 E18.00295
G1 X95.35 Y32.76 E18.00771
G1 X95.906 Y32.46 E18.01246
G1 X96.495 Y32.232 E18.01722
G1 X97.109 Y32.08 E18.02198
G1 X98 Y32 E18.02871
G1 X112 Y32 E18.13405
G1 X112.631 Y32.04 E18.1388
G1 X113.252 Y32.159 E18.14356
G1 X113.852 Y32.356 E18.14831
G1 X114.424 Y32.627 E18.15307
G1 X114.956 Y32.967 E18.15782
G1 X115.441 Y33.373 E18.16258
G1 X115.871 Y33.836 E18.16734
G1 X116.24 Y34.35 E18.1721
G1 X116.54 Y34.906 E18.17685
G1 X116.768 Y35.495 E18.1816
G1 X116.92 Y36.109 E18.18636
G1 X117 Y37 E18.1931
G1 X117 Y173 E19.21639
G1 X116.96 Y173.631 E19.22115
G1 X116.841 Y174.252 E19.2259
G1 X116.644 Y174.852 E19.23066
G1 X116.373 Y175.424 E19.23542
G1 X116.033 Y175.956 E19.24017
G1 X115.627 Y176.441 E19.24493
G1 X115.164 Y176.871 E19.24968
G1 X114.65 Y177.24 E19.25444
G1 X114.094 Y177.54 E19.2592
G1 X113.505 Y177.768 E19.26395
G1 X112.891 Y177.92 E19.26871
G1 X112 Y178 E19.27544
G1 X98 Y178 E19.38078
G1 X97.369 Y177.96 E19.38554
G1 X96.748 Y177.841 E19.39029
G1 X96.148 Y177.644 E19.39505
G1 X95.576 Y177.373 E19.39981
G1 X95.044 Y177.033 E19.40456
G1 X94.559 Y176.627 E19.40932
G1 X94.129 Y176.164 E19.41407
G1 X93.76 Y175.65 E19.41883
G1 X93.46 Y175.094 E19.42359
G1 X93.232 Y174.505 E19.42834
G1 X93.08 Y173.891 E19.4331
G1 X93 Y173 E19.43983
G1 X93 Y37 E20.46312
G1 X93.04 Y36.369 E20.46788
G1 X93.159 Y35.748 E20.47264
G1 X93.356 Y35.148 E20.47739
G0 F3600 X93.755 Y35.227
G1 F1800 X94.026 Y34.684 E20.48196
G1 X94.365 Y34.181 E20.48652
G1 X94.767 Y33.728 E20.49108
G1 X95.225 Y33.331 E20.49564
G1 X95.732 Y32.998 E20.5002
G1 X96.278 Y32.734 E20.50476
G1 X96.854 Y32.545 E20.50933
G1 X97.45 Y32.433 E20.51389
G1 X98 Y32.4 E20.51803
G1 X112 Y32.4 E20.62337
G1 X112.605 Y32.44 E20.62794
G1 X113.199 Y32.559 E20.63249
G1 X113.773 Y32.755 E20.63706
G1 X114.316 Y33.026 E20.64162
G1 X114.819 Y33.365 E20.64619
G1 X115.272 Y33.767 E20.65075
G1 X115.669 Y34.225 E20.65531
G1 X116.002 Y34.732 E20.65987
G1 X116.266 Y35.278 E20.66443
G1 X116.455 Y35.854 E20.66899
G1 X116.567 Y36.45 E20.67356
G1 X116.6 Y37 E20.6777
G1 X116.6 Y173 E21.701
G1 X116.56 Y173.605 E21.70556
G1 X116.441 Y174.199 E21.71012
G1 X116.245 Y174.773 E21.71468
G1 X115.974 Y175.316 E21.71925
G1 X115.635 Y175.819 E21.72381
G1 X115.233 Y176.272 E21.72837
G1 X114.775 Y176.669 E21.73293
G1 X114.268 Y177.002 E21.73749
G1 X113.722 Y177.266 E21.74206
G1 X113.146 Y177.455 E21.74662
G1 X112.55 Y177.567 E21.75118
G1 X112 Y177.6 E21.75533
G1 X98 Y177.6 E21.86067
G1 X97.395 Y177.56 E21.86523
G1 X96.801 Y177.441 E21.86979
G1 X96.227 Y177.245 E21.87435
