;FLAVOR:Marlin
;TIME:15427
;Filament used: 4.17796m
;Layer height: 0.06
;MINX:99.8
;MINY:38.8
;MINZ:0.3
;MAXX:120.2
;MAXY:181.2
;MAXZ:17.46
;Generated with Cura_SteamEngine 4.6.1
M140 S60
M105
M190 S60
M104 S200
M105
M109 S200
M82 ;absolute extrusion mode
G28 ;Home
G1 Z15.0 F6000 ;Move the platform down 15mm
;Prime the extruder
G92 E0
G1 F200 E3
G92 E0
G92 E0
G92 E0
G1 F1500 E-1
;LAYER_COUNT:287
;LAYER:0
M107
G0 F3600 X117.54 Y38.857 Z0.3
;TYPE:SKIRT
G1 F1500 E0
G1 F1800 X118.03 Y38.983 E0.02524
G1 X118.494 Y39.185 E0.05049
G1 X118.92 Y39.457 E0.07571
G1 X119.298 Y39.792 E0.1009
G1 X119.618 Y40.183 E0.12611
G1 X119.873 Y40.62 E0.15135
G1 X120.056 Y41.091 E0.17656
G1 X120.163 Y41.585 E0.20178
G1 X120.199 Y42.24 E0.23451
G1 X120.2 Y177.304 E6.97288
G1 X120.191 Y178.031 E7.00915
G1 X120.145 Y178.534 E7.03435
G1 X120.02 Y179.024 E7.05958
G1 X119.819 Y179.488 E7.08481
G1 X119.548 Y179.915 E7.11004
G1 X119.213 Y180.294 E7.13527
G1 X118.823 Y180.615 E7.16047
G1 X118.387 Y180.871 E7.1857
G1 X117.916 Y181.054 E7.21091
G1 X117.422 Y181.162 E7.23614
G1 X116.76 Y181.199 E7.26922
G1 X103.666 Y181.2 E7.92248
G1 X102.968 Y181.191 E7.9573
G1 X102.464 Y181.144 E7.98256
G1 X101.974 Y181.019 E8.00779
G1 X101.51 Y180.818 E8.03301
G1 X101.084 Y180.547 E8.0582
G1 X100.705 Y180.212 E8.08344
G1 X100.384 Y179.821 E8.10868
G1 X100.129 Y179.385 E8.13388
G1 X99.945 Y178.914 E8.15911
G1 X99.838 Y178.42 E8.18432
G1 X99.801 Y177.744 E8.2181
G1 X99.8 Y42.631 E14.95891
G1 X99.809 Y41.966 E14.99209
G1 X99.856 Y41.462 E15.01735
G1 X99.982 Y40.973 E15.04254
G1 X100.183 Y40.509 E15.06777
G1 X100.454 Y40.082 E15.093
G1 X100.789 Y39.704 E15.1182
G1 X101.18 Y39.383 E15.14344
G1 X101.617 Y39.128 E15.16868
G1 X102.088 Y38.944 E15.19391
G1 X102.582 Y38.838 E15.21911
G1 X103.24 Y38.801 E15.25199
G1 X116.339 Y38.8 E15.90551
G1 X117.037 Y38.81 E15.94033
G1 X117.54 Y38.857 E15.96554
G1 F1500 E14.96554
;MESH:Mid-Conduit-Long.obj
G0 F3600 X116.386 Y41.335
G0 X116.386 Y42.614
G0 X103.67 Y177.33
G0 X103.6 Y177.4
;TYPE:WALL-INNER
G1 F1500 E15.96554
G1 F1800 X103.6 Y42.6 E22.69074
G1 X116.4 Y42.6 E23.32933
G1 X116.4 Y177.4 E30.05453
G1 X103.6 Y177.4 E30.69313
G0 F3600 X103.2 Y177.8
;TYPE:WALL-OUTER
G1 F1800 X103.2 Y42.2 E37.45824
G1 X116.8 Y42.2 E38.13674
G1 X116.8 Y177.8 E44.90185
G1 X103.2 Y177.8 E45.58036
G0 F3600 X103.2 Y177.6
G0 X103.99 Y177.01
;TYPE:SKIN
G1 F1800 X103.99 Y42.99 E52.26665
G1 X116.01 Y42.99 E52.86633
G1 X116.01 Y177.01 E59.55261
G1 X103.99 Y177.01 E60.15229
G0 F3600 X104.421 Y176.829
G1 F1800 X104.169 Y176.577 E60.17007
G0 F3600 X104.169 Y176.011
G1 F1800 X104.986 Y176.829 E60.22775
G0 F3600 X105.552 Y176.829
G1 F1800 X104.169 Y175.445 E60.32536
G0 F3600 X104.169 Y174.88
G1 F1800 X106.118 Y176.829 E60.46288
G0 F3600 X106.684 Y176.829
G1 F1800 X104.169 Y174.314 E60.64032
G0 F3600 X104.169 Y173.748
G1 F1800 X107.249 Y176.829 E60.85767
G0 F3600 X107.815 Y176.829
G1 F1800 X104.169 Y173.183 E61.11491
G0 F3600 X104.169 Y172.617
G1 F1800 X108.381 Y176.829 E61.41209
G0 F3600 X108.946 Y176.829
G1 F1800 X104.169 Y172.051 E61.74917
G0 F3600 X104.169 Y171.486
G1 F1800 X109.512 Y176.829 E62.12615
G0 F3600 X110.078 Y176.829
G1 F1800 X104.169 Y170.92 E62.54306
G0 F3600 X104.169 Y170.354
G1 F1800 X110.643 Y176.829 E62.99987
G0 F3600 X111.209 Y176.829
G1 F1800 X104.169 Y169.789 E63.49658
G0 F3600 X104.169 Y169.223
G1 F1800 X111.775 Y176.829 E64.03323
G0 F3600 X112.34 Y176.829
G1 F1800 X104.169 Y168.657 E64.60977
G0 F3600 X104.169 Y168.092
G1 F1800 X112.906 Y176.829 E65.22621
G0 F3600 X113.472 Y176.829
G1 F1800 X104.169 Y167.526 E65.88259
G0 F3600 X104.169 Y166.96
G1 F1800 X114.037 Y176.829 E66.57887
G0 F3600 X114.603 Y176.829
G1 F1800 X104.169 Y166.394 E67.31508
G0 F3600 X104.169 Y165.829
G1 F1800 X115.169 Y176.829 E68.09119
G0 F3600 X115.734 Y176.829
G1 F1800 X104.169 Y165.263 E68.90719
G0 F3600 X104.169 Y164.697
G1 F1800 X115.829 Y176.358 E69.72991
G0 F3600 X115.829 Y175.792
G1 F1800 X104.169 Y164.132 E70.55258
G0 F3600 X104.169 Y163.566
G1 F1800 X115.829 Y175.226 E71.37526
G0 F3600 X115.829 Y174.661
G1 F1800 X104.169 Y163 E72.19797
G0 F3600 X104.169 Y162.435
G1 F1800 X115.829 Y174.095 E73.02064
G0 F3600 X115.829 Y173.529
G1 F1800 X104.169 Y161.869 E73.84332
G0 F3600 X104.169 Y161.303
G1 F1800 X115.829 Y172.963 E74.666
G0 F3600 X115.829 Y172.398
G1 F1800 X104.169 Y160.738 E75.48867
G0 F3600 X104.169 Y160.172
G1 F1800 X115.829 Y171.832 E76.31135
G0 F3600 X115.829 Y171.266
G1 F1800 X104.169 Y159.606 E77.13402
G0 F3600 X104.169 Y159.041
G1 F1800 X115.829 Y170.701 E77.9567
G0 F3600 X115.829 Y170.135
G1 F1800 X104.169 Y158.475 E78.77938
G0 F3600 X104.169 Y157.909
G1 F1800 X115.829 Y169.569 E79.60205
G0 F3600 X115.829 Y169.004
G1 F1800 X104.169 Y157.343 E80.42476
G0 F3600 X104.169 Y156.778
G1 F1800 X115.829 Y168.438 E81.24744
G0 F3600 X115.829 Y167.872
G1 F1800 X104.169 Y156.212 E82.07012
G0 F3600 X104.169 Y155.646
G1 F1800 X115.829 Y167.307 E82.89283
G0 F3600 X115.829 Y166.741
G1 F1800 X104.169 Y155.081 E83.7155
G0 F3600 X104.169 Y154.515
G1 F1800 X115.829 Y166.175 E84.53818
G0 F3600 X115.829 Y165.61
G1 F1800 X104.169 Y153.949 E85.36089
G0 F3600 X104.169 Y153.384
G1 F1800 X115.829 Y165.044 E86.18357
G0 F3600 X115.829 Y164.478
G1 F1800 X104.169 Y152.818 E87.00624
G0 F3600 X104.169 Y152.252
G1 F1800 X115.829 Y163.913 E87.82895
G0 F3600 X115.829 Y163.347
G1 F1800 X104.169 Y151.687 E88.65163
G0 F3600 X104.169 Y151.121
G1 F1800 X115.829 Y162.781 E89.47431
G0 F3600 X115.829 Y162.215
G1 F1800 X104.169 Y150.555 E90.29698
G0 F3600 X104.169 Y149.99
G1 F1800 X115.829 Y161.65 E91.11966
G0 F3600 X115.829 Y161.084
G1 F1800 X104.169 Y149.424 E91.94233
G0 F3600 X104.169 Y148.858
G1 F1800 X115.829 Y160.518 E92.76501
G0 F3600 X115.829 Y159.953
G1 F1800 X104.169 Y148.293 E93.58769
G0 F3600 X104.169 Y147.727
G1 F1800 X115.829 Y159.387 E94.41036
G0 F3600 X115.829 Y158.821
G1 F1800 X104.169 Y147.161 E95.23304
G0 F3600 X104.169 Y146.595
G1 F1800 X115.829 Y158.256 E96.05575
G0 F3600 X115.829 Y157.69
G1 F1800 X104.169 Y146.03 E96.87842
G0 F3600 X104.169 Y145.464
G1 F1800 X115.829 Y157.124 E97.7011
G0 F3600 X115.829 Y156.559
G1 F1800 X104.169 Y144.898 E98.52381
G0 F3600 X104.169 Y144.333
G1 F1800 X115.829 Y155.993 E99.34649
G0 F3600 X115.829 Y155.427
G1 F1800 X104.169 Y143.767 E100.16916
G0 F3600 X104.169 Y143.201
G1 F1800 X115.829 Y154.862 E100.99187
G0 F3600 X115.829 Y154.296
G1 F1800 X104.169 Y142.636 E101.81455
G0 F3600 X104.169 Y142.07
G1 F1800 X115.829 Y153.73 E102.63723
G0 F3600 X115.829 Y153.164
G1 F1800 X104.169 Y141.504 E103.4599
G0 F3600 X104.169 Y140.939
G1 F1800 X115.829 Y152.599 E104.28258
G0 F3600 X115.829 Y152.033
G1 F1800 X104.169 Y140.373 E105.10525
G0 F3600 X104.169 Y139.807
G1 F1800 X115.829 Y151.467 E105.92793
G0 F3600 X115.829 Y150.902
G1 F1800 X104.169 Y139.242 E106.75061
G0 F3600 X104.169 Y138.676
G1 F1800 X115.829 Y150.336 E107.57328
G0 F3600 X115.829 Y149.77
G1 F1800 X104.169 Y138.11 E108.39596
G0 F3600 X104.169 Y137.544
G1 F1800 X115.829 Y149.205 E109.21867
G0 F3600 X115.829 Y148.639
G1 F1800 X104.169 Y136.979 E110.04135
G0 F3600 X104.169 Y136.413
G1 F1800 X115.829 Y148.073 E110.86402
G0 F3600 X115.829 Y147.508
G1 F1800 X104.169 Y135.847 E111.68673
G0 F3600 X104.169 Y135.282
G1 F1800 X115.829 Y146.942 E112.50941
G0 F3600 X115.829 Y146.376
G1 F1800 X104.169 Y134.716 E113.33208
G0 F3600 X104.169 Y134.15
G1 F1800 X115.829 Y145.811 E114.1548
G0 F3600 X115.829 Y145.245
G1 F1800 X104.169 Y133.585 E114.97747
G0 F3600 X104.169 Y133.019
G1 F1800 X115.829 Y144.679 E115.80015
G0 F3600 X115.829 Y144.114
G1 F1800 X104.169 Y132.453 E116.62286
G0 F3600 X104.169 Y131.888
G1 F1800 X115.829 Y143.548 E117.44554
G0 F3600 X115.829 Y142.982
G1 F1800 X104.169 Y131.322 E118.26821
G0 F3600 X104.169 Y130.756
G1 F1800 X115.829 Y142.416 E119.09089
G0 F3600 X115.829 Y141.851
G1 F1800 X104.169 Y130.191 E119.91356
G0 F3600 X104.169 Y129.625
G1 F1800 X115.829 Y141.285 E120.73624
G0 F3600 X115.829 Y140.719
G1 F1800 X104.169 Y129.059 E121.55892
G0 F3600 X104.169 Y128.494
G1 F1800 X115.829 Y140.154 E122.38159
G0 F3600 X115.829 Y139.588
G1 F1800 X104.169 Y127.928 E123.20427
G0 F3600 X104.169 Y127.362
G1 F1800 X115.829 Y139.022 E124.02694
G0 F3600 X115.829 Y138.457
G1 F1800 X104.169 Y126.796 E124.84965
G0 F3600 X104.169 Y126.231
G1 F1800 X115.829 Y137.891 E125.67233
G0 F3600 X115.829 Y137.325
G1 F1800 X104.169 Y125.665 E126.49501
G0 F3600 X104.169 Y125.099
G1 F1800 X115.829 Y136.76 E127.31772
G0 F3600 X115.829 Y136.194
G1 F1800 X104.169 Y124.534 E128.14039
G0 F3600 X104.169 Y123.968
G1 F1800 X115.829 Y135.628 E128.96307
G0 F3600 X115.829 Y135.063
G1 F1800 X104.169 Y123.402 E129.78578
G0 F3600 X104.169 Y122.837
G1 F1800 X115.829 Y134.497 E130.60846
G0 F3600 X115.829 Y133.931
G1 F1800 X104.169 Y122.271 E131.43113
G0 F3600 X104.169 Y121.705
G1 F1800 X115.829 Y133.365 E132.25381
G0 F3600 X115.829 Y132.8
G1 F1800 X104.169 Y121.14 E133.07648
G0 F3600 X104.169 Y120.574
G1 F1800 X115.829 Y132.234 E133.89916
G0 F3600 X115.829 Y131.668
G1 F1800 X104.169 Y120.008 E134.72184
G0 F3600 X104.169 Y119.443
G1 F1800 X115.829 Y131.103 E135.54451
G0 F3600 X115.829 Y130.537
G1 F1800 X104.169 Y118.877 E136.36719
G0 F3600 X104.169 Y118.311
G1 F1800 X115.829 Y129.971 E137.18986
G0 F3600 X115.829 Y129.406
G1 F1800 X104.169 Y117.746 E138.01254
G0 F3600 X104.169 Y117.18
G1 F1800 X115.829 Y128.84 E138.83522
G0 F3600 X115.829 Y128.274
G1 F1800 X104.169 Y116.614 E139.65789
G0 F3600 X104.169 Y116.048
G1 F1800 X115.829 Y127.709 E140.4806
G0 F3600 X115.829 Y127.143
G1 F1800 X104.169 Y115.483 E141.30328
G0 F3600 X104.169 Y114.917
G1 F1800 X115.829 Y126.577 E142.12596
G0 F3600 X115.829 Y126.012
G1 F1800 X104.169 Y114.351 E142.94867
G0 F3600 X104.169 Y113.786
G1 F1800 X115.829 Y125.446 E143.77134
G0 F3600 X115.829 Y124.88
G1 F1800 X104.169 Y113.22 E144.59402
G0 F3600 X104.169 Y112.654
G1 F1800 X115.829 Y124.315 E145.41673
G0 F3600 X115.829 Y123.749
G1 F1800 X104.169 Y112.089 E146.23941
G0 F3600 X104.169 Y111.523
G1 F1800 X115.829 Y123.183 E147.06208
G0 F3600 X115.829 Y122.617
G1 F1800 X104.169 Y110.957 E147.88476
G0 F3600 X104.169 Y110.392
G1 F1800 X115.829 Y122.052 E148.70743
G0 F3600 X115.829 Y121.486
G1 F1800 X104.169 Y109.826 E149.53011
G0 F3600 X104.169 Y109.26
G1 F1800 X115.829 Y120.92 E150.35279
G0 F3600 X115.829 Y120.355
G1 F1800 X104.169 Y108.695 E151.17546
G0 F3600 X104.169 Y108.129
G1 F1800 X115.829 Y119.789 E151.99814
G0 F3600 X115.829 Y119.223
G1 F1800 X104.169 Y107.563 E152.82081
G0 F3600 X104.169 Y106.997
G1 F1800 X115.829 Y118.658 E153.64353
G0 F3600 X115.829 Y118.092
G1 F1800 X104.169 Y106.432 E154.4662
G0 F3600 X104.169 Y105.866
G1 F1800 X115.829 Y117.526 E155.28888
G0 F3600 X115.829 Y116.961
G1 F1800 X104.169 Y105.3 E156.11159
G0 F3600 X104.169 Y104.735
G1 F1800 X115.829 Y116.395 E156.93426
G0 F3600 X115.829 Y115.829
G1 F1800 X104.169 Y104.169 E157.75694
G0 F3600 X104.169 Y103.603
G1 F1800 X115.829 Y115.264 E158.57965
G0 F3600 X115.829 Y114.698
G1 F1800 X104.169 Y103.038 E159.40233
G0 F3600 X104.169 Y102.472
G1 F1800 X115.829 Y114.132 E160.225
G0 F3600 X115.829 Y113.567
G1 F1800 X104.169 Y101.906 E161.04771
G0 F3600 X104.169 Y101.341
G1 F1800 X115.829 Y113.001 E161.87039
G0 F3600 X115.829 Y112.435
G1 F1800 X104.169 Y100.775 E162.69307
G0 F3600 X104.169 Y100.209
G1 F1800 X115.829 Y111.869 E163.51574
G0 F3600 X115.829 Y111.304
G1 F1800 X104.169 Y99.644 E164.33842
G0 F3600 X104.169 Y99.078
G1 F1800 X115.829 Y110.738 E165.16109
G0 F3600 X115.829 Y110.172
G1 F1800 X104.169 Y98.512 E165.98377
G0 F3600 X104.169 Y97.947
G1 F1800 X115.829 Y109.607 E166.80645
G0 F3600 X115.829 Y109.041
G1 F1800 X104.169 Y97.381 E167.62912
G0 F3600 X104.169 Y96.815
G1 F1800 X115.829 Y108.475 E168.4518
G0 F3600 X115.829 Y107.91
G1 F1800 X104.169 Y96.249 E169.27451
G0 F3600 X104.169 Y95.684
G1 F1800 X115.829 Y107.344 E170.09719
G0 F3600 X115.829 Y106.778
G1 F1800 X104.169 Y95.118 E170.91986
G0 F3600 X104.169 Y94.552
G1 F1800 X115.829 Y106.213 E171.74257
G0 F3600 X115.829 Y105.647
G1 F1800 X104.169 Y93.987 E172.56525
G0 F3600 X104.169 Y93.421
G1 F1800 X115.829 Y105.081 E173.38793
G0 F3600 X115.829 Y104.516
G1 F1800 X104.169 Y92.855 E174.21064
G0 F3600 X104.169 Y92.29
G1 F1800 X115.829 Y103.95 E175.03331
G0 F3600 X115.829 Y103.384
G1 F1800 X104.169 Y91.724 E175.85599
G0 F3600 X104.169 Y91.158
G1 F1800 X115.829 Y102.818 E176.67866
G0 F3600 X115.829 Y102.253
G1 F1800 X104.169 Y90.593 E177.50134
G0 F3600 X104.169 Y90.027
G1 F1800 X115.829 Y101.687 E178.32402
G0 F3600 X115.829 Y101.121
G1 F1800 X104.169 Y89.461 E179.14669
G0 F3600 X104.169 Y88.896
G1 F1800 X115.829 Y100.556 E179.96937
G0 F3600 X115.829 Y99.99
G1 F1800 X104.169 Y88.33 E180.79204
G0 F3600 X104.169 Y87.764
G1 F1800 X115.829 Y99.424 E181.61472
G0 F3600 X115.829 Y98.859
G1 F1800 X104.169 Y87.198 E182.43743
G0 F3600 X104.169 Y86.633
G1 F1800 X115.829 Y98.293 E183.26011
G0 F3600 X115.829 Y97.727
G1 F1800 X104.169 Y86.067 E184.08278
G0 F3600 X104.169 Y85.501
G1 F1800 X115.829 Y97.162 E184.90549
G0 F3600 X115.829 Y96.596
G1 F1800 X104.169 Y84.936 E185.72817
G0 F3600 X104.169 Y84.37
G1 F1800 X115.829 Y96.03 E186.55085
G0 F3600 X115.829 Y95.465
G1 F1800 X104.169 Y83.804 E187.37356
G0 F3600 X104.169 Y83.239
G1 F1800 X115.829 Y94.899 E188.19623
G0 F3600 X115.829 Y94.333
G1 F1800 X104.169 Y82.673 E189.01891
G0 F3600 X104.169 Y82.107
G1 F1800 X115.829 Y93.768 E189.84162
G0 F3600 X115.829 Y93.202
G1 F1800 X104.169 Y81.542 E190.6643
G0 F3600 X104.169 Y80.976
G1 F1800 X115.829 Y92.636 E191.48697
G0 F3600 X115.829 Y92.07
G1 F1800 X104.169 Y80.41 E192.30965
G0 F3600 X104.169 Y79.845
G1 F1800 X115.829 Y91.505 E193.13233
G0 F3600 X115.829 Y90.939
G1 F1800 X104.169 Y79.279 E193.955
G0 F3600 X104.169 Y78.713
G1 F1800 X115.829 Y90.373 E194.77768
G0 F3600 X115.829 Y89.808
G1 F1800 X104.169 Y78.148 E195.60035
G0 F3600 X104.169 Y77.582
G1 F1800 X115.829 Y89.242 E196.42303
G0 F3600 X115.829 Y88.676
G1 F1800 X104.169 Y77.016 E197.2457
G0 F3600 X104.169 Y76.45
G1 F1800 X115.829 Y88.111 E198.06842
G0 F3600 X115.829 Y87.545
G1 F1800 X104.169 Y75.885 E198.89109
G0 F3600 X104.169 Y75.319
G1 F1800 X115.829 Y86.979 E199.71377
G0 F3600 X115.829 Y86.414
G1 F1800 X104.169 Y74.753 E200.53648
G0 F3600 X104.169 Y74.188
G1 F1800 X115.829 Y85.848 E201.35916
G0 F3600 X115.829 Y85.282
G1 F1800 X104.169 Y73.622 E202.18183
G0 F3600 X104.169 Y73.056
G1 F1800 X115.829 Y84.717 E203.00454
G0 F3600 X115.829 Y84.151
G1 F1800 X104.169 Y72.491 E203.82722
G0 F3600 X104.169 Y71.925
G1 F1800 X115.829 Y83.585 E204.64989
G0 F3600 X115.829 Y83.019
G1 F1800 X104.169 Y71.359 E205.47257
G0 F3600 X104.169 Y70.794
G1 F1800 X115.829 Y82.454 E206.29525
G0 F3600 X115.829 Y81.888
G1 F1800 X104.169 Y70.228 E207.11792
G0 F3600 X104.169 Y69.662
G1 F1800 X115.829 Y81.322 E207.9406
G0 F3600 X115.829 Y80.757
G1 F1800 X104.169 Y69.097 E208.76327
G0 F3600 X104.169 Y68.531
G1 F1800 X115.829 Y80.191 E209.58595
G0 F3600 X115.829 Y79.625
G1 F1800 X104.169 Y67.965 E210.40863
G0 F3600 X104.169 Y67.4
G1 F1800 X115.829 Y79.06 E211.2313
G0 F3600 X115.829 Y78.494
G1 F1800 X104.169 Y66.834 E212.05398
G0 F3600 X104.169 Y66.268
G1 F1800 X115.829 Y77.928 E212.87665
G0 F3600 X115.829 Y77.363
G1 F1800 X104.169 Y65.702 E213.69937
G0 F3600 X104.169 Y65.137
G1 F1800 X115.829 Y76.797 E214.52204
G0 F3600 X115.829 Y76.231
G1 F1800 X104.169 Y64.571 E215.34472
G0 F3600 X104.169 Y64.005
G1 F1800 X115.829 Y75.666 E216.16743
G0 F3600 X115.829 Y75.1
G1 F1800 X104.169 Y63.44 E216.9901
G0 F3600 X104.169 Y62.874
G1 F1800 X115.829 Y74.534 E217.81278
G0 F3600 X115.829 Y73.969
G1 F1800 X104.169 Y62.308 E218.63549
G0 F3600 X104.169 Y61.743
G1 F1800 X115.829 Y73.403 E219.45817
G0 F3600 X115.829 Y72.837
G1 F1800 X104.169 Y61.177 E220.28084
G0 F3600 X104.169 Y60.611
G1 F1800 X115.829 Y72.271 E221.10352
G0 F3600 X115.829 Y71.706
G1 F1800 X104.169 Y60.046 E221.9262
G0 F3600 X104.169 Y59.48
G1 F1800 X115.829 Y71.14 E222.74887
G0 F3600 X115.829 Y70.574
G1 F1800 X104.169 Y58.914 E223.57155
G0 F3600 X104.169 Y58.349
G1 F1800 X115.829 Y70.009 E224.39422
G0 F3600 X115.829 Y69.443
G1 F1800 X104.169 Y57.783 E225.2169
G0 F3600 X104.169 Y57.217
G1 F1800 X115.829 Y68.877 E226.03958
