;FLAVOR:Marlin
;TIME:3449
;Filament used: 0.720406m
;Layer height: 0.1
;Generated with Cura_SteamEngine 3.6.0
M140 S60
M105
M190 S60
M104 S200
M105
M109 S200
M82 ;absolute extrusion mode
G28 ;Home
G1 Z15.0 F6000 ;Move the platform down 15mm
;Prime the extruder
G92 E0
G1 F200 E3
G92 E0
G92 E0
G1 F1500 E-6.5
;LAYER_COUNT:219
;LAYER:0
M107
G0 F3600 X84.623 Y89.349 Z0.3
;TYPE:SKIRT
G1 F1500 E0
G1 F1800 X85.222 Y88.834 E0.01486
G1 X85.87 Y88.383 E0.02971
G1 X86.561 Y87.999 E0.04458
G1 X87.286 Y87.687 E0.05943
G1 X88.039 Y87.45 E0.07428
G1 X88.813 Y87.291 E0.08914
G1 X89.598 Y87.21 E0.10398
G1 X90 Y87.2 E0.11155
G1 X104.197 Y87.2 E0.3786
G1 X104.986 Y87.24 E0.39346
G1 X105.766 Y87.359 E0.40831
G1 X106.531 Y87.557 E0.42317
G1 X107.271 Y87.831 E0.43801
G1 X107.98 Y88.179 E0.45287
G1 X108.651 Y88.597 E0.46774
G1 X108.659 Y88.603 E0.46793
G1 X109.272 Y88.83 E0.48022
G1 X109.981 Y89.178 E0.49508
G1 X110.103 Y89.254 E0.49778
G1 X110.563 Y88.998 E0.50769
G1 X111.288 Y88.686 E0.52253
G1 X111.559 Y88.601 E0.52788
G1 X111.872 Y88.383 E0.53505
G1 X112.563 Y87.999 E0.54992
G1 X113.288 Y87.687 E0.56477
G1 X114.041 Y87.45 E0.57962
G1 X114.815 Y87.291 E0.59448
G1 X115.6 Y87.21 E0.60933
G1 X116.002 Y87.2 E0.61689
G1 X120 Y87.2 E0.69209
G1 X120.789 Y87.24 E0.70696
G1 X121.569 Y87.359 E0.7218
G1 X122.334 Y87.557 E0.73666
G1 X123.074 Y87.831 E0.75151
G1 X123.783 Y88.179 E0.76636
G1 X124.454 Y88.597 E0.78123
G1 X125.078 Y89.08 E0.79608
G1 X125.651 Y89.623 E0.81093
G1 X126.166 Y90.222 E0.82578
G1 X126.617 Y90.87 E0.84064
G1 X127.001 Y91.561 E0.85551
G1 X127.313 Y92.286 E0.87035
G1 X127.55 Y93.039 E0.8852
G1 X127.709 Y93.813 E0.90007
G1 X127.79 Y94.598 E0.91491
G1 X127.8 Y95 E0.92247
G1 X127.8 Y115 E1.29869
G1 X127.76 Y115.789 E1.31355
G1 X127.641 Y116.569 E1.32839
G1 X127.443 Y117.334 E1.34325
G1 X127.169 Y118.074 E1.3581
G1 X126.821 Y118.783 E1.37295
G1 X126.403 Y119.454 E1.38782
G1 X125.92 Y120.078 E1.40267
G1 X125.377 Y120.651 E1.41752
G1 X124.778 Y121.166 E1.43237
G1 X124.13 Y121.617 E1.44723
G1 X123.439 Y122.001 E1.4621
G1 X122.714 Y122.313 E1.47694
G1 X121.961 Y122.55 E1.49179
G1 X121.187 Y122.709 E1.50666
G1 X120.402 Y122.79 E1.5215
G1 X120 Y122.8 E1.52906
G1 X116.003 Y122.8 E1.60425
G1 X115.214 Y122.76 E1.61911
G1 X115.004 Y122.728 E1.62311
G1 X114.402 Y122.79 E1.63449
G1 X114 Y122.8 E1.64205
G1 X106 Y122.8 E1.79254
G1 X105.211 Y122.76 E1.8074
G1 X105.082 Y122.74 E1.80986
G1 X104.6 Y122.79 E1.81897
G1 X104.198 Y122.8 E1.82653
G1 X90 Y122.8 E2.09361
G1 X89.211 Y122.76 E2.10847
G1 X88.431 Y122.641 E2.12331
G1 X87.666 Y122.443 E2.13817
G1 X86.926 Y122.169 E2.15302
G1 X86.217 Y121.821 E2.16787
G1 X85.546 Y121.403 E2.18274
G1 X84.922 Y120.92 E2.19759
G1 X84.349 Y120.377 E2.21244
G1 X83.834 Y119.778 E2.2273
G1 X83.383 Y119.13 E2.24215
G1 X82.999 Y118.439 E2.25702
G1 X82.687 Y117.714 E2.27186
G1 X82.45 Y116.961 E2.28671
G1 X82.291 Y116.187 E2.30158
G1 X82.21 Y115.402 E2.31642
G1 X82.2 Y115 E2.32399
G1 X82.2 Y95 E2.7002
G1 X82.24 Y94.211 E2.71506
G1 X82.359 Y93.431 E2.7299
G1 X82.557 Y92.666 E2.74476
G1 X82.831 Y91.926 E2.75961
G1 X83.179 Y91.217 E2.77446
G1 X83.597 Y90.546 E2.78933
G1 X84.08 Y89.922 E2.80418
G1 X84.623 Y89.349 E2.81903
G0 F3600 X85.016 Y89.53
G1 F1800 X85.611 Y89.042 E2.8335
G1 X86.253 Y88.619 E2.84796
G1 X86.936 Y88.264 E2.86244
G1 X87.651 Y87.983 E2.8769
G1 X88.393 Y87.777 E2.89138
G1 X89.151 Y87.649 E2.90584
G1 X90 Y87.6 E2.92184
G1 X104.197 Y87.6 E3.18889
G1 X104.965 Y87.64 E3.20336
G1 X105.725 Y87.759 E3.21783
G1 X106.468 Y87.957 E3.23229
G1 X107.187 Y88.231 E3.24676
G1 X107.873 Y88.578 E3.26123
G1 X108.455 Y88.952 E3.27424
G1 X108.469 Y88.956 E3.27451
G1 X109.188 Y89.23 E3.28899
G1 X109.874 Y89.577 E3.30345
G1 X110.098 Y89.721 E3.30846
G1 X110.255 Y89.618 E3.31199
G1 X110.938 Y89.263 E3.32647
G1 X111.653 Y88.982 E3.34092
G1 X111.741 Y88.957 E3.34264
G1 X112.255 Y88.619 E3.35421
G1 X112.938 Y88.264 E3.36869
G1 X113.653 Y87.983 E3.38314
G1 X114.395 Y87.777 E3.39763
G1 X115.153 Y87.649 E3.41209
G1 X116.002 Y87.6 E3.42808
G1 X120 Y87.6 E3.50329
G1 X120.768 Y87.64 E3.51776
G1 X121.528 Y87.759 E3.53223
G1 X122.271 Y87.957 E3.54669
G1 X122.99 Y88.231 E3.56116
G1 X123.676 Y88.578 E3.57562
G1 X124.323 Y88.994 E3.59009
G1 X124.923 Y89.475 E3.60456
G1 X125.47 Y90.016 E3.61903
G1 X125.958 Y90.611 E3.63351
G1 X126.381 Y91.253 E3.64797
G1 X126.736 Y91.936 E3.66245
G1 X127.017 Y92.651 E3.6769
G1 X127.223 Y93.393 E3.69138
G1 X127.351 Y94.151 E3.70584
G1 X127.4 Y95 E3.72184
G1 X127.4 Y115 E4.09805
G1 X127.36 Y115.768 E4.11252
G1 X127.241 Y116.528 E4.12699
G1 X127.043 Y117.271 E4.14145
G1 X126.769 Y117.99 E4.15592
G1 X126.422 Y118.676 E4.17039
G1 X126.006 Y119.323 E4.18485
G1 X125.525 Y119.923 E4.19932
G1 X124.984 Y120.47 E4.21379
G1 X124.389 Y120.958 E4.22827
G1 X123.747 Y121.381 E4.24273
G1 X123.064 Y121.736 E4.25721
G1 X122.349 Y122.017 E4.27166
G1 X121.607 Y122.223 E4.28614
G1 X120.849 Y122.351 E4.30061
G1 X120 Y122.4 E4.3166
G1 X116.003 Y122.4 E4.39179
G1 X115.235 Y122.36 E4.40625
G1 X115.007 Y122.324 E4.4106
G1 X114.849 Y122.351 E4.41361
G1 X114 Y122.4 E4.42961
G1 X106 Y122.4 E4.58009
G1 X105.232 Y122.36 E4.59456
G1 X105.108 Y122.341 E4.59692
G1 X105.047 Y122.351 E4.59808
G1 X104.198 Y122.4 E4.61408
G1 X90 Y122.4 E4.88115
G1 X89.232 Y122.36 E4.89562
G1 X88.472 Y122.241 E4.91009
G1 X87.729 Y122.043 E4.92455
G1 X87.01 Y121.769 E4.93902
G1 X86.324 Y121.422 E4.95348
G1 X85.677 Y121.006 E4.96795
G1 X85.077 Y120.525 E4.98242
G1 X84.53 Y119.984 E4.99689
G1 X84.042 Y119.389 E5.01137
G1 X83.619 Y118.747 E5.02583
G1 X83.264 Y118.064 E5.04031
G1 X82.983 Y117.349 E5.05476
G1 X82.777 Y116.607 E5.06924
G1 X82.649 Y115.849 E5.0837
G1 X82.6 Y115 E5.0997
G1 X82.6 Y95 E5.47591
G1 X82.64 Y94.232 E5.49038
G1 X82.759 Y93.472 E5.50485
G1 X82.957 Y92.729 E5.51931
G1 X83.231 Y92.01 E5.53379
G1 X83.578 Y91.324 E5.54825
G1 X83.994 Y90.677 E5.56272
G1 X84.475 Y90.077 E5.57718
G1 X85.016 Y89.53 E5.59165
G0 F3600 X85.408 Y89.716
G1 F1800 X85.998 Y89.257 E5.60571
G1 X86.634 Y88.862 E5.6198
G1 X87.308 Y88.538 E5.63386
G1 X88.013 Y88.288 E5.64793
G1 X88.741 Y88.114 E5.66201
G1 X89.483 Y88.019 E5.67609
G1 X90 Y88 E5.68582
G1 X104.197 Y88 E5.95287
G1 X104.944 Y88.04 E5.96694
G1 X105.682 Y88.159 E5.981
G1 X106.404 Y88.357 E5.99509
G1 X107.1 Y88.63 E6.00915
G1 X107.763 Y88.977 E6.02323
G1 X108.281 Y89.322 E6.03493
G1 X108.405 Y89.356 E6.03735
G1 X109.101 Y89.629 E6.05142
G1 X109.764 Y89.976 E6.06549
G1 X110.095 Y90.197 E6.07298
G1 X110.636 Y89.861 E6.08496
G1 X111.31 Y89.537 E6.09902
G1 X111.917 Y89.322 E6.11114
G1 X112 Y89.257 E6.11312
G1 X112.636 Y88.862 E6.1272
G1 X113.31 Y88.538 E6.14127
G1 X114.015 Y88.288 E6.15534
G1 X114.743 Y88.114 E6.16942
G1 X115.485 Y88.019 E6.18349
G1 X116.002 Y88 E6.19322
G1 X120 Y88 E6.26843
G1 X120.747 Y88.04 E6.2825
G1 X121.485 Y88.159 E6.29656
G1 X122.207 Y88.357 E6.31064
G1 X122.903 Y88.63 E6.32471
G1 X123.566 Y88.977 E6.33878
G1 X124.189 Y89.392 E6.35287
G1 X124.763 Y89.871 E6.36693
G1 X125.284 Y90.408 E6.381
G1 X125.743 Y90.998 E6.39506
G1 X126.138 Y91.634 E6.40915
G1 X126.462 Y92.308 E6.42321
G1 X126.712 Y93.013 E6.43728
G1 X126.886 Y93.741 E6.45136
G1 X126.981 Y94.483 E6.46544
G1 X127 Y95 E6.47517
G1 X127 Y115 E6.85138
G1 X126.96 Y115.747 E6.86545
G1 X126.841 Y116.485 E6.87951
G1 X126.643 Y117.207 E6.89359
G1 X126.37 Y117.903 E6.90766
G1 X126.023 Y118.566 E6.92173
G1 X125.608 Y119.189 E6.93581
G1 X125.129 Y119.763 E6.94988
G1 X124.592 Y120.284 E6.96395
G1 X124.002 Y120.743 E6.97801
G1 X123.366 Y121.138 E6.9921
G1 X122.692 Y121.462 E7.00616
G1 X121.987 Y121.712 E7.02023
G1 X121.259 Y121.886 E7.03431
G1 X120.517 Y121.981 E7.04838
G1 X120 Y122 E7.05812
G1 X116.003 Y122 E7.1333
G1 X115.256 Y121.96 E7.14737
G1 X115.002 Y121.919 E7.15221
G1 X114.517 Y121.981 E7.16141
G1 X114 Y122 E7.17114
G1 X106 Y122 E7.32163
G1 X105.253 Y121.96 E7.3357
G1 X105.087 Y121.933 E7.33886
G1 X104.715 Y121.981 E7.34592
G1 X104.198 Y122 E7.35565
G1 X90 Y122 E7.62272
G1 X89.253 Y121.96 E7.63679
G1 X88.515 Y121.841 E7.65085
G1 X87.793 Y121.643 E7.66494
G1 X87.097 Y121.37 E7.679
G1 X86.434 Y121.023 E7.69308
G1 X85.811 Y120.608 E7.70716
G1 X85.237 Y120.129 E7.72122
G1 X84.716 Y119.592 E7.73529
G1 X84.257 Y119.002 E7.74936
G1 X83.862 Y118.366 E7.76344
G1 X83.538 Y117.692 E7.77751
G1 X83.288 Y116.987 E7.79158
G1 X83.114 Y116.259 E7.80566
G1 X83.019 Y115.517 E7.81973
G1 X83 Y115 E7.82946
G1 X83 Y95 E8.20567
G1 X83.04 Y94.253 E8.21974
G1 X83.159 Y93.515 E8.2338
G1 X83.357 Y92.793 E8.24789
G1 X83.63 Y92.097 E8.26195
G1 X83.977 Y91.434 E8.27603
G1 X84.392 Y90.811 E8.29011
G1 X84.871 Y90.237 E8.30417
G1 X85.408 Y89.716 E8.31824
G0 F3600 X85.265 Y90.402
G1 F1800 X85.799 Y89.909 E8.33192
G1 X86.384 Y89.479 E8.34557
G1 X87.013 Y89.115 E8.35924
G1 X87.678 Y88.822 E8.37291
G1 X88.371 Y88.604 E8.38658
G1 X89.083 Y88.464 E8.40023
G1 X90 Y88.4 E8.41752
G1 X104.197 Y88.4 E8.68457
G1 X104.922 Y88.44 E8.69823
G1 X105.639 Y88.559 E8.7119
G1 X106.338 Y88.757 E8.72557
G1 X107.011 Y89.03 E8.73923
G1 X107.65 Y89.375 E8.75289
G1 X108.103 Y89.689 E8.76326
G1 X108.339 Y89.756 E8.76787
G1 X109.012 Y90.029 E8.78153
G1 X109.651 Y90.374 E8.79519
G1 X110.102 Y90.687 E8.80552
G1 X110.386 Y90.478 E8.81215
G1 X111.015 Y90.114 E8.82582
G1 X111.68 Y89.821 E8.83949
G1 X112.101 Y89.689 E8.84779
G1 X112.386 Y89.479 E8.85445
G1 X113.015 Y89.115 E8.86812
G1 X113.68 Y88.822 E8.88179
G1 X114.373 Y88.604 E8.89546
G1 X115.085 Y88.464 E8.90911
G1 X116.002 Y88.4 E8.9264
G1 X120 Y88.4 E9.0016
G1 X120.725 Y88.44 E9.01526
G1 X121.442 Y88.559 E9.02893
G1 X122.141 Y88.757 E9.0426
G1 X122.814 Y89.03 E9.05626
G1 X123.453 Y89.375 E9.06992
G1 X124.05 Y89.789 E9.08358
G1 X124.598 Y90.265 E9.09724
G1 X125.091 Y90.799 E9.11091
G1 X125.521 Y91.384 E9.12457
G1 X125.885 Y92.013 E9.13824
G1 X126.178 Y92.678 E9.15191
G1 X126.396 Y93.371 E9.16557
G1 X126.536 Y94.083 E9.17922
G1 X126.6 Y95 E9.19651
G1 X126.6 Y115 E9.57272
G1 X126.56 Y115.725 E9.58638
G1 X126.441 Y116.442 E9.60005
G1 X126.243 Y117.141 E9.61372
G1 X125.97 Y117.814 E9.62738
G1 X125.625 Y118.453 E9.64104
G1 X125.211 Y119.05 E9.65471
G1 X124.735 Y119.598 E9.66836
G1 X124.201 Y120.091 E9.68203
G1 X123.616 Y120.521 E9.69569
G1 X122.987 Y120.885 E9.70936
G1 X122.322 Y121.178 E9.72303
G1 X121.629 Y121.396 E9.73669
G1 X120.917 Y121.536 E9.75034
G1 X120 Y121.6 E9.76763
G1 X116.003 Y121.6 E9.84282
G1 X115.278 Y121.56 E9.85648
G1 X115.016 Y121.517 E9.86147
G1 X114.917 Y121.536 E9.86337
G1 X114 Y121.6 E9.88066
G1 X106 Y121.6 E10.03115
G1 X105.275 Y121.56 E10.0448
G1 X105.122 Y121.535 E10.04772
G1 X105.115 Y121.536 E10.04785
G1 X104.198 Y121.6 E10.06514
G1 X90 Y121.6 E10.33222
G1 X89.275 Y121.56 E10.34587
G1 X88.558 Y121.441 E10.35955
G1 X87.859 Y121.243 E10.37321
G1 X87.186 Y120.97 E10.38687
G1 X86.547 Y120.625 E10.40053
G1 X85.95 Y120.211 E10.4142
G1 X85.402 Y119.735 E10.42785
G1 X84.909 Y119.201 E10.44152
G1 X84.479 Y118.616 E10.45518
G1 X84.115 Y117.987 E10.46885
G1 X83.822 Y117.322 E10.48252
G1 X83.604 Y116.629 E10.49619
G1 X83.464 Y115.917 E10.50984
G1 X83.4 Y115 E10.52713
G1 X83.4 Y95 E10.90334
G1 X83.44 Y94.275 E10.917
G1 X83.559 Y93.558 E10.93067
G1 X83.757 Y92.859 E10.94433
G1 X84.03 Y92.186 E10.958
G1 X84.375 Y91.547 E10.97166
G1 X84.789 Y90.95 E10.98532
G1 X85.265 Y90.402 E10.99898
G0 F3600 X85.659 Y90.573
G1 F1800 X86.189 Y90.109 E11.01223
G1 X86.768 Y89.709 E11.02546
G1 X87.389 Y89.377 E11.03871
G1 X88.043 Y89.117 E11.05195
G1 X88.723 Y88.933 E11.0652
G1 X89.419 Y88.827 E11.07844
G1 X90 Y88.8 E11.08938
G1 X104.197 Y88.8 E11.35644
G1 X104.9 Y88.84 E11.36968
G1 X105.594 Y88.959 E11.38293
G1 X106.269 Y89.157 E11.39616
G1 X106.918 Y89.429 E11.4094
G1 X107.532 Y89.774 E11.42264
G1 X107.92 Y90.053 E11.43163
G1 X108.27 Y90.156 E11.4385
G1 X108.919 Y90.428 E11.45173
G1 X109.533 Y90.773 E11.46498
G1 X110.104 Y91.184 E11.47822
G1 X110.191 Y91.108 E11.48039
G1 X110.77 Y90.708 E11.49363
G1 X111.391 Y90.376 E11.50687
G1 X112.045 Y90.116 E11.52011
G1 X112.268 Y90.056 E11.52445
G1 X112.77 Y89.709 E11.53593
G1 X113.391 Y89.377 E11.54918
G1 X114.045 Y89.117 E11.56242
G1 X114.725 Y88.933 E11.57567
G1 X115.421 Y88.827 E11.58891
G1 X116.002 Y88.8 E11.59985
G1 X120 Y88.8 E11.67506
G1 X120.703 Y88.84 E11.6883
G1 X121.397 Y88.959 E11.70155
G1 X122.072 Y89.157 E11.71478
G1 X122.721 Y89.429 E11.72802
G1 X123.335 Y89.774 E11.74127
G1 X123.906 Y90.185 E11.7545
G1 X124.427 Y90.659 E11.76775
G1 X124.891 Y91.189 E11.781
G1 X125.291 Y91.768 E11.79424
G1 X125.623 Y92.389 E11.80748
G1 X125.883 Y93.043 E11.82072
G1 X126.067 Y93.723 E11.83397
G1 X126.173 Y94.419 E11.84722
G1 X126.2 Y95 E11.85816
G1 X126.2 Y115 E12.23437
G1 X126.16 Y115.703 E12.24761
G1 X126.041 Y116.397 E12.26086
G1 X125.843 Y117.072 E12.27409
G1 X125.571 Y117.721 E12.28733
G1 X125.226 Y118.335 E12.30057
G1 X124.815 Y118.906 E12.31381
G1 X124.341 Y119.427 E12.32706
G1 X123.811 Y119.891 E12.34031
G1 X123.232 Y120.291 E12.35355
G1 X122.611 Y120.623 E12.36679
G1 X121.957 Y120.883 E12.38003
G1 X121.277 Y121.067 E12.39328
G1 X120.581 Y121.173 E12.40652
G1 X120 Y121.2 E12.41747
G1 X116.003 Y121.2 E12.49265
G1 X115.3 Y121.16 E12.5059
G1 X115.002 Y121.109 E12.51158
G1 X114.581 Y121.173 E12.51959
G1 X114 Y121.2 E12.53053
G1 X106 Y121.2 E12.68102
G1 X105.297 Y121.16 E12.69426
G1 X105.093 Y121.125 E12.69816
G1 X104.779 Y121.173 E12.70413
G1 X104.198 Y121.2 E12.71507
G1 X90 Y121.2 E12.98215
G1 X89.297 Y121.16 E12.99539
G1 X88.603 Y121.041 E13.00864
G1 X87.928 Y120.843 E13.02187
G1 X87.279 Y120.571 E13.0351
G1 X86.665 Y120.226 E13.04835
G1 X86.094 Y119.815 E13.06159
G1 X85.573 Y119.341 E13.07484
G1 X85.109 Y118.811 E13.08809
G1 X84.709 Y118.232 E13.10132
G1 X84.377 Y117.611 E13.11457
G1 X84.117 Y116.957 E13.12781
G1 X83.933 Y116.277 E13.14106
G1 X83.827 Y115.581 E13.1543
G1 X83.8 Y115 E13.16524
G1 X83.8 Y95 E13.54145
G1 X83.84 Y94.297 E13.5547
G1 X83.959 Y93.603 E13.56795
G1 X84.157 Y92.928 E13.58118
G1 X84.429 Y92.279 E13.59441
G1 X84.774 Y91.665 E13.60766
G1 X85.185 Y91.094 E13.6209
G1 X85.659 Y90.573 E13.63415
G0 F3600 X86.053 Y90.751
G1 F1800 X86.578 Y90.317 E13.64696
G1 X87.15 Y89.948 E13.65976
G1 X87.762 Y89.649 E13.67258
G1 X88.404 Y89.424 E13.68537
G1 X89.069 Y89.275 E13.69819
G1 X90 Y89.2 E13.71576
G1 X104.197 Y89.2 E13.98281
G1 X104.877 Y89.24 E13.99563
G1 X105.547 Y89.359 E14.00843
G1 X106.199 Y89.556 E14.02124
G1 X106.823 Y89.828 E14.03404
G1 X107.411 Y90.172 E14.04686
G1 X107.731 Y90.413 E14.05439
G1 X108.2 Y90.555 E14.06361
G1 X108.824 Y90.827 E14.07642
G1 X109.412 Y91.171 E14.08923
G1 X109.956 Y91.581 E14.10204
G1 X110.096 Y91.716 E14.1057
G1 X110.58 Y91.316 E14.11751
G1 X111.152 Y90.947 E14.13032
G1 X111.764 Y90.648 E14.14313
G1 X112.406 Y90.423 E14.15593
G1 X112.469 Y90.409 E14.15714
G1 X112.58 Y90.317 E14.15985
G1 X113.152 Y89.948 E14.17266
G1 X113.764 Y89.649 E14.18547
G1 X114.406 Y89.424 E14.19827
G1 X115.071 Y89.275 E14.21109
G1 X116.002 Y89.2 E14.22865
G1 X120 Y89.2 E14.30386
G1 X120.68 Y89.24 E14.31667
G1 X121.35 Y89.359 E14.32947
G1 X122.002 Y89.556 E14.34228
G1 X122.626 Y89.828 E14.35509
G1 X123.214 Y90.172 E14.3679
G1 X123.758 Y90.582 E14.38072
G1 X124.249 Y91.053 E14.39352
G1 X124.683 Y91.578 E14.40633
G1 X125.052 Y92.15 E14.41913
G1 X125.351 Y92.762 E14.43195
G1 X125.576 Y93.404 E14.44474
G1 X125.725 Y94.069 E14.45756
G1 X125.8 Y95 E14.47513
G1 X125.8 Y115 E14.85134
G1 X125.76 Y115.68 E14.86416
G1 X125.641 Y116.35 E14.87696
G1 X125.444 Y117.002 E14.88977
G1 X125.172 Y117.626 E14.90257
G1 X124.828 Y118.214 E14.91539
G1 X124.418 Y118.758 E14.9282
G1 X123.947 Y119.249 E14.941
G1 X123.422 Y119.683 E14.95381
G1 X122.85 Y120.052 E14.96662
G1 X122.238 Y120.351 E14.97943
G1 X121.596 Y120.576 E14.99223
G1 X120.931 Y120.725 E15.00504
G1 X120 Y120.8 E15.02261
G1 X116.003 Y120.8 E15.0978
G1 X115.323 Y120.76 E15.11061
G1 X115.017 Y120.706 E15.11646
G1 X114.931 Y120.725 E15.11811
G1 X114 Y120.8 E15.13568
G1 X106 Y120.8 E15.28617
G1 X105.32 Y120.76 E15.29898
G1 X105.125 Y120.725 E15.30271
G1 X104.198 Y120.8 E15.3202
G1 X90 Y120.8 E15.58727
G1 X89.32 Y120.76 E15.60009
G1 X88.65 Y120.641 E15.61289
G1 X87.998 Y120.444 E15.6257
G1 X87.374 Y120.172 E15.6385
G1 X86.786 Y119.828 E15.65132
