;FLAVOR:Marlin
;TIME:3379
;Filament used: 0.688246m
;Layer height: 0.1
;Generated with Cura_SteamEngine 3.6.0
M140 S60
M105
M190 S60
M104 S200
M105
M109 S200
M82 ;absolute extrusion mode
G28 ;Home
G1 Z15.0 F6000 ;Move the platform down 15mm
;Prime the extruder
G92 E0
G1 F200 E3
G92 E0
G92 E0
G1 F1500 E-6.5
;LAYER_COUNT:219
;LAYER:0
M107
G0 F3600 X84.623 Y89.349 Z0.3
;TYPE:SKIRT
G1 F1500 E0
G1 F1800 X85.222 Y88.834 E0.01486
G1 X85.87 Y88.383 E0.02971
G1 X86.561 Y87.999 E0.04458
G1 X87.286 Y87.687 E0.05943
G1 X88.039 Y87.45 E0.07428
G1 X88.813 Y87.291 E0.08914
G1 X89.598 Y87.21 E0.10398
G1 X90 Y87.2 E0.11155
G1 X120 Y87.2 E0.67587
G1 X120.789 Y87.24 E0.69073
G1 X121.569 Y87.359 E0.70557
G1 X122.334 Y87.557 E0.72043
G1 X123.074 Y87.831 E0.73528
G1 X123.783 Y88.179 E0.75013
G1 X124.454 Y88.597 E0.765
G1 X125.078 Y89.08 E0.77985
G1 X125.651 Y89.623 E0.7947
G1 X126.166 Y90.222 E0.80956
G1 X126.617 Y90.87 E0.82441
G1 X127.001 Y91.561 E0.83928
G1 X127.313 Y92.286 E0.85412
G1 X127.55 Y93.039 E0.86897
G1 X127.709 Y93.813 E0.88384
G1 X127.79 Y94.598 E0.89868
G1 X127.8 Y95 E0.90625
G1 X127.8 Y115 E1.28246
G1 X127.76 Y115.789 E1.29732
G1 X127.641 Y116.569 E1.31216
G1 X127.443 Y117.334 E1.32702
G1 X127.169 Y118.074 E1.34187
G1 X126.821 Y118.783 E1.35672
G1 X126.403 Y119.454 E1.37159
G1 X125.92 Y120.078 E1.38644
G1 X125.377 Y120.651 E1.40129
G1 X124.778 Y121.166 E1.41615
G1 X124.13 Y121.617 E1.431
G1 X123.439 Y122.001 E1.44587
G1 X122.714 Y122.313 E1.46071
G1 X121.961 Y122.55 E1.47556
G1 X121.187 Y122.709 E1.49043
G1 X120.402 Y122.79 E1.50527
G1 X120 Y122.8 E1.51284
G1 X90 Y122.8 E2.07715
G1 X89.211 Y122.76 E2.09201
G1 X88.431 Y122.641 E2.10685
G1 X87.666 Y122.443 E2.12172
G1 X86.926 Y122.169 E2.13656
G1 X86.217 Y121.821 E2.15142
G1 X85.546 Y121.403 E2.16629
G1 X84.922 Y120.92 E2.18113
G1 X84.349 Y120.377 E2.19598
G1 X83.834 Y119.778 E2.21084
G1 X83.383 Y119.13 E2.22569
G1 X82.999 Y118.439 E2.24056
G1 X82.687 Y117.714 E2.25541
G1 X82.45 Y116.961 E2.27026
G1 X82.291 Y116.187 E2.28512
G1 X82.21 Y115.402 E2.29997
G1 X82.2 Y115 E2.30753
G1 X82.2 Y95 E2.68374
G1 X82.24 Y94.211 E2.6986
G1 X82.359 Y93.431 E2.71344
G1 X82.557 Y92.666 E2.72831
G1 X82.831 Y91.926 E2.74315
G1 X83.179 Y91.217 E2.75801
G1 X83.597 Y90.546 E2.77288
G1 X84.08 Y89.922 E2.78772
G1 X84.623 Y89.349 E2.80257
G0 F3600 X85.016 Y89.53
G1 F1800 X85.611 Y89.042 E2.81705
G1 X86.253 Y88.619 E2.83151
G1 X86.936 Y88.264 E2.84599
G1 X87.651 Y87.983 E2.86044
G1 X88.393 Y87.777 E2.87493
G1 X89.151 Y87.649 E2.88939
G1 X90 Y87.6 E2.90538
G1 X120 Y87.6 E3.4697
G1 X120.768 Y87.64 E3.48417
G1 X121.528 Y87.759 E3.49864
G1 X122.271 Y87.957 E3.5131
G1 X122.99 Y88.231 E3.52757
G1 X123.676 Y88.578 E3.54203
G1 X124.323 Y88.994 E3.5565
G1 X124.923 Y89.475 E3.57097
G1 X125.47 Y90.016 E3.58544
G1 X125.958 Y90.611 E3.59992
G1 X126.381 Y91.253 E3.61438
G1 X126.736 Y91.936 E3.62886
G1 X127.017 Y92.651 E3.64331
G1 X127.223 Y93.393 E3.65779
G1 X127.351 Y94.151 E3.67225
G1 X127.4 Y95 E3.68825
G1 X127.4 Y115 E4.06446
G1 X127.36 Y115.768 E4.07893
G1 X127.241 Y116.528 E4.0934
G1 X127.043 Y117.271 E4.10786
G1 X126.769 Y117.99 E4.12233
G1 X126.422 Y118.676 E4.1368
G1 X126.006 Y119.323 E4.15126
G1 X125.525 Y119.923 E4.16573
G1 X124.984 Y120.47 E4.1802
G1 X124.389 Y120.958 E4.19468
G1 X123.747 Y121.381 E4.20914
G1 X123.064 Y121.736 E4.22362
G1 X122.349 Y122.017 E4.23807
G1 X121.607 Y122.223 E4.25256
G1 X120.849 Y122.351 E4.26702
G1 X120 Y122.4 E4.28301
G1 X90 Y122.4 E4.84733
G1 X89.232 Y122.36 E4.86179
G1 X88.472 Y122.241 E4.87627
G1 X87.729 Y122.043 E4.89073
G1 X87.01 Y121.769 E4.9052
G1 X86.324 Y121.422 E4.91966
G1 X85.677 Y121.006 E4.93413
G1 X85.077 Y120.525 E4.9486
G1 X84.53 Y119.984 E4.96307
G1 X84.042 Y119.389 E4.97754
G1 X83.619 Y118.747 E4.99201
G1 X83.264 Y118.064 E5.00649
G1 X82.983 Y117.349 E5.02094
G1 X82.777 Y116.607 E5.03542
G1 X82.649 Y115.849 E5.04988
G1 X82.6 Y115 E5.06588
G1 X82.6 Y95 E5.44209
G1 X82.64 Y94.232 E5.45656
G1 X82.759 Y93.472 E5.47103
G1 X82.957 Y92.729 E5.48549
G1 X83.231 Y92.01 E5.49996
G1 X83.578 Y91.324 E5.51443
G1 X83.994 Y90.677 E5.52889
G1 X84.475 Y90.077 E5.54336
G1 X85.016 Y89.53 E5.55783
G0 F3600 X85.408 Y89.716
G1 F1800 X85.998 Y89.257 E5.57189
G1 X86.634 Y88.862 E5.58598
G1 X87.308 Y88.538 E5.60004
G1 X88.013 Y88.288 E5.61411
G1 X88.741 Y88.114 E5.62819
G1 X89.483 Y88.019 E5.64226
G1 X90 Y88 E5.652
G1 X120 Y88 E6.21631
G1 X120.747 Y88.04 E6.23038
G1 X121.485 Y88.159 E6.24445
G1 X122.207 Y88.357 E6.25853
G1 X122.903 Y88.63 E6.27259
G1 X123.566 Y88.977 E6.28667
G1 X124.189 Y89.392 E6.30075
G1 X124.763 Y89.871 E6.31481
G1 X125.284 Y90.408 E6.32889
G1 X125.743 Y90.998 E6.34295
G1 X126.138 Y91.634 E6.35703
G1 X126.462 Y92.308 E6.3711
G1 X126.712 Y93.013 E6.38517
G1 X126.886 Y93.741 E6.39925
G1 X126.981 Y94.483 E6.41332
G1 X127 Y95 E6.42305
G1 X127 Y115 E6.79926
G1 X126.96 Y115.747 E6.81333
G1 X126.841 Y116.485 E6.8274
G1 X126.643 Y117.207 E6.84148
G1 X126.37 Y117.903 E6.85554
G1 X126.023 Y118.566 E6.86962
G1 X125.608 Y119.189 E6.8837
G1 X125.129 Y119.763 E6.89776
G1 X124.592 Y120.284 E6.91184
G1 X124.002 Y120.743 E6.9259
G1 X123.366 Y121.138 E6.93998
G1 X122.692 Y121.462 E6.95405
G1 X121.987 Y121.712 E6.96812
G1 X121.259 Y121.886 E6.9822
G1 X120.517 Y121.981 E6.99627
G1 X120 Y122 E7.006
G1 X90 Y122 E7.57032
G1 X89.253 Y121.96 E7.58439
G1 X88.515 Y121.841 E7.59845
G1 X87.793 Y121.643 E7.61253
G1 X87.097 Y121.37 E7.6266
G1 X86.434 Y121.023 E7.64067
G1 X85.811 Y120.608 E7.65475
G1 X85.237 Y120.129 E7.66882
G1 X84.716 Y119.592 E7.68289
G1 X84.257 Y119.002 E7.69695
G1 X83.862 Y118.366 E7.71103
G1 X83.538 Y117.692 E7.7251
G1 X83.288 Y116.987 E7.73917
G1 X83.114 Y116.259 E7.75325
G1 X83.019 Y115.517 E7.76732
G1 X83 Y115 E7.77706
G1 X83 Y95 E8.15327
G1 X83.04 Y94.253 E8.16734
G1 X83.159 Y93.515 E8.1814
G1 X83.357 Y92.793 E8.19548
G1 X83.63 Y92.097 E8.20955
G1 X83.977 Y91.434 E8.22362
G1 X84.392 Y90.811 E8.2377
G1 X84.871 Y90.237 E8.25177
G1 X85.408 Y89.716 E8.26584
G0 F3600 X85.265 Y90.402
G1 F1800 X85.799 Y89.909 E8.27951
G1 X86.384 Y89.479 E8.29317
G1 X87.013 Y89.115 E8.30684
G1 X87.678 Y88.822 E8.32051
G1 X88.371 Y88.604 E8.33417
G1 X89.083 Y88.464 E8.34782
G1 X90 Y88.4 E8.36511
G1 X120 Y88.4 E8.92943
G1 X120.725 Y88.44 E8.94309
G1 X121.442 Y88.559 E8.95676
G1 X122.141 Y88.757 E8.97043
G1 X122.814 Y89.03 E8.98409
G1 X123.453 Y89.375 E8.99775
G1 X124.05 Y89.789 E9.01141
G1 X124.598 Y90.265 E9.02507
G1 X125.091 Y90.799 E9.03874
G1 X125.521 Y91.384 E9.0524
G1 X125.885 Y92.013 E9.06607
G1 X126.178 Y92.678 E9.07974
G1 X126.396 Y93.371 E9.0934
G1 X126.536 Y94.083 E9.10705
G1 X126.6 Y95 E9.12434
G1 X126.6 Y115 E9.50055
G1 X126.56 Y115.725 E9.51421
G1 X126.441 Y116.442 E9.52788
G1 X126.243 Y117.141 E9.54155
G1 X125.97 Y117.814 E9.55521
G1 X125.625 Y118.453 E9.56887
G1 X125.211 Y119.05 E9.58254
G1 X124.735 Y119.598 E9.59619
G1 X124.201 Y120.091 E9.60986
G1 X123.616 Y120.521 E9.62352
G1 X122.987 Y120.885 E9.63719
G1 X122.322 Y121.178 E9.65086
G1 X121.629 Y121.396 E9.66452
G1 X120.917 Y121.536 E9.67817
G1 X120 Y121.6 E9.69546
G1 X90 Y121.6 E10.25978
G1 X89.275 Y121.56 E10.27344
G1 X88.558 Y121.441 E10.28711
G1 X87.859 Y121.243 E10.30078
G1 X87.186 Y120.97 E10.31444
G1 X86.547 Y120.625 E10.3281
G1 X85.95 Y120.211 E10.34176
G1 X85.402 Y119.735 E10.35542
G1 X84.909 Y119.201 E10.36909
G1 X84.479 Y118.616 E10.38275
G1 X84.115 Y117.987 E10.39642
G1 X83.822 Y117.322 E10.41009
G1 X83.604 Y116.629 E10.42375
G1 X83.464 Y115.917 E10.4374
G1 X83.4 Y115 E10.45469
G1 X83.4 Y95 E10.8309
G1 X83.44 Y94.275 E10.84456
G1 X83.559 Y93.558 E10.85823
G1 X83.757 Y92.859 E10.8719
G1 X84.03 Y92.186 E10.88556
G1 X84.375 Y91.547 E10.89922
G1 X84.789 Y90.95 E10.91289
G1 X85.265 Y90.402 E10.92654
G0 F3600 X85.659 Y90.573
G1 F1800 X86.189 Y90.109 E10.93979
G1 X86.768 Y89.709 E10.95303
G1 X87.389 Y89.377 E10.96627
G1 X88.043 Y89.117 E10.97951
G1 X88.723 Y88.933 E10.99276
G1 X89.419 Y88.827 E11.00601
G1 X90 Y88.8 E11.01695
G1 X120 Y88.8 E11.58126
G1 X120.703 Y88.84 E11.59451
G1 X121.397 Y88.959 E11.60775
G1 X122.072 Y89.157 E11.62099
G1 X122.721 Y89.429 E11.63422
G1 X123.335 Y89.774 E11.64747
G1 X123.906 Y90.185 E11.66071
G1 X124.427 Y90.659 E11.67396
G1 X124.891 Y91.189 E11.68721
G1 X125.291 Y91.768 E11.70044
G1 X125.623 Y92.389 E11.71369
G1 X125.883 Y93.043 E11.72693
G1 X126.067 Y93.723 E11.74018
G1 X126.173 Y94.419 E11.75342
G1 X126.2 Y95 E11.76436
G1 X126.2 Y115 E12.14057
G1 X126.16 Y115.703 E12.15382
G1 X126.041 Y116.397 E12.16706
G1 X125.843 Y117.072 E12.1803
G1 X125.571 Y117.721 E12.19353
G1 X125.226 Y118.335 E12.20678
G1 X124.815 Y118.906 E12.22002
G1 X124.341 Y119.427 E12.23326
G1 X123.811 Y119.891 E12.24651
G1 X123.232 Y120.291 E12.25975
G1 X122.611 Y120.623 E12.273
G1 X121.957 Y120.883 E12.28624
G1 X121.277 Y121.067 E12.29949
G1 X120.581 Y121.173 E12.31273
G1 X120 Y121.2 E12.32367
G1 X90 Y121.2 E12.88799
G1 X89.297 Y121.16 E12.90123
G1 X88.603 Y121.041 E12.91448
G1 X87.928 Y120.843 E12.92771
G1 X87.279 Y120.571 E12.94095
G1 X86.665 Y120.226 E12.9542
G1 X86.094 Y119.815 E12.96743
G1 X85.573 Y119.341 E12.98068
G1 X85.109 Y118.811 E12.99393
G1 X84.709 Y118.232 E13.00717
G1 X84.377 Y117.611 E13.02041
G1 X84.117 Y116.957 E13.03365
G1 X83.933 Y116.277 E13.0469
G1 X83.827 Y115.581 E13.06015
G1 X83.8 Y115 E13.07109
G1 X83.8 Y95 E13.4473
G1 X83.84 Y94.297 E13.46054
G1 X83.959 Y93.603 E13.47379
G1 X84.157 Y92.928 E13.48702
G1 X84.429 Y92.279 E13.50026
G1 X84.774 Y91.665 E13.51351
G1 X85.185 Y91.094 E13.52674
G1 X85.659 Y90.573 E13.53999
G0 F3600 X86.053 Y90.751
G1 F1800 X86.578 Y90.317 E13.5528
G1 X87.15 Y89.948 E13.56561
G1 X87.762 Y89.649 E13.57842
G1 X88.404 Y89.424 E13.59121
G1 X89.069 Y89.275 E13.60403
G1 X90 Y89.2 E13.6216
G1 X120 Y89.2 E14.18592
G1 X120.68 Y89.24 E14.19873
G1 X121.35 Y89.359 E14.21153
G1 X122.002 Y89.556 E14.22435
G1 X122.626 Y89.828 E14.23715
G1 X123.214 Y90.172 E14.24996
G1 X123.758 Y90.582 E14.26278
G1 X124.249 Y91.053 E14.27558
G1 X124.683 Y91.578 E14.28839
G1 X125.052 Y92.15 E14.30119
G1 X125.351 Y92.762 E14.31401
G1 X125.576 Y93.404 E14.3268
G1 X125.725 Y94.069 E14.33962
G1 X125.8 Y95 E14.35719
G1 X125.8 Y115 E14.7334
G1 X125.76 Y115.68 E14.74622
G1 X125.641 Y116.35 E14.75902
G1 X125.444 Y117.002 E14.77183
G1 X125.172 Y117.626 E14.78463
G1 X124.828 Y118.214 E14.79745
G1 X124.418 Y118.758 E14.81026
G1 X123.947 Y119.249 E14.82306
G1 X123.422 Y119.683 E14.83587
G1 X122.85 Y120.052 E14.84868
G1 X122.238 Y120.351 E14.86149
G1 X121.596 Y120.576 E14.87429
G1 X120.931 Y120.725 E14.88711
G1 X120 Y120.8 E14.90467
G1 X90 Y120.8 E15.46899
G1 X89.32 Y120.76 E15.4818
G1 X88.65 Y120.641 E15.4946
G1 X87.998 Y120.444 E15.50742
G1 X87.374 Y120.172 E15.52022
G1 X86.786 Y119.828 E15.53304
G1 X86.242 Y119.418 E15.54585
G1 X85.751 Y118.947 E15.55865
G1 X85.317 Y118.422 E15.57146
G1 X84.948 Y117.85 E15.58427
G1 X84.649 Y117.238 E15.59708
G1 X84.424 Y116.596 E15.60987
G1 X84.275 Y115.931 E15.62269
G1 X84.2 Y115 E15.64026
G1 X84.2 Y95 E16.01647
G1 X84.24 Y94.32 E16.02929
G1 X84.359 Y93.65 E16.04209
G1 X84.556 Y92.998 E16.0549
G1 X84.828 Y92.374 E16.0677
G1 X85.172 Y91.786 E16.08052
G1 X85.582 Y91.242 E16.09333
G1 X86.053 Y90.751 E16.10613
G0 F3600 X86.445 Y90.935
G1 F1800 X86.965 Y90.534 E16.11848
G1 X87.529 Y90.198 E16.13083
G1 X88.131 Y89.934 E16.1432
G1 X88.76 Y89.744 E16.15556
G1 X89.407 Y89.633 E16.1679
G1 X90 Y89.6 E16.17908
G1 X120 Y89.6 E16.74339
G1 X120.656 Y89.64 E16.75576
G1 X121.302 Y89.759 E16.76811
G1 X121.929 Y89.956 E16.78047
G1 X122.527 Y90.228 E16.79283
G1 X123.088 Y90.57 E16.80519
G1 X123.603 Y90.978 E16.81755
G1 X124.065 Y91.445 E16.82991
G1 X124.466 Y91.965 E16.84226
G1 X124.802 Y92.529 E16.85461
G1 X125.066 Y93.131 E16.86697
G1 X125.256 Y93.76 E16.87933
G1 X125.367 Y94.407 E16.89168
G1 X125.4 Y95 E16.90285
G1 X125.4 Y115 E17.27906
G1 X125.36 Y115.656 E17.29143
G1 X125.241 Y116.302 E17.30378
G1 X125.044 Y116.929 E17.31615
G1 X124.772 Y117.527 E17.3285
G1 X124.43 Y118.088 E17.34086
G1 X124.022 Y118.603 E17.35322
G1 X123.555 Y119.065 E17.36558
G1 X123.035 Y119.466 E17.37793
G1 X122.471 Y119.802 E17.39028
G1 X121.869 Y120.066 E17.40265
G1 X121.24 Y120.256 E17.41501
G1 X120.593 Y120.367 E17.42735
G1 X120 Y120.4 E17.43853
G1 X90 Y120.4 E18.00284
G1 X89.344 Y120.36 E18.0152
G1 X88.698 Y120.241 E18.02756
G1 X88.071 Y120.044 E18.03992
G1 X87.473 Y119.772 E18.05228
G1 X86.912 Y119.43 E18.06464
G1 X86.397 Y119.022 E18.077
G1 X85.935 Y118.555 E18.08936
G1 X85.534 Y118.035 E18.10171
G1 X85.198 Y117.471 E18.11406
G1 X84.934 Y116.869 E18.12642
G1 X84.744 Y116.24 E18.13878
G1 X84.633 Y115.593 E18.15113
G1 X84.6 Y115 E18.1623
G1 X84.6 Y95 E18.53851
G1 X84.64 Y94.344 E18.55088
G1 X84.759 Y93.698 E18.56323
G1 X84.956 Y93.071 E18.57559
G1 X85.228 Y92.473 E18.58795
G1 X85.57 Y91.912 E18.60031
G1 X85.978 Y91.397 E18.61267
G1 X86.445 Y90.935 E18.62503
G0 F3600 X86.373 Y91.559
G1 F1800 X86.836 Y91.129 E18.63691
G1 X87.35 Y90.76 E18.64882
G1 X87.906 Y90.46 E18.6607
G1 X88.495 Y90.232 E18.67258
G1 X89.109 Y90.08 E18.68448
G1 X90 Y90 E18.70131
G1 X120 Y90 E19.26562
G1 X120.631 Y90.04 E19.27752
G1 X121.252 Y90.159 E19.28941
G1 X121.852 Y90.356 E19.30129
G1 X122.424 Y90.627 E19.3132
G1 X122.956 Y90.967 E19.32507
G1 X123.441 Y91.373 E19.33697
G1 X123.871 Y91.836 E19.34886
G1 X124.24 Y92.35 E19.36076
G1 X124.54 Y92.906 E19.37264
G1 X124.768 Y93.495 E19.38452
G1 X124.92 Y94.109 E19.39642
G1 X125 Y95 E19.41325
G1 X125 Y115 E19.78946
G1 X124.96 Y115.631 E19.80135
G1 X124.841 Y116.252 E19.81325
G1 X124.644 Y116.852 E19.82513
G1 X124.373 Y117.424 E19.83703
G1 X124.033 Y117.956 E19.84891
G1 X123.627 Y118.441 E19.86081
G1 X123.164 Y118.871 E19.87269
G1 X122.65 Y119.24 E19.88459
G1 X122.094 Y119.54 E19.89648
G1 X121.505 Y119.768 E19.90836
G1 X120.891 Y119.92 E19.92026
G1 X120 Y120 E19.93708
G1 X90 Y120 E20.5014
G1 X89.369 Y119.96 E20.51329
G1 X88.748 Y119.841 E20.52519
G1 X88.148 Y119.644 E20.53707
G1 X87.576 Y119.373 E20.54897
G1 X87.044 Y119.033 E20.56085
G1 X86.559 Y118.627 E20.57275
G1 X86.129 Y118.164 E20.58463
G1 X85.76 Y117.65 E20.59654
G1 X85.46 Y117.094 E20.60842
G1 X85.232 Y116.505 E20.6203
G1 X85.08 Y115.891 E20.6322
G1 X85 Y115 E20.64903
G1 X85 Y95 E21.02524
G1 X85.04 Y94.369 E21.03713
G1 X85.159 Y93.748 E21.04902
G1 X85.356 Y93.148 E21.0609
G1 X85.627 Y92.576 E21.07281
G1 X85.967 Y92.044 E21.08469
G1 X86.373 Y91.559 E21.09658
G0 F3600 X86.767 Y91.728
G1 F1800 X87.225 Y91.331 E21.10799
G1 X87.732 Y90.998 E21.1194
G1 X88.278 Y90.734 E21.1308
G1 X88.854 Y90.545 E21.14221
G1 X89.45 Y90.433 E21.15361
G1 X90 Y90.4 E21.16398
G1 X120 Y90.4 E21.72829
G1 X120.605 Y90.44 E21.7397
G1 X121.199 Y90.559 E21.7511
G1 X121.773 Y90.755 E21.76251
G1 X122.316 Y91.026 E21.77392
G1 X122.819 Y91.365 E21.78533
G1 X123.272 Y91.767 E21.79672
G1 X123.669 Y92.225 E21.80812
G1 X124.002 Y92.732 E21.81953
G1 X124.266 Y93.278 E21.83094
G1 X124.455 Y93.854 E21.84235
G1 X124.567 Y94.45 E21.85375
G1 X124.6 Y95 E21.86412
G1 X124.6 Y115 E22.24033
G1 X124.56 Y115.605 E22.25173
G1 X124.441 Y116.199 E22.26313
G1 X124.245 Y116.773 E22.27454
G1 X123.974 Y117.316 E22.28595
G1 X123.635 Y117.819 E22.29736
G1 X123.233 Y118.272 E22.30876
G1 X122.775 Y118.669 E22.32016
G1 X122.268 Y119.002 E22.33157
G1 X121.722 Y119.266 E22.34298
G1 X121.146 Y119.455 E22.35438
G1 X120.55 Y119.567 E22.36579
G1 X120 Y119.6 E22.37615
G1 X90 Y119.6 E22.94047
G1 X89.395 Y119.56 E22.95187
G1 X88.801 Y119.441 E22.96327
G1 X88.227 Y119.245 E22.97468
G1 X87.684 Y118.974 E22.98609
G1 X87.181 Y118.635 E22.9975
G1 X86.728 Y118.233 E23.0089
G1 X86.331 Y117.775 E23.0203
G1 X85.998 Y117.268 E23.03171
