;FLAVOR:Marlin
;TIME:10194
;Filament used: 2.70168m
;Layer height: 0.06
;MINX:82.4
;MINY:89.4
;MINZ:0.3
;MAXX:137.6
;MAXY:130.6
;MAXZ:17.46
;Generated with Cura_SteamEngine 4.6.1
M140 S60
M105
M190 S60
M104 S215
M105
M109 S215
M82 ;absolute extrusion mode
G28 ;Home
G1 Z15.0 F6000 ;Move the platform down 15mm
;Prime the extruder
G92 E0
G1 F200 E3
G92 E0
G92 E0
G92 E0
G1 F1500 E-1
;LAYER_COUNT:287
;LAYER:0
M107
G0 F3600 X103.106 Y90.065 Z0.3
;TYPE:SKIRT
G1 F1500 E0
G1 F1800 X105.849 Y90.219 E0.13706
G1 X108.604 Y90.297 E0.27457
G1 X111.32 Y90.297 E0.41007
G1 X114.073 Y90.219 E0.54747
G1 X116.808 Y90.064 E0.68414
G1 X119.732 Y89.821 E0.83052
G1 X120.234 Y89.801 E0.85559
G1 X133.334 Y89.8 E1.50915
G1 X134.032 Y89.809 E1.54397
G1 X134.536 Y89.856 E1.56923
G1 X135.026 Y89.981 E1.59446
G1 X135.49 Y90.182 E1.61969
G1 X135.916 Y90.453 E1.64487
G1 X136.295 Y90.788 E1.67011
G1 X136.616 Y91.179 E1.69535
G1 X136.871 Y91.615 E1.72055
G1 X137.055 Y92.086 E1.74578
G1 X137.162 Y92.58 E1.77099
G1 X137.199 Y93.24 E1.80397
G1 X137.2 Y126.304 E3.45354
G1 X137.191 Y127.031 E3.48982
G1 X137.145 Y127.534 E3.51502
G1 X137.02 Y128.024 E3.54024
G1 X136.819 Y128.488 E3.56547
G1 X136.548 Y128.915 E3.5907
G1 X136.213 Y129.294 E3.61594
G1 X135.823 Y129.615 E3.64114
G1 X135.387 Y129.871 E3.66636
G1 X134.916 Y130.054 E3.69157
G1 X134.422 Y130.162 E3.7168
G1 X133.76 Y130.199 E3.74988
G1 X86.666 Y130.2 E6.09941
G1 X85.968 Y130.191 E6.13424
G1 X85.464 Y130.144 E6.15949
G1 X84.974 Y130.019 E6.18472
G1 X84.51 Y129.818 E6.20995
G1 X84.084 Y129.547 E6.23514
G1 X83.705 Y129.212 E6.26037
G1 X83.384 Y128.821 E6.28561
G1 X83.129 Y128.385 E6.31081
G1 X82.945 Y127.914 E6.33604
G1 X82.838 Y127.42 E6.36125
G1 X82.801 Y126.744 E6.39503
G1 X82.8 Y93.631 E8.04705
G1 X82.809 Y92.966 E8.08023
G1 X82.856 Y92.462 E8.10548
G1 X82.982 Y91.973 E8.13067
G1 X83.183 Y91.509 E8.1559
G1 X83.454 Y91.082 E8.18113
G1 X83.789 Y90.704 E8.20633
G1 X84.18 Y90.383 E8.23157
G1 X84.617 Y90.128 E8.25681
G1 X85.088 Y89.944 E8.28204
G1 X85.582 Y89.838 E8.30725
G1 X86.24 Y89.801 E8.34013
G1 X99.339 Y89.8 E8.99364
G1 X100.037 Y89.81 E9.02846
G1 X103.106 Y90.065 E9.1821
G0 F3600 X103.164 Y89.668
G1 F1800 X105.846 Y89.819 E9.31612
G1 X108.615 Y89.897 E9.45432
G1 X111.308 Y89.897 E9.58868
G1 X114.074 Y89.819 E9.72673
G1 X116.753 Y89.667 E9.8606
G1 X119.699 Y89.422 E10.00808
G1 X120.222 Y89.402 E10.03419
G1 X133.339 Y89.4 E10.6886
G1 X134.037 Y89.409 E10.72343
G1 X134.572 Y89.456 E10.75022
G1 X135.093 Y89.582 E10.77697
G1 X135.59 Y89.784 E10.80373
G1 X136.051 Y90.057 E10.83046
G1 X136.467 Y90.396 E10.85723
G1 X136.828 Y90.792 E10.88397
G1 X137.126 Y91.238 E10.91073
G1 X137.354 Y91.724 E10.93751
G1 X137.507 Y92.238 E10.96427
G1 X137.59 Y92.908 E10.99795
G1 X137.6 Y126.309 E12.66433
G1 X137.591 Y127.036 E12.7006
G1 X137.544 Y127.57 E12.72735
G1 X137.419 Y128.091 E12.75408
G1 X137.217 Y128.588 E12.78084
G1 X136.944 Y129.05 E12.80762
G1 X136.606 Y129.466 E12.83436
G1 X136.209 Y129.827 E12.86113
G1 X135.763 Y130.125 E12.88789
G1 X135.278 Y130.353 E12.91463
G1 X134.764 Y130.507 E12.9414
G1 X134.092 Y130.59 E12.97518
G1 X86.661 Y130.6 E15.34152
G1 X85.963 Y130.591 E15.37635
G1 X85.428 Y130.544 E15.40314
G1 X84.907 Y130.418 E15.42988
G1 X84.41 Y130.216 E15.45665
G1 X83.949 Y129.943 E15.48338
G1 X83.533 Y129.604 E15.51015
G1 X83.172 Y129.208 E15.53688
G1 X82.874 Y128.762 E15.56365
G1 X82.646 Y128.276 E15.59043
G1 X82.493 Y127.762 E15.61718
G1 X82.41 Y127.088 E15.65106
G1 X82.4 Y93.625 E17.32054
G1 X82.409 Y92.96 E17.35372
G1 X82.457 Y92.426 E17.38047
G1 X82.583 Y91.905 E17.40721
G1 X82.785 Y91.408 E17.43397
G1 X83.058 Y90.947 E17.4607
G1 X83.397 Y90.531 E17.48748
G1 X83.794 Y90.171 E17.51421
G1 X84.241 Y89.873 E17.54102
G1 X84.726 Y89.645 E17.56775
G1 X85.24 Y89.492 E17.59451
G1 X85.908 Y89.41 E17.62809
G1 X99.345 Y89.4 E18.29846
G1 X100.043 Y89.41 E18.33329
G1 X103.164 Y89.668 E18.48953
G1 F1500 E17.48953
;MESH:Top-Conduit.obj
G0 F3600 X119.335 Y93.614
G0 X120.614 Y93.614
G0 X120.67 Y113.67
G0 X120.6 Y113.6
;TYPE:WALL-INNER
G1 F1500 E18.48953
G1 F1800 X120.6 Y113.4 E18.4995
G1 X120.6 Y93.6 E19.48733
G1 X133.4 Y93.6 E20.12593
G1 X133.4 Y126.4 E21.76232
G1 X86.6 Y126.4 E24.09719
G1 X86.6 Y93.6 E25.73358
G1 X99.4 Y93.6 E26.37218
G1 X99.4 Y113.599 E27.36993
G1 X120.4 Y113.6 E28.41763
G1 X120.6 Y113.6 E28.42409
G0 F3600 X120.2 Y113.2
;TYPE:WALL-OUTER
G1 F1800 X120.2 Y113 E28.43407
G1 X120.2 Y93.2 E29.42189
G1 X133.8 Y93.2 E30.1004
G1 X133.8 Y126.8 E31.77671
G1 X86.2 Y126.8 E34.15148
G1 X86.2 Y93.2 E35.82779
G1 X99.8 Y93.2 E36.5063
G1 X99.8 Y113.199 E37.50405
G1 X120 Y113.2 E38.51184
G1 X120.2 Y113.2 E38.5183
G0 F3600 X120.2 Y113
G0 X120.7 Y113
G0 X120.99 Y113.99
;TYPE:SKIN
G1 F1800 X120.99 Y93.99 E39.5161
G1 X133.01 Y93.99 E40.11578
G1 X133.01 Y126.01 E41.71327
G1 X86.99 Y126.01 E44.00921
G1 X86.99 Y93.99 E45.6067
G1 X99.01 Y93.99 E46.20638
G1 X99.01 Y113.989 E47.20413
G1 X120.99 Y113.99 E48.30072
G0 F3600 X132.829 Y94.362
G1 F1800 X132.636 Y94.17 E48.3143
G0 F3600 X132.071 Y94.17
G1 F1800 X132.829 Y94.928 E48.36778
G0 F3600 X132.829 Y95.494
G1 F1800 X131.505 Y94.17 E48.4612
G0 F3600 X130.939 Y94.17
G1 F1800 X132.829 Y96.059 E48.59451
G0 F3600 X132.829 Y96.625
G1 F1800 X130.374 Y94.17 E48.76772
G0 F3600 X129.808 Y94.17
G1 F1800 X132.829 Y97.191 E48.98087
G0 F3600 X132.829 Y97.756
G1 F1800 X129.242 Y94.17 E49.23392
G0 F3600 X128.677 Y94.17
G1 F1800 X132.829 Y98.322 E49.52687
G0 F3600 X132.829 Y98.888
G1 F1800 X128.111 Y94.17 E49.85975
G0 F3600 X127.545 Y94.17
G1 F1800 X132.829 Y99.453 E50.23253
G0 F3600 X132.829 Y100.019
G1 F1800 X126.98 Y94.17 E50.6452
G0 F3600 X126.414 Y94.17
G1 F1800 X132.829 Y100.585 E51.09782
G0 F3600 X132.829 Y101.15
G1 F1800 X125.848 Y94.17 E51.59033
G0 F3600 X125.283 Y94.17
G1 F1800 X132.829 Y101.716 E52.12274
G0 F3600 X132.829 Y102.282
G1 F1800 X124.717 Y94.17 E52.69509
G0 F3600 X124.151 Y94.17
G1 F1800 X132.829 Y102.847 E53.30733
G0 F3600 X132.829 Y103.413
G1 F1800 X123.586 Y94.17 E53.95947
G0 F3600 X123.02 Y94.17
G1 F1800 X132.829 Y103.979 E54.65155
G0 F3600 X132.829 Y104.545
G1 F1800 X122.454 Y94.17 E55.38356
G0 F3600 X121.888 Y94.17
G1 F1800 X132.829 Y105.11 E56.15548
G0 F3600 X132.829 Y105.676
G1 F1800 X121.323 Y94.17 E56.96729
G0 F3600 X121.169 Y94.581
G1 F1800 X132.829 Y106.242 E57.79
G0 F3600 X132.829 Y106.807
G1 F1800 X121.169 Y95.147 E58.61267
G0 F3600 X121.169 Y95.713
G1 F1800 X132.829 Y107.373 E59.43535
G0 F3600 X132.829 Y107.939
G1 F1800 X121.169 Y96.278 E60.25806
G0 F3600 X121.169 Y96.844
G1 F1800 X132.829 Y108.504 E61.08074
G0 F3600 X132.829 Y109.07
G1 F1800 X121.169 Y97.41 E61.90341
G0 F3600 X121.169 Y97.976
G1 F1800 X132.829 Y109.636 E62.72609
G0 F3600 X132.829 Y110.201
G1 F1800 X121.169 Y98.541 E63.54876
G0 F3600 X121.169 Y99.107
G1 F1800 X132.829 Y110.767 E64.37144
G0 F3600 X132.829 Y111.333
G1 F1800 X121.169 Y99.673 E65.19412
G0 F3600 X121.169 Y100.238
G1 F1800 X132.829 Y111.898 E66.01679
G0 F3600 X132.829 Y112.464
G1 F1800 X121.169 Y100.804 E66.83947
G0 F3600 X121.169 Y101.37
G1 F1800 X132.829 Y113.03 E67.66214
G0 F3600 X132.829 Y113.595
G1 F1800 X121.169 Y101.935 E68.48482
G0 F3600 X121.169 Y102.501
G1 F1800 X132.829 Y114.161 E69.3075
G0 F3600 X132.829 Y114.727
G1 F1800 X121.169 Y103.067 E70.13017
G0 F3600 X121.169 Y103.632
G1 F1800 X132.829 Y115.293 E70.95288
G0 F3600 X132.829 Y115.858
G1 F1800 X121.169 Y104.198 E71.77556
G0 F3600 X121.169 Y104.764
G1 F1800 X132.829 Y116.424 E72.59823
G0 F3600 X132.829 Y116.99
G1 F1800 X121.169 Y105.329 E73.42095
G0 F3600 X121.169 Y105.895
G1 F1800 X132.829 Y117.555 E74.24362
G0 F3600 X132.829 Y118.121
G1 F1800 X121.169 Y106.461 E75.0663
G0 F3600 X121.169 Y107.026
G1 F1800 X132.829 Y118.687 E75.88901
G0 F3600 X132.829 Y119.252
G1 F1800 X121.169 Y107.592 E76.71169
G0 F3600 X121.169 Y108.158
G1 F1800 X132.829 Y119.818 E77.53436
G0 F3600 X132.829 Y120.384
G1 F1800 X121.169 Y108.724 E78.35704
G0 F3600 X121.169 Y109.289
G1 F1800 X132.829 Y120.949 E79.17971
G0 F3600 X132.829 Y121.515
G1 F1800 X121.169 Y109.855 E80.00239
G0 F3600 X121.169 Y110.421
G1 F1800 X132.829 Y122.081 E80.82507
G0 F3600 X132.829 Y122.646
G1 F1800 X121.169 Y110.986 E81.64774
G0 F3600 X121.169 Y111.552
G1 F1800 X132.829 Y123.212 E82.47042
G0 F3600 X132.829 Y123.778
G1 F1800 X121.169 Y112.118 E83.29309
G0 F3600 X121.169 Y112.683
G1 F1800 X132.829 Y124.344 E84.1158
G0 F3600 X132.829 Y124.909
G1 F1800 X121.169 Y113.249 E84.93848
G0 F3600 X121.169 Y113.815
G1 F1800 X132.829 Y125.475 E85.76116
G0 F3600 X132.617 Y125.829
G1 F1800 X120.958 Y114.17 E86.58376
G0 F3600 X120.392 Y114.17
G1 F1800 X132.052 Y125.829 E87.4064
G0 F3600 X131.486 Y125.829
G1 F1800 X119.827 Y114.17 E88.22901
G0 F3600 X119.261 Y114.17
G1 F1800 X130.92 Y125.829 E89.05161
G0 F3600 X130.355 Y125.829
G1 F1800 X118.695 Y114.17 E89.87425
G0 F3600 X118.129 Y114.17
G1 F1800 X129.789 Y125.829 E90.69689
G0 F3600 X129.223 Y125.829
G1 F1800 X117.564 Y114.17 E91.5195
G0 F3600 X116.998 Y114.17
G1 F1800 X128.658 Y125.829 E92.34214
G0 F3600 X128.092 Y125.829
G1 F1800 X116.432 Y114.17 E93.16478
G0 F3600 X115.867 Y114.17
G1 F1800 X127.526 Y125.829 E93.98739
G0 F3600 X126.961 Y125.829
G1 F1800 X115.301 Y114.17 E94.81003
G0 F3600 X114.735 Y114.17
G1 F1800 X126.395 Y125.829 E95.63267
G0 F3600 X125.829 Y125.829
G1 F1800 X114.17 Y114.17 E96.45527
G0 F3600 X113.604 Y114.17
G1 F1800 X125.263 Y125.829 E97.27788
G0 F3600 X124.698 Y125.829
G1 F1800 X113.038 Y114.17 E98.10052
G0 F3600 X112.473 Y114.17
G1 F1800 X124.132 Y125.829 E98.92313
G0 F3600 X123.566 Y125.829
G1 F1800 X111.907 Y114.17 E99.74573
G0 F3600 X111.341 Y114.17
G1 F1800 X123.001 Y125.829 E100.56837
G0 F3600 X122.435 Y125.829
G1 F1800 X110.776 Y114.17 E101.39098
G0 F3600 X110.21 Y114.17
G1 F1800 X121.869 Y125.829 E102.21358
G0 F3600 X121.304 Y125.829
G1 F1800 X109.643 Y114.169 E103.03629
G0 F3600 X109.078 Y114.169
G1 F1800 X120.738 Y125.829 E103.85897
G0 F3600 X120.172 Y125.829
G1 F1800 X108.512 Y114.169 E104.68165
G0 F3600 X107.946 Y114.169
G1 F1800 X119.607 Y125.829 E105.50436
G0 F3600 X119.041 Y125.829
G1 F1800 X107.381 Y114.169 E106.32703
G0 F3600 X106.815 Y114.169
G1 F1800 X118.475 Y125.829 E107.14971
G0 F3600 X117.91 Y125.829
G1 F1800 X106.249 Y114.169 E107.97242
G0 F3600 X105.684 Y114.169
G1 F1800 X117.344 Y125.829 E108.7951
G0 F3600 X116.778 Y125.829
G1 F1800 X105.118 Y114.169 E109.61777
G0 F3600 X104.552 Y114.169
G1 F1800 X116.212 Y125.829 E110.44045
G0 F3600 X115.647 Y125.829
G1 F1800 X103.987 Y114.169 E111.26312
G0 F3600 X103.421 Y114.169
G1 F1800 X115.081 Y125.829 E112.0858
G0 F3600 X114.515 Y125.829
G1 F1800 X102.855 Y114.169 E112.90848
G0 F3600 X102.29 Y114.169
G1 F1800 X113.95 Y125.829 E113.73115
G0 F3600 X113.384 Y125.829
G1 F1800 X101.724 Y114.169 E114.55383
G0 F3600 X101.158 Y114.169
G1 F1800 X112.818 Y125.829 E115.3765
G0 F3600 X112.253 Y125.829
G1 F1800 X100.593 Y114.169 E116.19918
G0 F3600 X100.027 Y114.169
G1 F1800 X111.687 Y125.829 E117.02186
G0 F3600 X111.121 Y125.829
G1 F1800 X99.461 Y114.169 E117.84453
G0 F3600 X98.895 Y114.169
G1 F1800 X110.556 Y125.829 E118.66724
G0 F3600 X109.989 Y125.828
G1 F1800 X87.17 Y103.009 E120.27725
G0 F3600 X87.17 Y103.574
G1 F1800 X109.424 Y125.828 E121.84739
G0 F3600 X108.858 Y125.828
G1 F1800 X87.17 Y104.14 E123.37759
G0 F3600 X87.17 Y104.706
G1 F1800 X108.292 Y125.828 E124.86786
G0 F3600 X107.727 Y125.828
G1 F1800 X87.17 Y105.271 E126.31827
G0 F3600 X87.17 Y105.837
G1 F1800 X107.161 Y125.828 E127.72874
G0 F3600 X106.595 Y125.828
G1 F1800 X87.17 Y106.403 E129.09928
G0 F3600 X87.17 Y106.968
G1 F1800 X106.029 Y125.828 E130.42992
G0 F3600 X105.464 Y125.828
G1 F1800 X87.17 Y107.534 E131.72066
G0 F3600 X87.17 Y108.1
G1 F1800 X104.898 Y125.828 E132.97147
G0 F3600 X104.332 Y125.828
G1 F1800 X87.17 Y108.666 E134.18234
G0 F3600 X87.17 Y109.231
G1 F1800 X103.767 Y125.828 E135.35335
G0 F3600 X103.201 Y125.828
G1 F1800 X87.17 Y109.797 E136.48442
G0 F3600 X87.17 Y110.363
G1 F1800 X102.635 Y125.828 E137.57556
G0 F3600 X102.07 Y125.828
G1 F1800 X87.17 Y110.928 E138.62684
G0 F3600 X87.17 Y111.494
G1 F1800 X101.504 Y125.828 E139.63818
G0 F3600 X100.938 Y125.828
G1 F1800 X87.17 Y112.06 E140.60958
G0 F3600 X87.17 Y112.625
G1 F1800 X100.373 Y125.828 E141.54113
G0 F3600 X99.807 Y125.828
G1 F1800 X87.17 Y113.191 E142.43274
G0 F3600 X87.17 Y113.757
G1 F1800 X99.241 Y125.828 E143.28441
G0 F3600 X98.676 Y125.828
G1 F1800 X87.17 Y114.322 E144.09622
G0 F3600 X87.17 Y114.888
G1 F1800 X98.11 Y125.828 E144.8681
G0 F3600 X97.544 Y125.828
G1 F1800 X87.17 Y115.454 E145.60004
G0 F3600 X87.17 Y116.019
G1 F1800 X96.978 Y125.828 E146.29208
G0 F3600 X96.413 Y125.828
G1 F1800 X87.17 Y116.585 E146.94423
G0 F3600 X87.17 Y117.151
G1 F1800 X95.847 Y125.828 E147.55643
G0 F3600 X95.281 Y125.828
G1 F1800 X87.17 Y117.717 E148.12871
G0 F3600 X87.17 Y118.282
G1 F1800 X94.716 Y125.828 E148.66112
G0 F3600 X94.15 Y125.828
G1 F1800 X87.17 Y118.848 E149.1536
G0 F3600 X87.17 Y119.414
G1 F1800 X93.584 Y125.828 E149.60614
G0 F3600 X93.019 Y125.828
G1 F1800 X87.17 Y119.979 E150.01882
G0 F3600 X87.17 Y120.545
G1 F1800 X92.453 Y125.828 E150.39156
G0 F3600 X91.887 Y125.828
G1 F1800 X87.17 Y121.111 E150.72437
G0 F3600 X87.17 Y121.676
G1 F1800 X91.322 Y125.828 E151.01732
G0 F3600 X90.756 Y125.828
G1 F1800 X87.17 Y122.242 E151.27033
G0 F3600 X87.17 Y122.808
G1 F1800 X90.19 Y125.828 E151.48341
G0 F3600 X89.625 Y125.828
G1 F1800 X87.17 Y123.373 E151.65662
G0 F3600 X87.17 Y123.939
G1 F1800 X89.059 Y125.828 E151.7899
G0 F3600 X88.493 Y125.828
G1 F1800 X87.17 Y124.505 E151.88324
G0 F3600 X87.17 Y125.07
G1 F1800 X87.928 Y125.828 E151.93673
G0 F3600 X87.362 Y125.828
G1 F1800 X87.17 Y125.636 E151.95027
G0 F3600 X98.83 Y114.103
G1 F1800 X87.17 Y102.443 E152.77295
G0 F3600 X87.17 Y101.877
G1 F1800 X98.83 Y113.538 E153.59566
G0 F3600 X98.83 Y112.972
G1 F1800 X87.17 Y101.312 E154.41834
G0 F3600 X87.17 Y100.746
G1 F1800 X98.83 Y112.406 E155.24101
G0 F3600 X98.83 Y111.84
G1 F1800 X87.17 Y100.18 E156.06369
G0 F3600 X87.17 Y99.615
G1 F1800 X98.83 Y111.275 E156.88636
G0 F3600 X98.83 Y110.709
G1 F1800 X87.17 Y99.049 E157.70904
G0 F3600 X87.17 Y98.483
G1 F1800 X98.83 Y110.143 E158.53171
G0 F3600 X98.83 Y109.578
G1 F1800 X87.17 Y97.918 E159.35439
G0 F3600 X87.17 Y97.352
G1 F1800 X98.83 Y109.012 E160.17707
G0 F3600 X98.83 Y108.446
G1 F1800 X87.17 Y96.786 E160.99974
G0 F3600 X87.17 Y96.22
G1 F1800 X98.83 Y107.881 E161.82245
G0 F3600 X98.83 Y107.315
G1 F1800 X87.17 Y95.655 E162.64513
G0 F3600 X87.17 Y95.089
G1 F1800 X98.83 Y106.749 E163.46781
G0 F3600 X98.83 Y106.184
G1 F1800 X87.17 Y94.523 E164.29052
G0 F3600 X87.381 Y94.169
G1 F1800 X98.83 Y105.618 E165.09831
G0 F3600 X98.83 Y105.052
G1 F1800 X87.947 Y94.169 E165.86616
G0 F3600 X88.512 Y94.169
G1 F1800 X98.83 Y104.487 E166.59415
G0 F3600 X98.83 Y103.921
G1 F1800 X89.078 Y94.169 E167.28221
G0 F3600 X89.644 Y94.169
G1 F1800 X98.83 Y103.355 E167.93033
G0 F3600 X98.83 Y102.789
G1 F1800 X90.209 Y94.169 E168.53855
G0 F3600 X90.775 Y94.169
G1 F1800 X98.83 Y102.224 E169.10688
G0 F3600 X98.83 Y101.658
G1 F1800 X91.341 Y94.169 E169.63527
G0 F3600 X91.906 Y94.169
G1 F1800 X98.83 Y101.092 E170.12376
G0 F3600 X98.83 Y100.527
G1 F1800 X92.472 Y94.169 E170.57235
G0 F3600 X93.038 Y94.169
G1 F1800 X98.83 Y99.961 E170.981
G0 F3600 X98.83 Y99.395
G1 F1800 X93.603 Y94.169 E171.34976
G0 F3600 X94.169 Y94.169
G1 F1800 X98.83 Y98.83 E171.67862
G0 F3600 X98.83 Y98.264
G1 F1800 X94.735 Y94.169 E171.96754
G0 F3600 X95.301 Y94.169
G1 F1800 X98.83 Y97.698 E172.21653
G0 F3600 X98.83 Y97.133
G1 F1800 X95.866 Y94.169 E172.42566
G0 F3600 X96.432 Y94.169
G1 F1800 X98.83 Y96.567 E172.59485
G0 F3600 X98.83 Y96.001
G1 F1800 X96.998 Y94.169 E172.72411
G0 F3600 X97.563 Y94.169
G1 F1800 X98.83 Y95.436 E172.8135
G0 F3600 X98.83 Y94.87
G1 F1800 X98.129 Y94.169 E172.86296
G0 F3600 X98.695 Y94.169
G1 F1800 X98.83 Y94.304 E172.87249
;MESH:NONMESH
G0 F600 X98.83 Y94.304 Z0.36
G0 F3600 X99.372 Y113.627
G0 X120.67 Y113.67
G0 X120.6 Y113.6
;TIME_ELAPSED:125.003255
;LAYER:1
M140 S60
M106 S255
;TYPE:WALL-INNER
;MESH:Top-Conduit.obj
G1 F2700 X120.6 Y113.4 E172.87448
G1 X120.6 Y93.6 E173.07205
G1 X133.4 Y93.6 E173.19977
G1 X133.4 Y126.4 E173.52705
