;FLAVOR:Marlin
;TIME:10132
;Filament used: 2.71349m
;Layer height: 0.06
;MINX:78.53
;MINY:83.329
;MINZ:0.3
;MAXX:133.73
;MAXY:124.529
;MAXZ:17.46
;Generated with Cura_SteamEngine 4.6.1
M140 S60
M105
M190 S60
M104 S215
M105
M109 S215
M82 ;absolute extrusion mode
G28 ;Home
G1 Z15.0 F6000 ;Move the platform down 15mm
;Prime the extruder
G92 E0
G1 F200 E3
G92 E0
G92 E0
G92 E0
G1 F1500 E-1
;LAYER_COUNT:287
;LAYER:0
M107
G0 F3600 X99.236 Y83.994 Z0.3
;TYPE:SKIRT
G1 F1500 E0
G1 F1800 X101.979 Y84.148 E0.13706
G1 X104.734 Y84.226 E0.27457
G1 X107.45 Y84.226 E0.41007
G1 X110.203 Y84.148 E0.54747
G1 X112.938 Y83.993 E0.68414
G1 X115.862 Y83.75 E0.83052
G1 X116.364 Y83.73 E0.85559
G1 X129.464 Y83.729 E1.50915
G1 X130.162 Y83.738 E1.54397
G1 X130.666 Y83.785 E1.56923
G1 X131.156 Y83.91 E1.59446
G1 X131.62 Y84.111 E1.61969
G1 X132.046 Y84.382 E1.64487
G1 X132.425 Y84.717 E1.67011
G1 X132.746 Y85.108 E1.69535
G1 X133.001 Y85.544 E1.72055
G1 X133.185 Y86.015 E1.74578
G1 X133.292 Y86.509 E1.77099
G1 X133.329 Y87.169 E1.80397
G1 X133.33 Y120.233 E3.45354
G1 X133.321 Y120.96 E3.48982
G1 X133.275 Y121.463 E3.51502
G1 X133.15 Y121.953 E3.54024
G1 X132.949 Y122.417 E3.56547
G1 X132.678 Y122.844 E3.5907
G1 X132.343 Y123.223 E3.61594
G1 X131.953 Y123.544 E3.64114
G1 X131.517 Y123.8 E3.66636
G1 X131.046 Y123.983 E3.69157
G1 X130.552 Y124.091 E3.7168
G1 X129.89 Y124.128 E3.74988
G1 X82.796 Y124.129 E6.09941
G1 X82.098 Y124.12 E6.13424
G1 X81.594 Y124.073 E6.15949
G1 X81.104 Y123.948 E6.18472
G1 X80.64 Y123.747 E6.20995
G1 X80.214 Y123.476 E6.23514
G1 X79.835 Y123.141 E6.26037
G1 X79.514 Y122.75 E6.28561
G1 X79.259 Y122.314 E6.31081
G1 X79.075 Y121.843 E6.33604
G1 X78.968 Y121.349 E6.36125
G1 X78.931 Y120.673 E6.39503
G1 X78.93 Y87.56 E8.04705
G1 X78.939 Y86.895 E8.08023
G1 X78.986 Y86.391 E8.10548
G1 X79.112 Y85.902 E8.13067
G1 X79.313 Y85.438 E8.1559
G1 X79.584 Y85.011 E8.18113
G1 X79.919 Y84.633 E8.20633
G1 X80.31 Y84.312 E8.23157
G1 X80.747 Y84.057 E8.25681
G1 X81.218 Y83.873 E8.28204
G1 X81.712 Y83.767 E8.30725
G1 X82.37 Y83.73 E8.34013
G1 X95.469 Y83.729 E8.99364
G1 X96.167 Y83.739 E9.02846
G1 X99.236 Y83.994 E9.1821
G0 F3600 X99.294 Y83.597
G1 F1800 X101.976 Y83.748 E9.31612
G1 X104.745 Y83.826 E9.45432
G1 X107.438 Y83.826 E9.58868
G1 X110.204 Y83.748 E9.72673
G1 X112.883 Y83.596 E9.8606
G1 X115.829 Y83.351 E10.00808
G1 X116.352 Y83.331 E10.03419
G1 X129.469 Y83.329 E10.6886
G1 X130.167 Y83.338 E10.72343
G1 X130.702 Y83.385 E10.75022
G1 X131.223 Y83.511 E10.77697
G1 X131.72 Y83.713 E10.80373
G1 X132.181 Y83.986 E10.83046
G1 X132.597 Y84.325 E10.85723
G1 X132.958 Y84.721 E10.88397
G1 X133.256 Y85.167 E10.91073
G1 X133.484 Y85.653 E10.93751
G1 X133.637 Y86.167 E10.96427
G1 X133.72 Y86.837 E10.99795
G1 X133.73 Y120.238 E12.66433
G1 X133.721 Y120.965 E12.7006
G1 X133.674 Y121.499 E12.72735
G1 X133.549 Y122.02 E12.75408
G1 X133.347 Y122.517 E12.78084
G1 X133.074 Y122.979 E12.80762
G1 X132.736 Y123.395 E12.83436
G1 X132.339 Y123.756 E12.86113
G1 X131.893 Y124.054 E12.88789
G1 X131.408 Y124.282 E12.91463
G1 X130.894 Y124.436 E12.9414
G1 X130.222 Y124.519 E12.97518
G1 X82.791 Y124.529 E15.34152
G1 X82.093 Y124.52 E15.37635
G1 X81.558 Y124.473 E15.40314
G1 X81.037 Y124.347 E15.42988
G1 X80.54 Y124.145 E15.45665
G1 X80.079 Y123.872 E15.48338
G1 X79.663 Y123.533 E15.51015
G1 X79.302 Y123.137 E15.53688
G1 X79.004 Y122.691 E15.56365
G1 X78.776 Y122.205 E15.59043
G1 X78.623 Y121.691 E15.61718
G1 X78.54 Y121.017 E15.65106
G1 X78.53 Y87.554 E17.32054
G1 X78.539 Y86.889 E17.35372
G1 X78.587 Y86.355 E17.38047
G1 X78.713 Y85.834 E17.40721
G1 X78.915 Y85.337 E17.43397
G1 X79.188 Y84.876 E17.4607
G1 X79.527 Y84.46 E17.48748
G1 X79.924 Y84.1 E17.51421
G1 X80.371 Y83.802 E17.54102
G1 X80.856 Y83.574 E17.56775
G1 X81.37 Y83.421 E17.59451
G1 X82.038 Y83.339 E17.62809
G1 X95.475 Y83.329 E18.29846
G1 X96.173 Y83.339 E18.33329
G1 X99.294 Y83.597 E18.48953
G1 F1500 E17.48953
;MESH:Top-Conduit.obj
G0 F3600 X95.516 Y86.264
G0 X95.516 Y87.543
G0 X95.46 Y107.599
G0 X95.53 Y107.529
;TYPE:WALL-INNER
G1 F1500 E18.48953
G1 F1800 X116.73 Y107.529 E19.5472
G1 X116.73 Y87.529 E20.545
G1 X129.53 Y87.529 E21.1836
G1 X129.53 Y120.329 E22.82
G1 X82.73 Y120.329 E25.15486
G1 X82.73 Y87.529 E26.79126
G1 X95.53 Y87.529 E27.42985
G1 X95.53 Y107.529 E28.42765
G0 F3600 X95.93 Y107.129
;TYPE:WALL-OUTER
G1 F1800 X116.33 Y107.129 E29.44542
G1 X116.33 Y87.129 E30.44322
G1 X129.93 Y87.129 E31.12173
G1 X129.93 Y120.729 E32.79804
G1 X82.33 Y120.729 E35.17281
G1 X82.33 Y87.129 E36.84912
G1 X95.93 Y87.129 E37.52763
G1 X95.93 Y107.129 E38.52543
G0 F3600 X96.13 Y107.129
G0 X96.13 Y107.629
G0 X95.14 Y107.919
;TYPE:SKIN
G1 F1800 X117.12 Y107.919 E39.62202
G1 X117.12 Y87.919 E40.61982
G1 X129.14 Y87.919 E41.2195
G1 X129.14 Y119.939 E42.81699
G1 X83.12 Y119.939 E45.11293
G1 X83.12 Y87.919 E46.71042
G1 X95.14 Y87.919 E47.3101
G1 X95.14 Y107.919 E48.3079
G0 F3600 X83.554 Y119.758
G1 F1800 X83.3 Y119.503 E48.32586
G0 F3600 X83.3 Y118.938
G1 F1800 X84.12 Y119.758 E48.38371
G0 F3600 X84.685 Y119.758
G1 F1800 X83.3 Y118.372 E48.48147
G0 F3600 X83.3 Y117.806
G1 F1800 X85.251 Y119.758 E48.61916
G0 F3600 X85.817 Y119.758
G1 F1800 X83.3 Y117.241 E48.79675
G0 F3600 X83.3 Y116.675
G1 F1800 X86.382 Y119.758 E49.01423
G0 F3600 X86.948 Y119.758
G1 F1800 X83.3 Y116.109 E49.27165
G0 F3600 X83.3 Y115.544
G1 F1800 X87.514 Y119.758 E49.56897
G0 F3600 X88.08 Y119.758
G1 F1800 X83.3 Y114.978 E49.90623
G0 F3600 X83.3 Y114.412
G1 F1800 X88.645 Y119.758 E50.28338
G0 F3600 X89.211 Y119.758
G1 F1800 X83.3 Y113.847 E50.70044
G0 F3600 X83.3 Y113.281
G1 F1800 X89.777 Y119.758 E51.15742
G0 F3600 X90.342 Y119.758
G1 F1800 X83.3 Y112.715 E51.65431
G0 F3600 X83.3 Y112.149
G1 F1800 X90.908 Y119.758 E52.19113
G0 F3600 X91.474 Y119.758
G1 F1800 X83.3 Y111.584 E52.76785
G0 F3600 X83.3 Y111.018
G1 F1800 X92.039 Y119.758 E53.38447
G0 F3600 X92.605 Y119.758
G1 F1800 X83.3 Y110.452 E54.04102
G0 F3600 X83.3 Y109.887
G1 F1800 X93.171 Y119.758 E54.73748
G0 F3600 X93.736 Y119.758
G1 F1800 X83.3 Y109.321 E55.47383
G0 F3600 X83.3 Y108.755
G1 F1800 X94.302 Y119.758 E56.25011
G0 F3600 X94.868 Y119.758
G1 F1800 X83.3 Y108.19 E57.0663
G0 F3600 X83.3 Y107.624
G1 F1800 X95.433 Y119.758 E57.92238
G0 F3600 X95.999 Y119.758
G1 F1800 X83.3 Y107.058 E58.8184
G0 F3600 X83.3 Y106.493
G1 F1800 X96.565 Y119.758 E59.75432
G0 F3600 X97.131 Y119.758
G1 F1800 X83.3 Y105.927 E60.73017
G0 F3600 X83.3 Y105.361
G1 F1800 X97.696 Y119.758 E61.74592
G0 F3600 X98.262 Y119.758
G1 F1800 X83.3 Y104.796 E62.80157
G0 F3600 X83.3 Y104.23
G1 F1800 X98.828 Y119.758 E63.89715
G0 F3600 X99.393 Y119.758
G1 F1800 X83.3 Y103.664 E65.03264
G0 F3600 X83.3 Y103.098
G1 F1800 X99.959 Y119.758 E66.20806
G0 F3600 X100.525 Y119.758
G1 F1800 X83.3 Y102.533 E67.42337
G0 F3600 X83.3 Y101.967
G1 F1800 X101.09 Y119.758 E68.67859
G0 F3600 X101.656 Y119.758
G1 F1800 X83.3 Y101.401 E69.97374
G0 F3600 X83.3 Y100.836
G1 F1800 X102.222 Y119.758 E71.30879
G0 F3600 X102.787 Y119.758
G1 F1800 X83.3 Y100.27 E72.68374
G0 F3600 X83.3 Y99.704
G1 F1800 X103.353 Y119.758 E74.09862
G0 F3600 X103.919 Y119.758
G1 F1800 X83.3 Y99.139 E75.5534
G0 F3600 X83.3 Y98.573
G1 F1800 X104.484 Y119.758 E77.04808
G0 F3600 X105.05 Y119.758
G1 F1800 X83.3 Y98.007 E78.5827
G0 F3600 X83.3 Y97.442
G1 F1800 X105.616 Y119.758 E80.15721
G0 F3600 X106.181 Y119.758
G1 F1800 X83.3 Y96.876 E81.77162
G0 F3600 X83.3 Y96.31
G1 F1800 X94.96 Y107.97 E82.5943
G0 F3600 X95.088 Y108.098
G1 F1800 X106.747 Y119.758 E83.41694
G0 F3600 X107.313 Y119.758
G1 F1800 X95.653 Y108.098 E84.23962
G0 F3600 X96.219 Y108.098
G1 F1800 X107.879 Y119.758 E85.06229
G0 F3600 X108.444 Y119.758
G1 F1800 X96.785 Y108.098 E85.88493
G0 F3600 X97.35 Y108.098
G1 F1800 X109.01 Y119.758 E86.70761
G0 F3600 X109.576 Y119.758
G1 F1800 X97.916 Y108.098 E87.53029
G0 F3600 X98.482 Y108.098
G1 F1800 X110.141 Y119.758 E88.35293
G0 F3600 X110.707 Y119.758
G1 F1800 X99.047 Y108.098 E89.1756
G0 F3600 X99.613 Y108.098
G1 F1800 X111.273 Y119.758 E89.99828
G0 F3600 X111.838 Y119.758
G1 F1800 X100.179 Y108.098 E90.82092
G0 F3600 X100.745 Y108.098
G1 F1800 X112.404 Y119.758 E91.64356
G0 F3600 X112.97 Y119.758
G1 F1800 X101.31 Y108.098 E92.46624
G0 F3600 X101.876 Y108.098
G1 F1800 X113.535 Y119.758 E93.28888
G0 F3600 X114.101 Y119.758
G1 F1800 X102.442 Y108.098 E94.11152
G0 F3600 X103.007 Y108.098
G1 F1800 X114.667 Y119.758 E94.93419
G0 F3600 X115.232 Y119.758
G1 F1800 X103.573 Y108.098 E95.75683
G0 F3600 X104.139 Y108.098
G1 F1800 X115.798 Y119.758 E96.57947
G0 F3600 X116.364 Y119.758
G1 F1800 X104.704 Y108.098 E97.40215
G0 F3600 X105.27 Y108.098
G1 F1800 X116.93 Y119.758 E98.22483
G0 F3600 X117.495 Y119.758
G1 F1800 X105.836 Y108.098 E99.04747
G0 F3600 X106.401 Y108.098
G1 F1800 X118.061 Y119.758 E99.87014
G0 F3600 X118.627 Y119.758
G1 F1800 X106.967 Y108.098 E100.69282
G0 F3600 X107.533 Y108.098
G1 F1800 X119.192 Y119.758 E101.51546
G0 F3600 X119.758 Y119.758
G1 F1800 X108.098 Y108.098 E102.33814
G0 F3600 X108.664 Y108.098
G1 F1800 X120.324 Y119.758 E103.16081
G0 F3600 X120.889 Y119.758
G1 F1800 X109.23 Y108.098 E103.98345
G0 F3600 X109.796 Y108.098
G1 F1800 X121.455 Y119.758 E104.80609
G0 F3600 X122.021 Y119.758
G1 F1800 X110.361 Y108.098 E105.62877
G0 F3600 X110.927 Y108.098
G1 F1800 X122.586 Y119.758 E106.45141
G0 F3600 X123.152 Y119.758
G1 F1800 X111.493 Y108.098 E107.27405
G0 F3600 X112.058 Y108.098
G1 F1800 X123.718 Y119.758 E108.09673
G0 F3600 X124.283 Y119.758
G1 F1800 X112.624 Y108.098 E108.91937
G0 F3600 X113.19 Y108.098
G1 F1800 X124.849 Y119.758 E109.74201
G0 F3600 X125.415 Y119.758
G1 F1800 X113.755 Y108.098 E110.56468
G0 F3600 X114.321 Y108.098
G1 F1800 X125.98 Y119.758 E111.38732
G0 F3600 X126.546 Y119.758
G1 F1800 X114.887 Y108.098 E112.20996
G0 F3600 X115.452 Y108.098
G1 F1800 X127.112 Y119.758 E113.03264
G0 F3600 X127.678 Y119.758
G1 F1800 X116.018 Y108.098 E113.85532
G0 F3600 X116.584 Y108.098
G1 F1800 X128.243 Y119.758 E114.67796
G0 F3600 X128.809 Y119.758
G1 F1800 X117.149 Y108.098 E115.50063
G0 F3600 X117.299 Y107.683
G1 F1800 X128.959 Y119.342 E116.32327
G0 F3600 X128.959 Y118.776
G1 F1800 X117.299 Y107.117 E117.14592
G0 F3600 X117.299 Y106.551
G1 F1800 X128.959 Y118.211 E117.96859
G0 F3600 X128.959 Y117.645
G1 F1800 X117.299 Y105.986 E118.79123
G0 F3600 X117.299 Y105.42
G1 F1800 X128.959 Y117.079 E119.61387
G0 F3600 X128.959 Y116.514
G1 F1800 X117.299 Y104.854 E120.43655
G0 F3600 X117.299 Y104.289
G1 F1800 X128.959 Y115.948 E121.25919
G0 F3600 X128.959 Y115.382
G1 F1800 X117.299 Y103.723 E122.08183
G0 F3600 X117.299 Y103.157
G1 F1800 X128.959 Y114.817 E122.90451
G0 F3600 X128.959 Y114.251
G1 F1800 X117.299 Y102.592 E123.72715
G0 F3600 X117.299 Y102.026
G1 F1800 X128.959 Y113.685 E124.54979
G0 F3600 X128.959 Y113.12
G1 F1800 X117.299 Y101.46 E125.37246
G0 F3600 X117.299 Y100.894
G1 F1800 X128.959 Y112.554 E126.19514
G0 F3600 X128.959 Y111.988
G1 F1800 X117.299 Y100.329 E127.01778
G0 F3600 X117.299 Y99.763
G1 F1800 X128.959 Y111.423 E127.84046
G0 F3600 X128.959 Y110.857
G1 F1800 X117.299 Y99.197 E128.66313
G0 F3600 X117.299 Y98.632
G1 F1800 X128.959 Y110.291 E129.48577
G0 F3600 X128.959 Y109.726
G1 F1800 X117.299 Y98.066 E130.30845
G0 F3600 X117.299 Y97.5
G1 F1800 X128.959 Y109.16 E131.13112
G0 F3600 X128.959 Y108.594
G1 F1800 X117.299 Y96.935 E131.95377
G0 F3600 X117.299 Y96.369
G1 F1800 X128.959 Y108.028 E132.77641
G0 F3600 X128.959 Y107.463
G1 F1800 X117.299 Y95.803 E133.59908
G0 F3600 X117.299 Y95.238
G1 F1800 X128.959 Y106.897 E134.42172
G0 F3600 X128.959 Y106.331
G1 F1800 X117.299 Y94.672 E135.24436
G0 F3600 X117.299 Y94.106
G1 F1800 X128.959 Y105.766 E136.06704
G0 F3600 X128.959 Y105.2
G1 F1800 X117.299 Y93.541 E136.88968
G0 F3600 X117.299 Y92.975
G1 F1800 X128.959 Y104.634 E137.71232
G0 F3600 X128.959 Y104.069
G1 F1800 X117.299 Y92.409 E138.535
G0 F3600 X117.299 Y91.843
G1 F1800 X128.959 Y103.503 E139.35767
G0 F3600 X128.959 Y102.937
G1 F1800 X117.299 Y91.278 E140.18031
G0 F3600 X117.299 Y90.712
G1 F1800 X128.959 Y102.372 E141.00299
G0 F3600 X128.959 Y101.806
G1 F1800 X117.299 Y90.146 E141.82567
G0 F3600 X117.299 Y89.581
G1 F1800 X128.959 Y101.24 E142.64831
G0 F3600 X128.959 Y100.675
G1 F1800 X117.299 Y89.015 E143.47098
G0 F3600 X117.299 Y88.449
G1 F1800 X128.959 Y100.109 E144.29366
G0 F3600 X128.959 Y99.543
G1 F1800 X117.514 Y88.099 E145.10113
G0 F3600 X118.08 Y88.099
G1 F1800 X128.959 Y98.977 E145.86867
G0 F3600 X128.959 Y98.412
G1 F1800 X118.646 Y88.099 E146.5963
G0 F3600 X119.211 Y88.099
G1 F1800 X128.959 Y97.846 E147.28404
G0 F3600 X128.959 Y97.28
G1 F1800 X119.777 Y88.099 E147.93185
G0 F3600 X120.343 Y88.099
G1 F1800 X128.959 Y96.715 E148.53975
G0 F3600 X128.959 Y96.149
G1 F1800 X120.908 Y88.099 E149.10776
G0 F3600 X121.474 Y88.099
G1 F1800 X128.959 Y95.583 E149.63583
G0 F3600 X128.959 Y95.018
G1 F1800 X122.04 Y88.099 E150.124
G0 F3600 X122.605 Y88.099
G1 F1800 X128.959 Y94.452 E150.57228
G0 F3600 X128.959 Y93.886
G1 F1800 X123.171 Y88.099 E150.98062
G0 F3600 X123.737 Y88.099
G1 F1800 X128.959 Y93.321 E151.34906
G0 F3600 X128.959 Y92.755
G1 F1800 X124.303 Y88.099 E151.67756
G0 F3600 X124.868 Y88.099
G1 F1800 X128.959 Y92.189 E151.96617
G0 F3600 X128.959 Y91.624
G1 F1800 X125.434 Y88.099 E152.21488
G0 F3600 X126 Y88.099
G1 F1800 X128.959 Y91.058 E152.42365
G0 F3600 X128.959 Y90.492
G1 F1800 X126.565 Y88.099 E152.59253
G0 F3600 X127.131 Y88.099
G1 F1800 X128.959 Y89.927 E152.7215
G0 F3600 X128.959 Y89.361
G1 F1800 X127.697 Y88.099 E152.81054
G0 F3600 X128.262 Y88.099
G1 F1800 X128.959 Y88.795 E152.85968
G0 F3600 X128.959 Y88.229
G1 F1800 X128.828 Y88.099 E152.86889
G0 F3600 X116.758 Y107.557
G0 X95.502 Y107.557
G0 X94.96 Y88.171
G1 F1800 X94.887 Y88.099 E152.87401
G0 F3600 X94.321 Y88.099
G1 F1800 X94.96 Y88.737 E152.91906
G0 F3600 X94.96 Y89.303
G1 F1800 X93.755 Y88.099 E153.00404
G0 F3600 X93.19 Y88.099
G1 F1800 X94.96 Y89.869 E153.12892
G0 F3600 X94.96 Y90.434
G1 F1800 X92.624 Y88.099 E153.29371
G0 F3600 X92.058 Y88.099
G1 F1800 X94.96 Y91 E153.49842
G0 F3600 X94.96 Y91.566
G1 F1800 X91.493 Y88.099 E153.74304
G0 F3600 X90.927 Y88.099
G1 F1800 X94.96 Y92.131 E154.02755
G0 F3600 X94.96 Y92.697
G1 F1800 X90.361 Y88.099 E154.352
G0 F3600 X89.796 Y88.099
G1 F1800 X94.96 Y93.263 E154.71635
G0 F3600 X94.96 Y93.828
G1 F1800 X89.23 Y88.099 E155.1206
G0 F3600 X88.664 Y88.099
G1 F1800 X94.96 Y94.394 E155.56478
G0 F3600 X94.96 Y94.96
G1 F1800 X88.099 Y88.099 E156.04886
G0 F3600 X87.533 Y88.099
G1 F1800 X94.96 Y95.525 E156.57284
G0 F3600 X94.96 Y96.091
G1 F1800 X86.967 Y88.099 E157.13675
G0 F3600 X86.402 Y88.099
G1 F1800 X94.96 Y96.657 E157.74057
G0 F3600 X94.96 Y97.222
G1 F1800 X85.836 Y88.099 E158.38428
G0 F3600 X85.27 Y88.099
G1 F1800 X94.96 Y97.788 E159.06792
G0 F3600 X94.96 Y98.354
G1 F1800 X84.705 Y88.099 E159.79147
G0 F3600 X84.139 Y88.099
G1 F1800 X94.96 Y98.919 E160.55491
G0 F3600 X94.96 Y99.485
G1 F1800 X83.573 Y88.099 E161.35829
G0 F3600 X83.3 Y88.391
G1 F1800 X94.96 Y100.051 E162.18097
G0 F3600 X94.96 Y100.617
G1 F1800 X83.3 Y88.956 E163.00368
G0 F3600 X83.3 Y89.522
G1 F1800 X94.96 Y101.182 E163.82636
G0 F3600 X94.96 Y101.748
G1 F1800 X83.3 Y90.088 E164.64903
G0 F3600 X83.3 Y90.653
G1 F1800 X94.96 Y102.314 E165.47174
G0 F3600 X94.96 Y102.879
G1 F1800 X83.3 Y91.219 E166.29442
G0 F3600 X83.3 Y91.785
G1 F1800 X94.96 Y103.445 E167.1171
G0 F3600 X94.96 Y104.011
G1 F1800 X83.3 Y92.35 E167.93981
G0 F3600 X83.3 Y92.916
G1 F1800 X94.96 Y104.576 E168.76248
G0 F3600 X94.96 Y105.142
G1 F1800 X83.3 Y93.482 E169.58516
G0 F3600 X83.3 Y94.048
G1 F1800 X94.96 Y105.708 E170.40783
G0 F3600 X94.96 Y106.273
G1 F1800 X83.3 Y94.613 E171.23051
G0 F3600 X83.3 Y95.179
G1 F1800 X94.96 Y106.839 E172.05319
G0 F3600 X94.96 Y107.405
G1 F1800 X83.3 Y95.745 E172.87586
G1 X83.23 Y95.675
;MESH:NONMESH
G0 F600 X83.23 Y95.675 Z0.36
G0 F3600 X95.46 Y107.599
G0 X95.53 Y107.529
;TIME_ELAPSED:124.945213
;LAYER:1
M140 S60
M106 S255
;TYPE:WALL-INNER
;MESH:Top-Conduit.obj
G1 F2700 X116.73 Y107.529 E173.0874
G1 X116.73 Y87.529 E173.28696
G1 X129.53 Y87.529 E173.41468
G1 X129.53 Y120.329 E173.74196
G1 X82.73 Y120.329 E174.20893
G1 X82.73 Y87.529 E174.53621
