;FLAVOR:Marlin
;TIME:4104
;Filament used: 1.01975m
;Layer height: 0.12
;MINX:73.2
;MINY:80.2
;MINZ:0.12
;MAXX:136.8
;MAXY:129.8
;MAXZ:17.4
;Generated with Cura_SteamEngine 4.4.0
M140 S60
M105
M190 S60
M104 S200
M105
M109 S200
M82 ;absolute extrusion mode
G28 ;Home
G1 Z15.0 F6000 ;Move the platform down 15mm
;Prime the extruder
G92 E0
G1 F200 E3
G92 E0
G92 E0
G92 E0
G1 F1500 E-6.5
;LAYER_COUNT:145
;LAYER:0
M107
G0 F3600 X75.623 Y82.349 Z0.12
;TYPE:SKIRT
G1 F1500 E0
G1 F1800 X76.222 Y81.834 E0.00594
G1 X76.87 Y81.383 E0.01188
G1 X77.561 Y80.999 E0.01783
G1 X78.286 Y80.687 E0.02377
G1 X79.039 Y80.45 E0.02971
G1 X79.813 Y80.291 E0.03566
G1 X80.598 Y80.21 E0.04159
G1 X81 Y80.2 E0.04462
G1 X129 Y80.2 E0.40578
G1 X129.789 Y80.24 E0.41173
G1 X130.569 Y80.359 E0.41766
G1 X131.334 Y80.557 E0.42361
G1 X132.074 Y80.831 E0.42955
G1 X132.783 Y81.179 E0.43549
G1 X133.454 Y81.597 E0.44144
G1 X134.078 Y82.08 E0.44737
G1 X134.651 Y82.623 E0.45331
G1 X135.166 Y83.222 E0.45926
G1 X135.617 Y83.87 E0.4652
G1 X136.001 Y84.561 E0.47115
G1 X136.313 Y85.286 E0.47709
G1 X136.55 Y86.039 E0.48303
G1 X136.709 Y86.813 E0.48897
G1 X136.79 Y87.598 E0.49491
G1 X136.8 Y88 E0.49793
G1 X136.8 Y122 E0.75376
G1 X136.76 Y122.789 E0.7597
G1 X136.641 Y123.569 E0.76564
G1 X136.443 Y124.334 E0.77158
G1 X136.169 Y125.074 E0.77752
G1 X135.821 Y125.783 E0.78346
G1 X135.403 Y126.454 E0.78941
G1 X134.92 Y127.078 E0.79535
G1 X134.377 Y127.651 E0.80129
G1 X133.778 Y128.166 E0.80723
G1 X133.13 Y128.617 E0.81317
G1 X132.439 Y129.001 E0.81912
G1 X131.714 Y129.313 E0.82506
G1 X130.961 Y129.55 E0.831
G1 X130.187 Y129.709 E0.83695
G1 X129.402 Y129.79 E0.84288
G1 X129 Y129.8 E0.84591
G1 X115 Y129.8 E0.95125
G1 X114.211 Y129.76 E0.95719
G1 X113.431 Y129.641 E0.96313
G1 X112.666 Y129.443 E0.96908
G1 X111.926 Y129.169 E0.97501
G1 X111.217 Y128.821 E0.98096
G1 X110.546 Y128.403 E0.9869
G1 X109.922 Y127.92 E0.99284
G1 X109.349 Y127.377 E0.99878
G1 X108.834 Y126.778 E1.00472
G1 X108.383 Y126.13 E1.01066
G1 X107.999 Y125.439 E1.01661
G1 X107.687 Y124.714 E1.02255
G1 X107.45 Y123.961 E1.02849
G1 X107.291 Y123.187 E1.03444
G1 X107.21 Y122.402 E1.04037
G1 X107.2 Y122 E1.0434
G1 X107.2 Y109.8 E1.1352
G1 X102.8 Y109.8 E1.1683
G1 X102.8 Y122 E1.2601
G1 X102.76 Y122.789 E1.26604
G1 X102.641 Y123.569 E1.27198
G1 X102.443 Y124.334 E1.27792
G1 X102.169 Y125.074 E1.28386
G1 X101.821 Y125.783 E1.2898
G1 X101.403 Y126.454 E1.29575
G1 X100.92 Y127.078 E1.30169
G1 X100.377 Y127.651 E1.30763
G1 X99.778 Y128.166 E1.31357
G1 X99.13 Y128.617 E1.31951
G1 X98.439 Y129.001 E1.32546
G1 X97.714 Y129.313 E1.3314
G1 X96.961 Y129.55 E1.33734
G1 X96.187 Y129.709 E1.34329
G1 X95.402 Y129.79 E1.34922
G1 X95 Y129.8 E1.35225
G1 X81 Y129.8 E1.45759
G1 X80.211 Y129.76 E1.46353
G1 X79.431 Y129.641 E1.46947
G1 X78.666 Y129.443 E1.47542
G1 X77.926 Y129.169 E1.48135
G1 X77.217 Y128.821 E1.4873
G1 X76.546 Y128.403 E1.49324
G1 X75.922 Y127.92 E1.49918
G1 X75.349 Y127.377 E1.50512
G1 X74.834 Y126.778 E1.51106
G1 X74.383 Y126.13 E1.517
G1 X73.999 Y125.439 E1.52295
G1 X73.687 Y124.714 E1.52889
G1 X73.45 Y123.961 E1.53483
G1 X73.291 Y123.187 E1.54078
G1 X73.21 Y122.402 E1.54671
G1 X73.2 Y122 E1.54974
G1 X73.2 Y88 E1.80556
G1 X73.24 Y87.211 E1.81151
G1 X73.359 Y86.431 E1.81744
G1 X73.557 Y85.666 E1.82339
G1 X73.831 Y84.926 E1.82933
G1 X74.179 Y84.217 E1.83527
G1 X74.597 Y83.546 E1.84122
G1 X75.08 Y82.922 E1.84716
G1 X75.623 Y82.349 E1.8531
G0 F3600 X76.016 Y82.53
G1 F1800 X76.611 Y82.042 E1.85889
G1 X77.253 Y81.619 E1.86467
G1 X77.936 Y81.264 E1.87046
G1 X78.651 Y80.983 E1.87624
G1 X79.393 Y80.777 E1.88204
G1 X80.151 Y80.649 E1.88782
G1 X81 Y80.6 E1.89422
G1 X129 Y80.6 E2.25538
G1 X129.768 Y80.64 E2.26117
G1 X130.528 Y80.759 E2.26696
G1 X131.271 Y80.957 E2.27274
G1 X131.99 Y81.231 E2.27853
G1 X132.676 Y81.578 E2.28432
G1 X133.323 Y81.994 E2.2901
G1 X133.923 Y82.475 E2.29589
G1 X134.47 Y83.016 E2.30168
G1 X134.958 Y83.611 E2.30747
G1 X135.381 Y84.253 E2.31325
G1 X135.736 Y84.936 E2.31905
G1 X136.017 Y85.651 E2.32483
G1 X136.223 Y86.393 E2.33062
G1 X136.351 Y87.151 E2.3364
G1 X136.4 Y88 E2.3428
G1 X136.4 Y122 E2.59863
G1 X136.36 Y122.768 E2.60441
G1 X136.241 Y123.528 E2.6102
G1 X136.043 Y124.271 E2.61599
G1 X135.769 Y124.99 E2.62178
G1 X135.422 Y125.676 E2.62756
G1 X135.006 Y126.323 E2.63335
G1 X134.525 Y126.923 E2.63913
G1 X133.984 Y127.47 E2.64492
G1 X133.389 Y127.958 E2.65071
G1 X132.747 Y128.381 E2.6565
G1 X132.064 Y128.736 E2.66229
G1 X131.349 Y129.017 E2.66807
G1 X130.607 Y129.223 E2.67386
G1 X129.849 Y129.351 E2.67965
G1 X129 Y129.4 E2.68605
G1 X115 Y129.4 E2.79139
G1 X114.232 Y129.36 E2.79717
G1 X113.472 Y129.241 E2.80296
G1 X112.729 Y129.043 E2.80875
G1 X112.01 Y128.769 E2.81454
G1 X111.324 Y128.422 E2.82032
G1 X110.677 Y128.006 E2.82611
G1 X110.077 Y127.525 E2.83189
G1 X109.53 Y126.984 E2.83768
G1 X109.042 Y126.389 E2.84347
G1 X108.619 Y125.747 E2.84926
G1 X108.264 Y125.064 E2.85505
G1 X107.983 Y124.349 E2.86083
G1 X107.777 Y123.607 E2.86662
G1 X107.649 Y122.849 E2.87241
G1 X107.6 Y122 E2.87881
G1 X107.6 Y109.4 E2.97361
G1 X102.4 Y109.4 E3.01274
G1 X102.4 Y122 E3.10754
G1 X102.36 Y122.768 E3.11333
G1 X102.241 Y123.528 E3.11912
G1 X102.043 Y124.271 E3.1249
G1 X101.769 Y124.99 E3.13069
G1 X101.422 Y125.676 E3.13648
G1 X101.006 Y126.323 E3.14226
G1 X100.525 Y126.923 E3.14805
G1 X99.984 Y127.47 E3.15384
G1 X99.389 Y127.958 E3.15963
G1 X98.747 Y128.381 E3.16541
G1 X98.064 Y128.736 E3.17121
G1 X97.349 Y129.017 E3.17699
G1 X96.607 Y129.223 E3.18278
G1 X95.849 Y129.351 E3.18856
G1 X95 Y129.4 E3.19496
G1 X81 Y129.4 E3.3003
G1 X80.232 Y129.36 E3.30609
G1 X79.472 Y129.241 E3.31188
G1 X78.729 Y129.043 E3.31766
G1 X78.01 Y128.769 E3.32345
G1 X77.324 Y128.422 E3.32924
G1 X76.677 Y128.006 E3.33502
G1 X76.077 Y127.525 E3.34081
G1 X75.53 Y126.984 E3.3466
G1 X75.042 Y126.389 E3.35239
G1 X74.619 Y125.747 E3.35817
G1 X74.264 Y125.064 E3.36397
G1 X73.983 Y124.349 E3.36975
G1 X73.777 Y123.607 E3.37554
G1 X73.649 Y122.849 E3.38132
G1 X73.6 Y122 E3.38772
G1 X73.6 Y88 E3.64355
G1 X73.64 Y87.232 E3.64933
G1 X73.759 Y86.472 E3.65512
G1 X73.957 Y85.729 E3.66091
G1 X74.231 Y85.01 E3.6667
G1 X74.578 Y84.324 E3.67248
G1 X74.994 Y83.677 E3.67827
G1 X75.475 Y83.077 E3.68405
G1 X76.016 Y82.53 E3.68984
G0 F3600 X76.408 Y82.716
G1 F1800 X76.998 Y82.257 E3.69547
G1 X77.634 Y81.862 E3.7011
G1 X78.308 Y81.538 E3.70673
G1 X79.013 Y81.288 E3.71236
G1 X79.741 Y81.114 E3.71799
G1 X80.483 Y81.019 E3.72362
G1 X81 Y81 E3.72751
G1 X129 Y81 E4.08867
G1 X129.747 Y81.04 E4.0943
G1 X130.485 Y81.159 E4.09992
G1 X131.207 Y81.357 E4.10556
G1 X131.903 Y81.63 E4.11118
G1 X132.566 Y81.977 E4.11681
G1 X133.189 Y82.392 E4.12245
G1 X133.763 Y82.871 E4.12807
G1 X134.284 Y83.408 E4.1337
G1 X134.743 Y83.998 E4.13932
G1 X135.138 Y84.634 E4.14496
G1 X135.462 Y85.308 E4.15058
G1 X135.712 Y86.013 E4.15621
G1 X135.886 Y86.741 E4.16184
G1 X135.981 Y87.483 E4.16747
G1 X136 Y88 E4.17137
G1 X136 Y122 E4.42719
G1 X135.96 Y122.747 E4.43282
G1 X135.841 Y123.485 E4.43844
G1 X135.643 Y124.207 E4.44408
G1 X135.37 Y124.903 E4.4497
G1 X135.023 Y125.566 E4.45533
G1 X134.608 Y126.189 E4.46096
G1 X134.129 Y126.763 E4.46659
G1 X133.592 Y127.284 E4.47222
G1 X133.002 Y127.743 E4.47784
G1 X132.366 Y128.138 E4.48348
G1 X131.692 Y128.462 E4.4891
G1 X130.987 Y128.712 E4.49473
G1 X130.259 Y128.886 E4.50036
G1 X129.517 Y128.981 E4.50599
G1 X129 Y129 E4.50988
G1 X115 Y129 E4.61522
G1 X114.253 Y128.96 E4.62085
G1 X113.515 Y128.841 E4.62648
G1 X112.793 Y128.643 E4.63211
G1 X112.097 Y128.37 E4.63774
G1 X111.434 Y128.023 E4.64337
G1 X110.811 Y127.608 E4.649
G1 X110.237 Y127.129 E4.65462
G1 X109.716 Y126.592 E4.66025
G1 X109.257 Y126.002 E4.66588
G1 X108.862 Y125.366 E4.67151
G1 X108.538 Y124.692 E4.67714
G1 X108.288 Y123.987 E4.68277
G1 X108.114 Y123.259 E4.6884
G1 X108.019 Y122.517 E4.69403
G1 X108 Y122 E4.69792
G1 X108 Y109 E4.79573
G1 X102 Y109 E4.84088
G1 X102 Y122 E4.93869
G1 X101.96 Y122.747 E4.94432
G1 X101.841 Y123.485 E4.94995
G1 X101.643 Y124.207 E4.95558
G1 X101.37 Y124.903 E4.96121
G1 X101.023 Y125.566 E4.96684
G1 X100.608 Y126.189 E4.97247
G1 X100.129 Y126.763 E4.97809
G1 X99.592 Y127.284 E4.98372
G1 X99.002 Y127.743 E4.98935
G1 X98.366 Y128.138 E4.99498
G1 X97.692 Y128.462 E5.00061
G1 X96.987 Y128.712 E5.00624
G1 X96.259 Y128.886 E5.01187
G1 X95.517 Y128.981 E5.0175
G1 X95 Y129 E5.02139
G1 X81 Y129 E5.12673
G1 X80.253 Y128.96 E5.13236
G1 X79.515 Y128.841 E5.13798
G1 X78.793 Y128.643 E5.14362
G1 X78.097 Y128.37 E5.14924
G1 X77.434 Y128.023 E5.15487
G1 X76.811 Y127.608 E5.1605
G1 X76.237 Y127.129 E5.16613
G1 X75.716 Y126.592 E5.17176
G1 X75.257 Y126.002 E5.17738
G1 X74.862 Y125.366 E5.18302
G1 X74.538 Y124.692 E5.18864
G1 X74.288 Y123.987 E5.19427
G1 X74.114 Y123.259 E5.1999
G1 X74.019 Y122.517 E5.20553
G1 X74 Y122 E5.20942
G1 X74 Y88 E5.46525
G1 X74.04 Y87.253 E5.47088
G1 X74.159 Y86.515 E5.4765
G1 X74.357 Y85.793 E5.48213
G1 X74.63 Y85.097 E5.48776
G1 X74.977 Y84.434 E5.49339
G1 X75.392 Y83.811 E5.49902
G1 X75.871 Y83.237 E5.50465
G1 X76.408 Y82.716 E5.51028
G0 F3600 X76.265 Y83.402
G1 F1800 X76.799 Y82.909 E5.51575
G1 X77.384 Y82.479 E5.52121
G1 X78.013 Y82.115 E5.52668
G1 X78.678 Y81.822 E5.53214
G1 X79.371 Y81.604 E5.53761
G1 X80.083 Y81.464 E5.54307
G1 X81 Y81.4 E5.54999
G1 X129 Y81.4 E5.91115
G1 X129.725 Y81.44 E5.91661
G1 X130.442 Y81.559 E5.92208
G1 X131.141 Y81.757 E5.92755
G1 X131.814 Y82.03 E5.93301
G1 X132.453 Y82.375 E5.93848
G1 X133.05 Y82.789 E5.94394
G1 X133.598 Y83.265 E5.9494
G1 X134.091 Y83.799 E5.95487
G1 X134.521 Y84.384 E5.96034
G1 X134.885 Y85.013 E5.9658
G1 X135.178 Y85.678 E5.97127
G1 X135.396 Y86.371 E5.97674
G1 X135.536 Y87.083 E5.9822
G1 X135.6 Y88 E5.98911
G1 X135.6 Y122 E6.24494
G1 X135.56 Y122.725 E6.2504
G1 X135.441 Y123.442 E6.25587
G1 X135.243 Y124.141 E6.26134
G1 X134.97 Y124.814 E6.2668
G1 X134.625 Y125.453 E6.27226
G1 X134.211 Y126.05 E6.27773
G1 X133.735 Y126.598 E6.28319
G1 X133.201 Y127.091 E6.28866
G1 X132.616 Y127.521 E6.29412
G1 X131.987 Y127.885 E6.29959
G1 X131.322 Y128.178 E6.30506
G1 X130.629 Y128.396 E6.31053
G1 X129.917 Y128.536 E6.31599
G1 X129 Y128.6 E6.3229
G1 X115 Y128.6 E6.42824
G1 X114.275 Y128.56 E6.4337
G1 X113.558 Y128.441 E6.43917
G1 X112.859 Y128.243 E6.44464
G1 X112.186 Y127.97 E6.4501
G1 X111.547 Y127.625 E6.45557
G1 X110.95 Y127.211 E6.46103
G1 X110.402 Y126.735 E6.4665
G1 X109.909 Y126.201 E6.47196
G1 X109.479 Y125.616 E6.47743
G1 X109.115 Y124.987 E6.4829
G1 X108.822 Y124.322 E6.48836
G1 X108.604 Y123.629 E6.49383
G1 X108.464 Y122.917 E6.49929
G1 X108.4 Y122 E6.50621
G1 X108.4 Y108.6 E6.60703
G1 X101.6 Y108.6 E6.65819
G1 X101.6 Y122 E6.75902
G1 X101.56 Y122.725 E6.76448
G1 X101.441 Y123.442 E6.76995
G1 X101.243 Y124.141 E6.77542
G1 X100.97 Y124.814 E6.78088
G1 X100.625 Y125.453 E6.78635
G1 X100.211 Y126.05 E6.79181
G1 X99.735 Y126.598 E6.79727
G1 X99.201 Y127.091 E6.80274
G1 X98.616 Y127.521 E6.80821
G1 X97.987 Y127.885 E6.81367
G1 X97.322 Y128.178 E6.81914
G1 X96.629 Y128.396 E6.82461
G1 X95.917 Y128.536 E6.83007
G1 X95 Y128.6 E6.83698
G1 X81 Y128.6 E6.94232
G1 X80.275 Y128.56 E6.94779
G1 X79.558 Y128.441 E6.95325
G1 X78.859 Y128.243 E6.95872
G1 X78.186 Y127.97 E6.96419
G1 X77.547 Y127.625 E6.96965
G1 X76.95 Y127.211 E6.97512
G1 X76.402 Y126.735 E6.98058
G1 X75.909 Y126.201 E6.98605
G1 X75.479 Y125.616 E6.99151
G1 X75.115 Y124.987 E6.99698
G1 X74.822 Y124.322 E7.00244
G1 X74.604 Y123.629 E7.00791
G1 X74.464 Y122.917 E7.01337
G1 X74.4 Y122 E7.02029
G1 X74.4 Y88 E7.27611
G1 X74.44 Y87.275 E7.28157
G1 X74.559 Y86.558 E7.28704
G1 X74.757 Y85.859 E7.29251
G1 X75.03 Y85.186 E7.29797
G1 X75.375 Y84.547 E7.30344
G1 X75.789 Y83.95 E7.3089
G1 X76.265 Y83.402 E7.31437
G0 F3600 X76.659 Y83.573
G1 F1800 X77.189 Y83.109 E7.31967
G1 X77.768 Y82.709 E7.32496
G1 X78.389 Y82.377 E7.33026
G1 X79.043 Y82.117 E7.33555
G1 X79.723 Y81.933 E7.34086
G1 X80.419 Y81.827 E7.34615
G1 X81 Y81.8 E7.35053
G1 X129 Y81.8 E7.71169
G1 X129.703 Y81.84 E7.71699
G1 X130.397 Y81.959 E7.72229
G1 X131.072 Y82.157 E7.72758
G1 X131.721 Y82.429 E7.73288
G1 X132.335 Y82.774 E7.73817
G1 X132.906 Y83.185 E7.74347
G1 X133.427 Y83.659 E7.74877
G1 X133.891 Y84.189 E7.75407
G1 X134.291 Y84.768 E7.75936
G1 X134.623 Y85.389 E7.76466
G1 X134.883 Y86.043 E7.76996
G1 X135.067 Y86.723 E7.77526
G1 X135.173 Y87.419 E7.78055
G1 X135.2 Y88 E7.78493
G1 X135.2 Y122 E8.04075
G1 X135.16 Y122.703 E8.04605
G1 X135.041 Y123.397 E8.05135
G1 X134.843 Y124.072 E8.05664
G1 X134.571 Y124.721 E8.06194
G1 X134.226 Y125.335 E8.06724
G1 X133.815 Y125.906 E8.07253
G1 X133.341 Y126.427 E8.07783
G1 X132.811 Y126.891 E8.08313
G1 X132.232 Y127.291 E8.08843
G1 X131.611 Y127.623 E8.09372
G1 X130.957 Y127.883 E8.09902
G1 X130.277 Y128.067 E8.10432
G1 X129.581 Y128.173 E8.10962
G1 X129 Y128.2 E8.11399
G1 X115 Y128.2 E8.21933
G1 X114.297 Y128.16 E8.22463
G1 X113.603 Y128.041 E8.22993
G1 X112.928 Y127.843 E8.23522
G1 X112.279 Y127.571 E8.24052
G1 X111.665 Y127.226 E8.24582
G1 X111.094 Y126.815 E8.25111
G1 X110.573 Y126.341 E8.25641
G1 X110.109 Y125.811 E8.26171
G1 X109.709 Y125.232 E8.267
G1 X109.377 Y124.611 E8.2723
G1 X109.117 Y123.957 E8.2776
G1 X108.933 Y123.277 E8.2829
G1 X108.827 Y122.581 E8.2882
G1 X108.8 Y122 E8.29257
G1 X108.8 Y108.2 E8.39641
G1 X101.2 Y108.2 E8.45359
G1 X101.2 Y122 E8.55742
G1 X101.16 Y122.703 E8.56272
G1 X101.041 Y123.397 E8.56802
G1 X100.843 Y124.072 E8.57331
G1 X100.571 Y124.721 E8.57861
G1 X100.226 Y125.335 E8.58391
G1 X99.815 Y125.906 E8.5892
G1 X99.341 Y126.427 E8.5945
G1 X98.811 Y126.891 E8.5998
G1 X98.232 Y127.291 E8.6051
G1 X97.611 Y127.623 E8.61039
G1 X96.957 Y127.883 E8.61569
G1 X96.277 Y128.067 E8.62099
G1 X95.581 Y128.173 E8.62629
G1 X95 Y128.2 E8.63066
G1 X81 Y128.2 E8.736
G1 X80.297 Y128.16 E8.7413
G1 X79.603 Y128.041 E8.7466
G1 X78.928 Y127.843 E8.75189
G1 X78.279 Y127.571 E8.75719
G1 X77.665 Y127.226 E8.76249
G1 X77.094 Y126.815 E8.76778
G1 X76.573 Y126.341 E8.77308
G1 X76.109 Y125.811 E8.77838
G1 X75.709 Y125.232 E8.78367
G1 X75.377 Y124.611 E8.78897
G1 X75.117 Y123.957 E8.79427
G1 X74.933 Y123.277 E8.79957
G1 X74.827 Y122.581 E8.80487
G1 X74.8 Y122 E8.80924
G1 X74.8 Y88 E9.06507
G1 X74.84 Y87.297 E9.07036
G1 X74.959 Y86.603 E9.07566
G1 X75.157 Y85.928 E9.08095
G1 X75.429 Y85.279 E9.08625
G1 X75.774 Y84.665 E9.09155
G1 X76.185 Y84.094 E9.09684
G1 X76.659 Y83.573 E9.10214
G0 F3600 X77.053 Y83.751
G1 F1800 X77.578 Y83.317 E9.10727
G1 X78.15 Y82.948 E9.11239
G1 X78.762 Y82.649 E9.11751
G1 X79.404 Y82.424 E9.12263
G1 X80.069 Y82.275 E9.12776
G1 X81 Y82.2 E9.13479
G1 X129 Y82.2 E9.49595
G1 X129.68 Y82.24 E9.50108
G1 X130.35 Y82.359 E9.5062
G1 X131.002 Y82.556 E9.51132
G1 X131.626 Y82.828 E9.51644
G1 X132.214 Y83.172 E9.52157
G1 X132.758 Y83.582 E9.52669
G1 X133.249 Y84.053 E9.53181
G1 X133.683 Y84.578 E9.53694
G1 X134.052 Y85.15 E9.54206
G1 X134.351 Y85.762 E9.54719
G1 X134.576 Y86.404 E9.5523
G1 X134.725 Y87.069 E9.55743
G1 X134.8 Y88 E9.56446
G1 X134.8 Y122 E9.82028
G1 X134.76 Y122.68 E9.82541
G1 X134.641 Y123.35 E9.83053
G1 X134.444 Y124.002 E9.83565
G1 X134.172 Y124.626 E9.84077
G1 X133.828 Y125.214 E9.8459
G1 X133.418 Y125.758 E9.85103
G1 X132.947 Y126.249 E9.85615
G1 X132.422 Y126.683 E9.86127
G1 X131.85 Y127.052 E9.86639
G1 X131.238 Y127.351 E9.87152
G1 X130.596 Y127.576 E9.87664
G1 X129.931 Y127.725 E9.88176
G1 X129 Y127.8 E9.88879
G1 X115 Y127.8 E9.99413
G1 X114.32 Y127.76 E9.99926
G1 X113.65 Y127.641 E10.00438
G1 X112.998 Y127.444 E10.0095
G1 X112.374 Y127.172 E10.01462
G1 X111.786 Y126.828 E10.01975
G1 X111.242 Y126.418 E10.02487
G1 X110.751 Y125.947 E10.02999
G1 X110.317 Y125.422 E10.03512
